(** This GCode was generated by ReplicatorG 0040 **)
(*  using Skeinforge (50)  *)
(*  for a Dual headed The Replicator  *)
(*  on 2014/12/14 17:30:42 (-0500) *)
(**** start.gcode for The Replicator, dual head ****)
M103 (disable RPM)
M73 P0 (enable build progress)
G21 (set units to mm)
G90 (set positioning to absolute)
M109 S80 T0 (set HBP temperature)
M104 S220 T0 (set extruder temperature) (temp updated by printOMatic)
(**** begin homing ****)
G162 X Y F2500 (home XY axes maximum)
G161 Z F1100 (home Z axis minimum)
G92 Z-5 (set Z to -5)
G1 Z0.0 (move Z to "0")
G161 Z F100 (home Z axis minimum)
M132 X Y Z A B (Recall stored home offsets for XYZAB axis)
(**** end homing ****)
G1 X-110.5 Y-74 Z150 F3300.0 (move to waiting position)
G130 X20 Y20 Z20 A20 B20 (Lower stepper Vrefs while heating)
M6 T0 (wait for toolhead, and HBP to reach temperature)
G130 X127 Y127 Z40 A127 B127 (Set Stepper motor Vref to defaults)
M108 R3.0 T0
G0 X-110.5 Y-74 (Position Nozzle)
G0 Z0.6      (Position Height)
M108 R5.0    (Set Extruder Speed)
M101         (Start Extruder)
G4 P2000     (Create Anchor)
(**** end of start.gcode ****)
M105
M126
;M113 S1.0
;M108 R13.5
G1 X-11.4 Y11.4 Z0.14 F3300.0
G1 F1200.0
G1 E1.0
G1 F3300.0
M101
G1 X-11.22 Y11.4 Z0.14 F900.0 E1.008
G1 X-11.04 Y11.4 Z0.14 F1500.0 E1.013
G1 X-10.86 Y11.4 Z0.14 F1800.0 E1.017
G1 X10.18 Y11.4 Z0.14 F1800.0 E1.502
G1 X11.4 Y10.18 Z0.14 F810.0 E1.59
G1 X11.4 Y-11.4 Z0.14 F810.0 E2.695
G1 X-11.4 Y-11.4 Z0.14 F810.0 E3.861
G1 X-11.4 Y10.86 Z0.14 F810.0 E5.0
G1 F1200.0
G1 E4.0
G1 F810.0
M103
G1 X-11.4 Y11.13 Z0.14 F405.0
G1 X-11.4 Y11.4 Z0.14 F135.0
;M108 R13.5
G1 X-9.83 Y-9.44 Z0.14 F3300.0
M73 P1 (display progress)
G1 F1200.0
G1 E5.0
G1 F3300.0
M101
G1 X-9.8 Y-9.79 Z0.14 F1800.0 E5.009
G1 X-9.8 Y-9.8 Z0.14 F320.0 E5.009
G1 X-9.63 Y-9.8 Z0.14 F900.0 E5.017
G1 X-9.45 Y-9.8 Z0.14 F1500.0 E5.022
G1 X-9.27 Y-9.8 Z0.14 F1800.0 E5.027
G1 X9.8 Y-9.8 Z0.14 F1800.0 E5.466
G1 X9.8 Y9.8 Z0.14 F810.0 E6.469
G1 X-9.8 Y9.8 Z0.14 F810.0 E7.472
G1 X-9.8 Y-9.25 Z0.14 F810.0 E8.447
G1 F1200.0
G1 E8.447
G1 F810.0
M103
G1 X-9.8 Y-9.52 Z0.14 F405.0
G1 X-9.8 Y-9.79 Z0.14 F135.0
;M108 R24.0
G1 X-9.42 Y-9.41 Z0.14 F3300.0
G1 F1200.0
G1 E8.447
G1 F3300.0
M101
G1 X-9.4 Y-9.4 Z0.14 F310.0 E8.453
G1 X-9.05 Y-9.4 Z0.14 F900.0 E8.482
G1 X-8.69 Y-9.4 Z0.14 F1500.0 E8.499
G1 X-8.33 Y-9.4 Z0.14 F1800.0 E8.514
G1 X9.4 Y-9.4 Z0.14 F1800.0 E9.24
G1 X9.4 Y9.4 Z0.14 F1620.0 E10.095
G1 X-9.4 Y9.4 Z0.14 F1620.0 E10.95
G1 X-9.4 Y-8.31 Z0.14 F1620.0 E11.756
G1 F1200.0
G1 E10.756
G1 F1620.0
M103
G1 X-9.4 Y-8.85 Z0.14 F810.0
G1 X-9.4 Y-9.39 Z0.14 F270.0
G1 X-0.41 Y-9.13 Z0.14 F3300.0
G1 F1200.0
G1 E11.756
G1 F3300.0
M101
G1 X-0.0 Y-9.12 Z0.14 F1800.0 E11.773
G1 X0.0 Y-8.76 Z0.14 F900.0 E11.802
G1 X0.0 Y-8.4 Z0.14 F1500.0 E11.82
G1 X0.0 Y-8.04 Z0.14 F1800.0 E11.835
G1 X0.0 Y9.12 Z0.14 F1800.0 E12.537
G1 X-0.4 Y9.12 Z0.14 F1620.0 E12.555
M73 P2 (display progress)
G1 X-0.4 Y-9.12 Z0.14 F1620.0 E13.385
G1 X-0.8 Y-9.12 Z0.14 F1620.0 E13.403
G1 X-0.8 Y9.12 Z0.14 F1620.0 E14.233
G1 X-1.2 Y9.12 Z0.14 F1620.0 E14.251
G1 X-1.2 Y-9.12 Z0.14 F1620.0 E15.081
G1 X-1.6 Y-9.12 Z0.14 F1620.0 E15.099
G1 X-1.6 Y9.12 Z0.14 F1620.0 E15.929
G1 X-2.0 Y9.12 Z0.14 F1620.0 E15.947
G1 X-2.0 Y-9.12 Z0.14 F1620.0 E16.777
G1 X-2.4 Y-9.12 Z0.14 F1620.0 E16.795
G1 X-2.4 Y9.12 Z0.14 F1620.0 E17.624
G1 X-2.8 Y9.12 Z0.14 F1620.0 E17.643
G1 X-2.8 Y-9.12 Z0.14 F1620.0 E18.472
G1 X-3.2 Y-9.12 Z0.14 F1620.0 E18.491
G1 X-3.2 Y9.12 Z0.14 F1620.0 E19.32
G1 X-3.6 Y9.12 Z0.14 F1620.0 E19.338
G1 X-3.6 Y-9.12 Z0.14 F1620.0 E20.168
G1 X-4.0 Y-9.12 Z0.14 F1620.0 E20.186
G1 X-4.0 Y9.12 Z0.14 F1620.0 E21.016
G1 X-4.4 Y9.12 Z0.14 F1620.0 E21.034
G1 X-4.4 Y-9.12 Z0.14 F1620.0 E21.864
G1 X-4.8 Y-9.12 Z0.14 F1620.0 E21.882
G1 X-4.8 Y9.12 Z0.14 F1620.0 E22.712
G1 X-5.2 Y9.12 Z0.14 F1620.0 E22.73
G1 X-5.2 Y-9.12 Z0.14 F1620.0 E23.56
G1 X-5.6 Y-9.12 Z0.14 F1620.0 E23.578
G1 X-5.6 Y9.12 Z0.14 F1620.0 E24.408
G1 X-6.0 Y9.12 Z0.14 F1620.0 E24.426
G1 X-6.0 Y-9.12 Z0.14 F1620.0 E25.256
G1 X-6.4 Y-9.12 Z0.14 F1620.0 E25.274
G1 X-6.4 Y9.12 Z0.14 F1620.0 E26.103
G1 X-6.8 Y9.12 Z0.14 F1620.0 E26.122
G1 X-6.8 Y-9.12 Z0.14 F1620.0 E26.951
G1 X-7.2 Y-9.12 Z0.14 F1620.0 E26.97
G1 X-7.2 Y9.12 Z0.14 F1620.0 E27.799
G1 X-7.6 Y9.12 Z0.14 F1620.0 E27.817
G1 X-7.6 Y-9.12 Z0.14 F1620.0 E28.647
G1 X-8.0 Y-9.12 Z0.14 F1620.0 E28.665
G1 X-8.0 Y9.12 Z0.14 F1620.0 E29.495
G1 X-8.4 Y9.12 Z0.14 F1620.0 E29.513
G1 X-8.4 Y-9.12 Z0.14 F1620.0 E30.343
G1 X-8.8 Y-9.12 Z0.14 F1620.0 E30.361
G1 X-8.8 Y8.04 Z0.14 F1620.0 E31.142
G1 F1200.0
G1 E30.142
G1 F1620.0
M103
G1 X-8.8 Y8.58 Z0.14 F810.0
G1 X-8.8 Y9.12 Z0.14 F270.0
G1 X0.0 Y9.12 Z0.14 F3300.0
M73 P3 (display progress)
G1 F1200.0
G1 E31.142
G1 F3300.0
M101
G1 X0.4 Y9.12 Z0.14 F1800.0 E31.158
G1 X0.4 Y8.76 Z0.14 F900.0 E31.188
G1 X0.4 Y8.4 Z0.14 F1500.0 E31.205
G1 X0.4 Y8.04 Z0.14 F1800.0 E31.22
G1 X0.4 Y-9.12 Z0.14 F1800.0 E31.922
G1 X0.8 Y-9.12 Z0.14 F1620.0 E31.941
G1 X0.8 Y9.12 Z0.14 F1620.0 E32.77
G1 X1.2 Y9.12 Z0.14 F1620.0 E32.789
G1 X1.2 Y-9.12 Z0.14 F1620.0 E33.618
G1 X1.6 Y-9.12 Z0.14 F1620.0 E33.636
G1 X1.6 Y9.12 Z0.14 F1620.0 E34.466
G1 X2.0 Y9.12 Z0.14 F1620.0 E34.484
G1 X2.0 Y-9.12 Z0.14 F1620.0 E35.314
G1 X2.4 Y-9.12 Z0.14 F1620.0 E35.332
G1 X2.4 Y9.12 Z0.14 F1620.0 E36.162
G1 X2.8 Y9.12 Z0.14 F1620.0 E36.18
G1 X2.8 Y-9.12 Z0.14 F1620.0 E37.01
G1 X3.2 Y-9.12 Z0.14 F1620.0 E37.028
G1 X3.2 Y9.12 Z0.14 F1620.0 E37.858
G1 X3.6 Y9.12 Z0.14 F1620.0 E37.876
G1 X3.6 Y-9.12 Z0.14 F1620.0 E38.706
G1 X4.0 Y-9.12 Z0.14 F1620.0 E38.724
G1 X4.0 Y9.12 Z0.14 F1620.0 E39.554
G1 X4.4 Y9.12 Z0.14 F1620.0 E39.572
G1 X4.4 Y-9.12 Z0.14 F1620.0 E40.401
G1 X4.8 Y-9.12 Z0.14 F1620.0 E40.42
G1 X4.8 Y9.12 Z0.14 F1620.0 E41.249
G1 X5.2 Y9.12 Z0.14 F1620.0 E41.268
G1 X5.2 Y-9.12 Z0.14 F1620.0 E42.097
G1 X5.6 Y-9.12 Z0.14 F1620.0 E42.115
G1 X5.6 Y9.12 Z0.14 F1620.0 E42.945
G1 X6.0 Y9.12 Z0.14 F1620.0 E42.963
G1 X6.0 Y-9.12 Z0.14 F1620.0 E43.793
G1 X6.4 Y-9.12 Z0.14 F1620.0 E43.811
G1 X6.4 Y9.12 Z0.14 F1620.0 E44.641
G1 X6.8 Y9.12 Z0.14 F1620.0 E44.659
G1 X6.8 Y-9.12 Z0.14 F1620.0 E45.489
G1 X7.2 Y-9.12 Z0.14 F1620.0 E45.507
G1 X7.2 Y9.12 Z0.14 F1620.0 E46.337
G1 X7.6 Y9.12 Z0.14 F1620.0 E46.355
G1 X7.6 Y-9.12 Z0.14 F1620.0 E47.185
G1 X8.0 Y-9.12 Z0.14 F1620.0 E47.203
G1 X8.0 Y9.12 Z0.14 F1620.0 E48.033
G1 X8.4 Y9.12 Z0.14 F1620.0 E48.051
G1 X8.4 Y-9.12 Z0.14 F1620.0 E48.88
G1 X8.8 Y-9.12 Z0.14 F1620.0 E48.899
M73 P4 (display progress)
G1 X8.8 Y8.04 Z0.14 F1620.0 E49.679
G1 F1200.0
G1 E48.679
G1 F1620.0
M103
G1 X8.8 Y8.58 Z0.14 F810.0
G1 X8.8 Y9.12 Z0.14 F270.0
;M108 R30.0
G1 X-8.79 Y-8.48 Z0.4 F3300.0
G1 F1200.0
G1 E49.679
G1 F3300.0
M101
G1 X-9.4 Y-9.09 Z0.41 F1800.0 E49.724
G1 X-9.4 Y-9.4 Z0.41 F766.5 E49.761
G1 X-9.31 Y-9.4 Z0.41 F900.0 E49.77
G1 X-8.91 Y-9.4 Z0.41 F1500.0 E49.795
G1 X-8.51 Y-9.4 Z0.41 F1800.0 E49.815
G1 X9.4 Y-9.4 Z0.41 F1800.0 E50.732
G1 X9.4 Y9.4 Z0.41 F1800.0 E51.694
G1 X-9.4 Y9.4 Z0.41 F1800.0 E52.656
G1 X-9.4 Y-7.89 Z0.41 F1800.0 E53.541
G1 F1200.0
G1 E52.605
G1 F1800.0
M103
G1 X-9.4 Y-8.49 Z0.41 F900.0
G1 X-9.4 Y-9.09 Z0.41 F300.0
;M108 R15.0
G1 X-9.71 Y-9.8 Z0.41 F3300.0
G1 F1200.0
G1 E53.541
G1 F3300.0
M101
G1 X-9.51 Y-9.8 Z0.41 F900.0 E53.551
G1 X-9.4 Y-9.8 Z0.41 F1233.0 E53.555
G1 X-9.31 Y-9.8 Z0.41 F1500.0 E53.558
G1 X-9.11 Y-9.8 Z0.41 F1800.0 E53.563
G1 X9.8 Y-9.8 Z0.41 F1800.0 E54.047
G1 X9.8 Y9.8 Z0.41 F900.0 E55.05
G1 X-9.8 Y9.8 Z0.41 F900.0 E56.053
G1 X-9.8 Y-9.29 Z0.41 F900.0 E57.03
G1 F1200.0
G1 E56.03
G1 F900.0
M103
G1 X-9.8 Y-9.59 Z0.41 F450.0
G1 X-9.8 Y-9.8 Z0.41 F239.0
G1 X-9.71 Y-9.8 Z0.41 F150.0
;M108 R30.0
M73 P5 (display progress)
G1 X8.42 Y-0.36 Z0.41 F3300.0
G1 F1200.0
G1 E57.03
G1 F3300.0
M101
G1 X9.12 Y-0.0 Z0.41 F1800.0 E57.07
G1 X8.72 Y0.0 Z0.41 F900.0 E57.111
G1 X8.32 Y0.0 Z0.41 F1500.0 E57.135
G1 X7.92 Y0.0 Z0.41 F1800.0 E57.156
G1 X-9.12 Y0.0 Z0.41 F1800.0 E58.028
G1 X-9.12 Y-0.4 Z0.41 F1800.0 E58.048
G1 X9.12 Y-0.4 Z0.41 F1800.0 E58.982
G1 X9.12 Y-0.8 Z0.41 F1800.0 E59.002
G1 X-9.12 Y-0.8 Z0.41 F1800.0 E59.936
G1 X-9.12 Y-1.2 Z0.41 F1800.0 E59.956
G1 X9.12 Y-1.2 Z0.41 F1800.0 E60.889
G1 X9.12 Y-1.6 Z0.41 F1800.0 E60.91
G1 X-9.12 Y-1.6 Z0.41 F1800.0 E61.843
G1 X-9.12 Y-2.0 Z0.41 F1800.0 E61.864
G1 X9.12 Y-2.0 Z0.41 F1800.0 E62.797
G1 X9.12 Y-2.4 Z0.41 F1800.0 E62.818
G1 X-9.12 Y-2.4 Z0.41 F1800.0 E63.751
G1 X-9.12 Y-2.8 Z0.41 F1800.0 E63.772
G1 X9.12 Y-2.8 Z0.41 F1800.0 E64.705
G1 X9.12 Y-3.2 Z0.41 F1800.0 E64.725
G1 X-9.12 Y-3.2 Z0.41 F1800.0 E65.659
G1 X-9.12 Y-3.6 Z0.41 F1800.0 E65.679
G1 X9.12 Y-3.6 Z0.41 F1800.0 E66.613
G1 X9.12 Y-4.0 Z0.41 F1800.0 E66.633
G1 X-9.12 Y-4.0 Z0.41 F1800.0 E67.567
G1 X-9.12 Y-4.4 Z0.41 F1800.0 E67.587
G1 X9.12 Y-4.4 Z0.41 F1800.0 E68.521
G1 X9.12 Y-4.8 Z0.41 F1800.0 E68.541
G1 X-9.12 Y-4.8 Z0.41 F1800.0 E69.474
G1 X-9.12 Y-5.2 Z0.41 F1800.0 E69.495
G1 X9.12 Y-5.2 Z0.41 F1800.0 E70.428
G1 X9.12 Y-5.6 Z0.41 F1800.0 E70.449
G1 X-9.12 Y-5.6 Z0.41 F1800.0 E71.382
G1 X-9.12 Y-6.0 Z0.41 F1800.0 E71.403
G1 X9.12 Y-6.0 Z0.41 F1800.0 E72.336
G1 X9.12 Y-6.4 Z0.41 F1800.0 E72.357
G1 X-9.12 Y-6.4 Z0.41 F1800.0 E73.29
G1 X-9.12 Y-6.8 Z0.41 F1800.0 E73.31
G1 X9.12 Y-6.8 Z0.41 F1800.0 E74.244
G1 X9.12 Y-7.2 Z0.41 F1800.0 E74.264
G1 X-9.12 Y-7.2 Z0.41 F1800.0 E75.198
G1 X-9.12 Y-7.6 Z0.41 F1800.0 E75.218
G1 X9.12 Y-7.6 Z0.41 F1800.0 E76.152
G1 X9.12 Y-8.0 Z0.41 F1800.0 E76.172
G1 X-9.12 Y-8.0 Z0.41 F1800.0 E77.106
M73 P6 (display progress)
G1 X-9.12 Y-8.4 Z0.41 F1800.0 E77.126
G1 X9.12 Y-8.4 Z0.41 F1800.0 E78.059
G1 X9.12 Y-8.8 Z0.41 F1800.0 E78.08
G1 X-7.92 Y-8.8 Z0.41 F1800.0 E78.952
G1 F1200.0
G1 E77.952
G1 F1800.0
M103
G1 X-8.52 Y-8.8 Z0.41 F900.0
G1 X-9.12 Y-8.8 Z0.41 F300.0
G1 X-9.12 Y-0.04 Z0.41 F3300.0
G1 F1200.0
G1 E78.952
G1 F3300.0
M101
G1 X-9.12 Y0.4 Z0.41 F1800.0 E78.975
G1 X-8.72 Y0.4 Z0.41 F900.0 E79.015
G1 X-8.32 Y0.4 Z0.41 F1500.0 E79.04
G1 X-7.92 Y0.4 Z0.41 F1800.0 E79.061
G1 X9.12 Y0.4 Z0.41 F1800.0 E79.933
G1 X9.12 Y0.8 Z0.41 F1800.0 E79.953
G1 X-9.12 Y0.8 Z0.41 F1800.0 E80.886
G1 X-9.12 Y1.2 Z0.41 F1800.0 E80.907
G1 X9.12 Y1.2 Z0.41 F1800.0 E81.84
G1 X9.12 Y1.6 Z0.41 F1800.0 E81.861
G1 X-9.12 Y1.6 Z0.41 F1800.0 E82.794
G1 X-9.12 Y2.0 Z0.41 F1800.0 E82.815
G1 X9.12 Y2.0 Z0.41 F1800.0 E83.748
G1 X9.12 Y2.4 Z0.41 F1800.0 E83.769
G1 X-9.12 Y2.4 Z0.41 F1800.0 E84.702
G1 X-9.12 Y2.8 Z0.41 F1800.0 E84.722
G1 X9.12 Y2.8 Z0.41 F1800.0 E85.656
G1 X9.12 Y3.2 Z0.41 F1800.0 E85.676
G1 X-9.12 Y3.2 Z0.41 F1800.0 E86.61
G1 X-9.12 Y3.6 Z0.41 F1800.0 E86.63
G1 X9.12 Y3.6 Z0.41 F1800.0 E87.564
G1 X9.12 Y4.0 Z0.41 F1800.0 E87.584
G1 X-9.12 Y4.0 Z0.41 F1800.0 E88.518
G1 X-9.12 Y4.4 Z0.41 F1800.0 E88.538
G1 X9.12 Y4.4 Z0.41 F1800.0 E89.471
G1 X9.12 Y4.8 Z0.41 F1800.0 E89.492
G1 X-9.12 Y4.8 Z0.41 F1800.0 E90.425
G1 X-9.12 Y5.2 Z0.41 F1800.0 E90.446
G1 X9.12 Y5.2 Z0.41 F1800.0 E91.379
G1 X9.12 Y5.6 Z0.41 F1800.0 E91.4
G1 X-9.12 Y5.6 Z0.41 F1800.0 E92.333
G1 X-9.12 Y6.0 Z0.41 F1800.0 E92.354
G1 X9.12 Y6.0 Z0.41 F1800.0 E93.287
G1 X9.12 Y6.4 Z0.41 F1800.0 E93.307
G1 X-9.12 Y6.4 Z0.41 F1800.0 E94.241
M73 P7 (display progress)
G1 X-9.12 Y6.8 Z0.41 F1800.0 E94.261
G1 X9.12 Y6.8 Z0.41 F1800.0 E95.195
G1 X9.12 Y7.2 Z0.41 F1800.0 E95.215
G1 X-9.12 Y7.2 Z0.41 F1800.0 E96.149
G1 X-9.12 Y7.6 Z0.41 F1800.0 E96.169
G1 X9.12 Y7.6 Z0.41 F1800.0 E97.103
G1 X9.12 Y8.0 Z0.41 F1800.0 E97.123
G1 X-9.12 Y8.0 Z0.41 F1800.0 E98.056
G1 X-9.12 Y8.4 Z0.41 F1800.0 E98.077
G1 X9.12 Y8.4 Z0.41 F1800.0 E99.01
G1 X9.12 Y8.8 Z0.41 F1800.0 E99.031
G1 X-7.92 Y8.8 Z0.41 F1800.0 E99.903
G1 F1200.0
G1 E98.903
G1 F1800.0
M103
G1 X-8.52 Y8.8 Z0.41 F900.0
G1 X-9.12 Y8.8 Z0.41 F300.0
G1 X-9.21 Y-8.68 Z0.66 F3300.0
G1 F1200.0
G1 E99.903
G1 F3300.0
M101
G1 X-9.22 Y-9.4 Z0.68 F1800.0 E99.939
G1 X-8.82 Y-9.4 Z0.68 F900.0 E99.98
G1 X-8.42 Y-9.4 Z0.68 F1500.0 E100.005
G1 X-8.02 Y-9.4 Z0.68 F1800.0 E100.025
G1 X9.4 Y-9.4 Z0.68 F1800.0 E100.917
G1 X9.4 Y9.4 Z0.68 F1800.0 E101.879
G1 X-9.4 Y9.4 Z0.68 F1800.0 E102.841
G1 X-9.4 Y-8.38 Z0.68 F1800.0 E103.751
G1 F1200.0
G1 E103.322
G1 F1800.0
M103
G1 X-9.4 Y-8.98 Z0.68 F900.0
G1 X-9.4 Y-9.4 Z0.68 F483.0
G1 X-9.22 Y-9.4 Z0.68 F300.0
;M108 R15.0
G1 X-9.22 Y-9.8 Z0.68 F3300.0
G1 F1200.0
G1 E103.751
G1 F3300.0
M101
G1 X-9.02 Y-9.8 Z0.68 F900.0 E103.761
G1 X-8.82 Y-9.8 Z0.68 F1500.0 E103.767
G1 X-8.62 Y-9.8 Z0.68 F1800.0 E103.772
G1 X9.8 Y-9.8 Z0.68 F1800.0 E104.244
G1 X9.8 Y9.8 Z0.68 F900.0 E105.247
G1 X-9.8 Y9.8 Z0.68 F900.0 E106.25
M73 P8 (display progress)
G1 X-9.8 Y-9.8 Z0.68 F900.0 E107.253
G1 F1200.0
G1 E106.253
G1 F900.0
M103
G1 X-9.8 Y-9.8 Z0.68 F733.0
G1 X-9.52 Y-9.8 Z0.68 F450.0
G1 X-9.4 Y-9.8 Z0.68 F333.0
G1 X-9.22 Y-9.8 Z0.68 F150.0
;M108 R30.0
G1 X-0.44 Y-9.15 Z0.68 F3300.0
G1 F1200.0
G1 E107.253
G1 F3300.0
M101
G1 X-0.0 Y-9.12 Z0.68 F1800.0 E107.275
G1 X0.0 Y-8.72 Z0.68 F900.0 E107.316
G1 X0.0 Y-8.32 Z0.68 F1500.0 E107.341
G1 X0.0 Y-7.92 Z0.68 F1800.0 E107.361
G1 X0.0 Y9.12 Z0.68 F1800.0 E108.233
G1 X-0.4 Y9.12 Z0.68 F1800.0 E108.254
G1 X-0.4 Y-9.12 Z0.68 F1800.0 E109.187
G1 X-0.8 Y-9.12 Z0.68 F1800.0 E109.208
G1 X-0.8 Y9.12 Z0.68 F1800.0 E110.141
G1 X-1.2 Y9.12 Z0.68 F1800.0 E110.162
G1 X-1.2 Y-9.12 Z0.68 F1800.0 E111.095
G1 X-1.6 Y-9.12 Z0.68 F1800.0 E111.116
G1 X-1.6 Y9.12 Z0.68 F1800.0 E112.049
G1 X-2.0 Y9.12 Z0.68 F1800.0 E112.069
G1 X-2.0 Y-9.12 Z0.68 F1800.0 E113.003
G1 X-2.4 Y-9.12 Z0.68 F1800.0 E113.023
G1 X-2.4 Y9.12 Z0.68 F1800.0 E113.957
G1 X-2.8 Y9.12 Z0.68 F1800.0 E113.977
G1 X-2.8 Y-9.12 Z0.68 F1800.0 E114.911
G1 X-3.2 Y-9.12 Z0.68 F1800.0 E114.931
G1 X-3.2 Y9.12 Z0.68 F1800.0 E115.865
G1 X-3.6 Y9.12 Z0.68 F1800.0 E115.885
G1 X-3.6 Y-9.12 Z0.68 F1800.0 E116.818
G1 X-4.0 Y-9.12 Z0.68 F1800.0 E116.839
G1 X-4.0 Y9.12 Z0.68 F1800.0 E117.772
G1 X-4.4 Y9.12 Z0.68 F1800.0 E117.793
G1 X-4.4 Y-9.12 Z0.68 F1800.0 E118.726
G1 X-4.8 Y-9.12 Z0.68 F1800.0 E118.747
G1 X-4.8 Y9.12 Z0.68 F1800.0 E119.68
G1 X-5.2 Y9.12 Z0.68 F1800.0 E119.701
G1 X-5.2 Y-9.12 Z0.68 F1800.0 E120.634
G1 X-5.6 Y-9.12 Z0.68 F1800.0 E120.654
G1 X-5.6 Y9.12 Z0.68 F1800.0 E121.588
G1 X-6.0 Y9.12 Z0.68 F1800.0 E121.608
G1 X-6.0 Y-9.12 Z0.68 F1800.0 E122.542
M73 P9 (display progress)
G1 X-6.4 Y-9.12 Z0.68 F1800.0 E122.562
G1 X-6.4 Y9.12 Z0.68 F1800.0 E123.496
G1 X-6.8 Y9.12 Z0.68 F1800.0 E123.516
G1 X-6.8 Y-9.12 Z0.68 F1800.0 E124.45
G1 X-7.2 Y-9.12 Z0.68 F1800.0 E124.47
G1 X-7.2 Y9.12 Z0.68 F1800.0 E125.403
G1 X-7.6 Y9.12 Z0.68 F1800.0 E125.424
G1 X-7.6 Y-9.12 Z0.68 F1800.0 E126.357
G1 X-8.0 Y-9.12 Z0.68 F1800.0 E126.378
G1 X-8.0 Y9.12 Z0.68 F1800.0 E127.311
G1 X-8.4 Y9.12 Z0.68 F1800.0 E127.332
G1 X-8.4 Y-9.12 Z0.68 F1800.0 E128.265
G1 X-8.8 Y-9.12 Z0.68 F1800.0 E128.286
G1 X-8.8 Y7.92 Z0.68 F1800.0 E129.158
G1 F1200.0
G1 E128.158
G1 F1800.0
M103
G1 X-8.8 Y8.52 Z0.68 F900.0
G1 X-8.8 Y9.12 Z0.68 F300.0
G1 X-0.04 Y9.12 Z0.68 F3300.0
G1 F1200.0
G1 E129.158
G1 F3300.0
M101
G1 X0.4 Y9.12 Z0.68 F1800.0 E129.18
G1 X0.4 Y8.72 Z0.68 F900.0 E129.221
G1 X0.4 Y8.32 Z0.68 F1500.0 E129.246
G1 X0.4 Y7.92 Z0.68 F1800.0 E129.266
G1 X0.4 Y-9.12 Z0.68 F1800.0 E130.138
G1 X0.8 Y-9.12 Z0.68 F1800.0 E130.159
G1 X0.8 Y9.12 Z0.68 F1800.0 E131.092
G1 X1.2 Y9.12 Z0.68 F1800.0 E131.112
G1 X1.2 Y-9.12 Z0.68 F1800.0 E132.046
G1 X1.6 Y-9.12 Z0.68 F1800.0 E132.066
G1 X1.6 Y9.12 Z0.68 F1800.0 E133.0
G1 X2.0 Y9.12 Z0.68 F1800.0 E133.02
G1 X2.0 Y-9.12 Z0.68 F1800.0 E133.954
G1 X2.4 Y-9.12 Z0.68 F1800.0 E133.974
G1 X2.4 Y9.12 Z0.68 F1800.0 E134.908
G1 X2.8 Y9.12 Z0.68 F1800.0 E134.928
G1 X2.8 Y-9.12 Z0.68 F1800.0 E135.861
G1 X3.2 Y-9.12 Z0.68 F1800.0 E135.882
G1 X3.2 Y9.12 Z0.68 F1800.0 E136.815
G1 X3.6 Y9.12 Z0.68 F1800.0 E136.836
G1 X3.6 Y-9.12 Z0.68 F1800.0 E137.769
G1 X4.0 Y-9.12 Z0.68 F1800.0 E137.79
G1 X4.0 Y9.12 Z0.68 F1800.0 E138.723
G1 X4.4 Y9.12 Z0.68 F1800.0 E138.744
G1 X4.4 Y-9.12 Z0.68 F1800.0 E139.677
M73 P10 (display progress)
G1 X4.8 Y-9.12 Z0.68 F1800.0 E139.697
G1 X4.8 Y9.12 Z0.68 F1800.0 E140.631
G1 X5.2 Y9.12 Z0.68 F1800.0 E140.651
G1 X5.2 Y-9.12 Z0.68 F1800.0 E141.585
G1 X5.6 Y-9.12 Z0.68 F1800.0 E141.605
G1 X5.6 Y9.12 Z0.68 F1800.0 E142.539
G1 X6.0 Y9.12 Z0.68 F1800.0 E142.559
G1 X6.0 Y-9.12 Z0.68 F1800.0 E143.493
G1 X6.4 Y-9.12 Z0.68 F1800.0 E143.513
G1 X6.4 Y9.12 Z0.68 F1800.0 E144.446
G1 X6.8 Y9.12 Z0.68 F1800.0 E144.467
G1 X6.8 Y-9.12 Z0.68 F1800.0 E145.4
G1 X7.2 Y-9.12 Z0.68 F1800.0 E145.421
G1 X7.2 Y9.12 Z0.68 F1800.0 E146.354
G1 X7.6 Y9.12 Z0.68 F1800.0 E146.375
G1 X7.6 Y-9.12 Z0.68 F1800.0 E147.308
G1 X8.0 Y-9.12 Z0.68 F1800.0 E147.329
G1 X8.0 Y9.12 Z0.68 F1800.0 E148.262
G1 X8.4 Y9.12 Z0.68 F1800.0 E148.282
G1 X8.4 Y-9.12 Z0.68 F1800.0 E149.216
G1 X8.8 Y-9.12 Z0.68 F1800.0 E149.236
G1 X8.8 Y7.92 Z0.68 F1800.0 E150.108
G1 F1200.0
G1 E149.108
G1 F1800.0
M103
G1 X8.8 Y8.52 Z0.68 F900.0
G1 X8.8 Y9.12 Z0.68 F300.0
G1 X-8.79 Y-8.66 Z0.94 F3300.0
G1 F1200.0
G1 E150.108
G1 F3300.0
M101
G1 X-9.4 Y-9.28 Z0.95 F1800.0 E150.153
G1 X-9.4 Y-9.4 Z0.95 F483.0 E150.176
G1 X-9.12 Y-9.4 Z0.95 F900.0 E150.205
G1 X-8.72 Y-9.4 Z0.95 F1500.0 E150.229
G1 X-8.32 Y-9.4 Z0.95 F1800.0 E150.25
G1 X9.4 Y-9.4 Z0.95 F1800.0 E151.157
G1 X9.4 Y9.4 Z0.95 F1800.0 E152.119
G1 X-9.4 Y9.4 Z0.95 F1800.0 E153.081
G1 X-9.4 Y-8.08 Z0.95 F1800.0 E153.975
G1 F1200.0
G1 E153.249
G1 F1800.0
M103
G1 X-9.4 Y-8.68 Z0.95 F900.0
G1 X-9.4 Y-9.28 Z0.95 F300.0
;M108 R15.0
G1 X-9.52 Y-9.8 Z0.95 F3300.0
M73 P11 (display progress)
G1 F1200.0
G1 E153.975
G1 F3300.0
M101
G1 X-9.4 Y-9.8 Z0.95 F666.0 E153.984
G1 X-9.32 Y-9.8 Z0.95 F900.0 E153.988
G1 X-9.12 Y-9.8 Z0.95 F1500.0 E153.994
G1 X-8.92 Y-9.8 Z0.95 F1800.0 E153.999
G1 X9.8 Y-9.8 Z0.95 F1800.0 E154.478
G1 X9.8 Y9.8 Z0.95 F900.0 E155.481
G1 X-9.8 Y9.8 Z0.95 F900.0 E156.484
G1 X-9.8 Y-9.48 Z0.95 F900.0 E157.47
G1 F1200.0
G1 E157.276
G1 F900.0
M103
G1 X-9.8 Y-9.8 Z0.95 F450.0
G1 X-9.8 Y-9.8 Z0.95 F428.0
G1 X-9.52 Y-9.8 Z0.95 F150.0
;M108 R30.0
G1 X-9.14 Y-8.48 Z0.95 F3300.0
G1 F1200.0
G1 E157.47
G1 F3300.0
M101
G1 X-9.12 Y-8.4 Z0.95 F1800.0 E157.475
G1 X-9.12 Y-8.0 Z0.95 F900.0 E157.516
G1 X-9.12 Y-7.6 Z0.95 F1500.0 E157.54
G1 X-9.12 Y-7.2 Z0.95 F1800.0 E157.561
G1 X-9.12 Y-4.8 Z0.95 F1800.0 E157.684
G1 X-2.14 Y-6.13 Z0.95 F1800.0 E158.047
G1 X6.14 Y-6.13 Z0.95 F1800.0 E158.471
G1 X9.12 Y-4.8 Z0.95 F1800.0 E158.638
G1 X9.12 Y-8.8 Z0.95 F1800.0 E158.843
G1 X-7.92 Y-8.8 Z0.95 F1800.0 E159.715
G1 F1200.0
G1 E158.715
G1 F1800.0
M103
G1 X-8.52 Y-8.8 Z0.95 F900.0
G1 X-9.12 Y-8.8 Z0.95 F300.0
G1 X8.49 Y6.64 Z0.95 F3300.0
G1 F1200.0
G1 E159.715
G1 F3300.0
M101
G1 X9.12 Y7.2 Z0.95 F1800.0 E159.758
G1 X9.12 Y6.8 Z0.95 F900.0 E159.799
G1 X9.12 Y6.4 Z0.95 F1500.0 E159.823
G1 X9.12 Y6.0 Z0.95 F1800.0 E159.844
M73 P12 (display progress)
G1 X9.12 Y4.0 Z0.95 F1800.0 E159.946
G1 X6.14 Y2.13 Z0.95 F1800.0 E160.126
G1 X5.86 Y2.13 Z0.95 F1800.0 E160.14
G1 X2.14 Y5.87 Z0.95 F1800.0 E160.411
G1 X1.86 Y5.87 Z0.95 F1800.0 E160.425
G1 X-1.86 Y2.13 Z0.95 F1800.0 E160.695
G1 X-2.14 Y2.13 Z0.95 F1800.0 E160.71
G1 X-5.86 Y5.87 Z0.95 F1800.0 E160.98
G1 X-6.14 Y5.87 Z0.95 F1800.0 E160.994
G1 X-9.12 Y7.2 Z0.95 F1800.0 E161.161
G1 X-9.12 Y-0.4 Z0.95 F1800.0 E161.55
G1 X-6.14 Y-1.87 Z0.95 F1800.0 E161.72
G1 X-5.86 Y-1.87 Z0.95 F1800.0 E161.734
G1 X-2.14 Y1.87 Z0.95 F1800.0 E162.005
G1 X-1.86 Y1.87 Z0.95 F1800.0 E162.019
G1 X1.86 Y-1.87 Z0.95 F1800.0 E162.289
G1 X2.14 Y-1.87 Z0.95 F1800.0 E162.304
G1 X5.86 Y1.87 Z0.95 F1800.0 E162.574
G1 X6.14 Y1.87 Z0.95 F1800.0 E162.588
G1 X9.12 Y3.6 Z0.95 F1800.0 E162.764
G1 X9.12 Y-4.4 Z0.95 F1800.0 E163.174
G1 X6.14 Y-5.87 Z0.95 F1800.0 E163.344
G1 X5.86 Y-5.87 Z0.95 F1800.0 E163.358
G1 X2.14 Y-2.13 Z0.95 F1800.0 E163.628
G1 X1.86 Y-2.13 Z0.95 F1800.0 E163.643
G1 X-1.86 Y-5.87 Z0.95 F1800.0 E163.913
G1 X-2.14 Y-5.87 Z0.95 F1800.0 E163.927
G1 X-5.86 Y-2.13 Z0.95 F1800.0 E164.198
G1 X-6.14 Y-2.13 Z0.95 F1800.0 E164.212
G1 X-9.12 Y-0.8 Z0.95 F1800.0 E164.379
G1 X-9.12 Y-3.2 Z0.95 F1800.0 E164.502
G1 F1200.0
G1 E163.502
G1 F1800.0
M103
G1 X-9.12 Y-3.8 Z0.95 F900.0
G1 X-9.12 Y-4.4 Z0.95 F300.0
G1 X8.46 Y7.94 Z0.95 F3300.0
G1 F1200.0
G1 E164.502
G1 F3300.0
M101
G1 X9.12 Y8.4 Z0.95 F1800.0 E164.543
G1 X9.12 Y8.0 Z0.95 F900.0 E164.584
G1 X9.12 Y7.6 Z0.95 F1500.0 E164.608
G1 X8.73 Y7.52 Z0.95 F1800.0 E164.629
G1 X2.14 Y6.13 Z0.95 F1800.0 E164.974
G1 X-6.14 Y6.13 Z0.95 F1800.0 E165.397
G1 X-9.12 Y7.6 Z0.95 F1800.0 E165.567
G1 X-9.12 Y8.8 Z0.95 F1800.0 E165.629
M73 P13 (display progress)
G1 X7.92 Y8.8 Z0.95 F1800.0 E166.501
G1 F1200.0
G1 E165.501
G1 F1800.0
M103
G1 X8.52 Y8.8 Z0.95 F900.0
G1 X9.12 Y8.8 Z0.95 F300.0
G1 X-8.77 Y-8.37 Z1.21 F3300.0
G1 F1200.0
G1 E166.501
G1 F3300.0
M101
G1 X-9.4 Y-8.97 Z1.22 F1800.0 E166.545
G1 X-9.4 Y-9.4 Z1.22 F942.0 E166.587
G1 X-9.03 Y-9.4 Z1.22 F1500.0 E166.61
G1 X-8.63 Y-9.4 Z1.22 F1800.0 E166.63
G1 X9.4 Y-9.4 Z1.22 F1800.0 E167.553
G1 X9.4 Y9.4 Z1.22 F1800.0 E168.515
G1 X-9.4 Y9.4 Z1.22 F1800.0 E169.477
G1 X-9.4 Y-7.77 Z1.22 F1800.0 E170.356
G1 F1200.0
G1 E169.356
G1 F1800.0
M103
G1 X-9.4 Y-8.37 Z1.22 F900.0
G1 X-9.4 Y-8.97 Z1.22 F300.0
;M108 R15.0
G1 X-9.79 Y-9.75 Z1.22 F3300.0
G1 F1200.0
G1 E170.356
G1 F3300.0
M101
G1 X-9.8 Y-9.8 Z1.22 F384.0 E170.362
G1 X-9.63 Y-9.8 Z1.22 F900.0 E170.371
G1 X-9.4 Y-9.8 Z1.22 F1584.0 E170.378
G1 X-9.23 Y-9.8 Z1.22 F1800.0 E170.382
G1 X9.8 Y-9.8 Z1.22 F1800.0 E170.869
G1 X9.8 Y9.8 Z1.22 F900.0 E171.872
G1 X-9.8 Y9.8 Z1.22 F900.0 E172.875
G1 X-9.8 Y-9.17 Z1.22 F900.0 E173.846
G1 F1200.0
G1 E172.846
G1 F900.0
M103
G1 X-9.8 Y-9.47 Z1.22 F450.0
G1 X-9.8 Y-9.77 Z1.22 F150.0
;M108 R30.0
G1 X6.62 Y8.48 Z1.22 F3300.0
G1 F1200.0
G1 E173.846
M73 P14 (display progress)
G1 F3300.0
M101
G1 X7.2 Y9.12 Z1.22 F1800.0 E173.89
G1 X6.8 Y9.12 Z1.22 F900.0 E173.931
G1 X6.4 Y9.12 Z1.22 F1500.0 E173.955
G1 X6.0 Y9.12 Z1.22 F1800.0 E173.976
G1 X4.0 Y9.12 Z1.22 F1800.0 E174.078
G1 X2.13 Y6.14 Z1.22 F1800.0 E174.258
G1 X2.13 Y5.86 Z1.22 F1800.0 E174.273
G1 X5.87 Y2.14 Z1.22 F1800.0 E174.543
G1 X5.87 Y1.86 Z1.22 F1800.0 E174.557
G1 X2.13 Y-1.86 Z1.22 F1800.0 E174.828
G1 X2.13 Y-2.14 Z1.22 F1800.0 E174.842
G1 X5.87 Y-5.86 Z1.22 F1800.0 E175.112
G1 X5.87 Y-6.14 Z1.22 F1800.0 E175.126
G1 X7.2 Y-9.12 Z1.22 F1800.0 E175.293
G1 X-0.4 Y-9.12 Z1.22 F1800.0 E175.682
G1 X-1.87 Y-6.14 Z1.22 F1800.0 E175.852
G1 X-1.87 Y-5.86 Z1.22 F1800.0 E175.867
G1 X1.87 Y-2.14 Z1.22 F1800.0 E176.137
G1 X1.87 Y-1.86 Z1.22 F1800.0 E176.151
G1 X-1.87 Y1.86 Z1.22 F1800.0 E176.422
G1 X-1.87 Y2.14 Z1.22 F1800.0 E176.436
G1 X1.87 Y5.86 Z1.22 F1800.0 E176.706
G1 X1.87 Y6.14 Z1.22 F1800.0 E176.72
G1 X3.6 Y9.12 Z1.22 F1800.0 E176.897
G1 X-4.4 Y9.12 Z1.22 F1800.0 E177.306
G1 X-5.87 Y6.14 Z1.22 F1800.0 E177.476
G1 X-5.87 Y5.86 Z1.22 F1800.0 E177.491
G1 X-2.13 Y2.14 Z1.22 F1800.0 E177.761
G1 X-2.13 Y1.86 Z1.22 F1800.0 E177.775
G1 X-5.87 Y-1.86 Z1.22 F1800.0 E178.045
G1 X-5.87 Y-2.14 Z1.22 F1800.0 E178.06
G1 X-2.13 Y-5.86 Z1.22 F1800.0 E178.33
G1 X-2.13 Y-6.14 Z1.22 F1800.0 E178.344
G1 X-0.8 Y-9.12 Z1.22 F1800.0 E178.511
G1 X-3.2 Y-9.12 Z1.22 F1800.0 E178.634
G1 F1200.0
G1 E177.634
G1 F1800.0
M103
G1 X-3.8 Y-9.12 Z1.22 F900.0
G1 X-4.4 Y-9.12 Z1.22 F300.0
G1 X7.83 Y-9.12 Z1.22 F3300.0
G1 F1200.0
G1 E178.634
G1 F3300.0
M101
G1 X8.4 Y-9.12 Z1.22 F1800.0 E178.663
G1 X8.0 Y-9.12 Z1.22 F900.0 E178.704
M73 P15 (display progress)
G1 X7.6 Y-9.12 Z1.22 F1500.0 E178.728
G1 X7.42 Y-8.76 Z1.22 F1800.0 E178.749
G1 X6.13 Y-6.14 Z1.22 F1800.0 E178.899
G1 X6.13 Y2.14 Z1.22 F1800.0 E179.322
G1 X7.6 Y9.12 Z1.22 F1800.0 E179.687
G1 X8.8 Y9.12 Z1.22 F1800.0 E179.749
G1 X8.8 Y-7.92 Z1.22 F1800.0 E180.621
G1 F1200.0
G1 E179.621
G1 F1800.0
M103
G1 X8.8 Y-8.52 Z1.22 F900.0
G1 X8.8 Y-9.12 Z1.22 F300.0
G1 X-7.81 Y8.5 Z1.22 F3300.0
G1 F1200.0
G1 E180.621
G1 F3300.0
M101
G1 X-8.4 Y9.12 Z1.22 F1800.0 E180.665
G1 X-8.0 Y9.12 Z1.22 F900.0 E180.706
G1 X-7.6 Y9.12 Z1.22 F1500.0 E180.73
G1 X-7.2 Y9.12 Z1.22 F1800.0 E180.751
G1 X-4.8 Y9.12 Z1.22 F1800.0 E180.873
G1 X-6.13 Y6.14 Z1.22 F1800.0 E181.04
G1 X-6.13 Y-2.14 Z1.22 F1800.0 E181.464
G1 X-4.8 Y-9.12 Z1.22 F1800.0 E181.828
G1 X-8.8 Y-9.12 Z1.22 F1800.0 E182.032
G1 X-8.8 Y7.92 Z1.22 F1800.0 E182.904
G1 F1200.0
G1 E181.904
G1 F1800.0
M103
G1 X-8.8 Y8.52 Z1.22 F900.0
G1 X-8.8 Y9.12 Z1.22 F300.0
G1 X-9.31 Y-8.68 Z1.47 F3300.0
G1 F1200.0
G1 E182.904
G1 F3300.0
M101
G1 X-9.33 Y-9.4 Z1.49 F1800.0 E182.941
G1 X-8.93 Y-9.4 Z1.49 F900.0 E182.982
G1 X-8.53 Y-9.4 Z1.49 F1500.0 E183.007
G1 X-8.13 Y-9.4 Z1.49 F1800.0 E183.027
G1 X9.4 Y-9.4 Z1.49 F1800.0 E183.925
G1 X9.4 Y9.4 Z1.49 F1800.0 E184.887
G1 X-9.4 Y9.4 Z1.49 F1800.0 E185.849
G1 X-9.4 Y-8.27 Z1.49 F1800.0 E186.753
G1 F1200.0
G1 E186.218
G1 F1800.0
M73 P16 (display progress)
M103
G1 X-9.4 Y-8.87 Z1.49 F900.0
G1 X-9.4 Y-9.4 Z1.49 F367.0
G1 X-9.33 Y-9.4 Z1.49 F300.0
;M108 R15.0
G1 X-9.33 Y-9.8 Z1.49 F3300.0
G1 F1200.0
G1 E186.753
G1 F3300.0
M101
G1 X-9.13 Y-9.8 Z1.49 F900.0 E186.763
G1 X-8.93 Y-9.8 Z1.49 F1500.0 E186.769
G1 X-8.73 Y-9.8 Z1.49 F1800.0 E186.774
G1 X9.8 Y-9.8 Z1.49 F1800.0 E187.249
G1 X9.8 Y9.8 Z1.49 F900.0 E188.252
G1 X-9.8 Y9.8 Z1.49 F900.0 E189.255
G1 X-9.8 Y-9.67 Z1.49 F900.0 E190.251
G1 F1200.0
G1 E189.89
G1 F900.0
M103
G1 X-9.8 Y-9.8 Z1.49 F617.0
G1 X-9.63 Y-9.8 Z1.49 F450.0
G1 X-9.4 Y-9.8 Z1.49 F217.0
G1 X-9.33 Y-9.8 Z1.49 F150.0
;M108 R30.0
G1 X-9.13 Y-8.48 Z1.49 F3300.0
G1 F1200.0
G1 E190.251
G1 F3300.0
M101
G1 X-9.12 Y-8.4 Z1.49 F1800.0 E190.255
G1 X-9.12 Y-8.0 Z1.49 F900.0 E190.296
G1 X-9.12 Y-7.6 Z1.49 F1500.0 E190.321
G1 X-9.12 Y-7.2 Z1.49 F1800.0 E190.341
G1 X-9.12 Y-4.8 Z1.49 F1800.0 E190.464
G1 X-2.14 Y-6.13 Z1.49 F1800.0 E190.827
G1 X6.14 Y-6.13 Z1.49 F1800.0 E191.251
G1 X9.12 Y-4.8 Z1.49 F1800.0 E191.418
G1 X9.12 Y-8.8 Z1.49 F1800.0 E191.623
G1 X-7.92 Y-8.8 Z1.49 F1800.0 E192.495
G1 F1200.0
G1 E191.495
G1 F1800.0
M103
G1 X-8.52 Y-8.8 Z1.49 F900.0
G1 X-9.12 Y-8.8 Z1.49 F300.0
G1 X8.49 Y6.64 Z1.49 F3300.0
G1 F1200.0
G1 E192.495
G1 F3300.0
M73 P17 (display progress)
M101
G1 X9.12 Y7.2 Z1.49 F1800.0 E192.538
G1 X9.12 Y6.8 Z1.49 F900.0 E192.579
G1 X9.12 Y6.4 Z1.49 F1500.0 E192.603
G1 X9.12 Y6.0 Z1.49 F1800.0 E192.624
G1 X9.12 Y4.0 Z1.49 F1800.0 E192.726
G1 X6.14 Y2.13 Z1.49 F1800.0 E192.906
G1 X5.86 Y2.13 Z1.49 F1800.0 E192.921
G1 X2.14 Y5.87 Z1.49 F1800.0 E193.191
G1 X1.86 Y5.87 Z1.49 F1800.0 E193.205
G1 X-1.86 Y2.13 Z1.49 F1800.0 E193.476
G1 X-2.14 Y2.13 Z1.49 F1800.0 E193.49
G1 X-5.86 Y5.87 Z1.49 F1800.0 E193.76
G1 X-6.14 Y5.87 Z1.49 F1800.0 E193.774
G1 X-9.12 Y7.2 Z1.49 F1800.0 E193.941
G1 X-9.12 Y-0.4 Z1.49 F1800.0 E194.33
G1 X-6.14 Y-1.87 Z1.49 F1800.0 E194.5
G1 X-5.86 Y-1.87 Z1.49 F1800.0 E194.515
G1 X-2.14 Y1.87 Z1.49 F1800.0 E194.785
G1 X-1.86 Y1.87 Z1.49 F1800.0 E194.799
G1 X1.86 Y-1.87 Z1.49 F1800.0 E195.07
G1 X2.14 Y-1.87 Z1.49 F1800.0 E195.084
G1 X5.86 Y1.87 Z1.49 F1800.0 E195.354
G1 X6.14 Y1.87 Z1.49 F1800.0 E195.368
G1 X9.12 Y3.6 Z1.49 F1800.0 E195.545
G1 X9.12 Y-4.4 Z1.49 F1800.0 E195.954
G1 X6.14 Y-5.87 Z1.49 F1800.0 E196.124
G1 X5.86 Y-5.87 Z1.49 F1800.0 E196.139
G1 X2.14 Y-2.13 Z1.49 F1800.0 E196.409
G1 X1.86 Y-2.13 Z1.49 F1800.0 E196.423
G1 X-1.86 Y-5.87 Z1.49 F1800.0 E196.693
G1 X-2.14 Y-5.87 Z1.49 F1800.0 E196.708
G1 X-5.86 Y-2.13 Z1.49 F1800.0 E196.978
G1 X-6.14 Y-2.13 Z1.49 F1800.0 E196.992
G1 X-9.12 Y-0.8 Z1.49 F1800.0 E197.159
G1 X-9.12 Y-3.2 Z1.49 F1800.0 E197.282
G1 F1200.0
G1 E196.282
G1 F1800.0
M103
G1 X-9.12 Y-3.8 Z1.49 F900.0
G1 X-9.12 Y-4.4 Z1.49 F300.0
G1 X8.46 Y7.94 Z1.49 F3300.0
G1 F1200.0
G1 E197.282
G1 F3300.0
M101
G1 X9.12 Y8.4 Z1.49 F1800.0 E197.323
G1 X9.12 Y8.0 Z1.49 F900.0 E197.364
G1 X9.12 Y7.6 Z1.49 F1500.0 E197.389
M73 P18 (display progress)
G1 X8.73 Y7.52 Z1.49 F1800.0 E197.409
G1 X2.14 Y6.13 Z1.49 F1800.0 E197.754
G1 X-6.14 Y6.13 Z1.49 F1800.0 E198.177
G1 X-9.12 Y7.6 Z1.49 F1800.0 E198.348
G1 X-9.12 Y8.8 Z1.49 F1800.0 E198.409
G1 X7.92 Y8.8 Z1.49 F1800.0 E199.281
G1 F1200.0
G1 E198.281
G1 F1800.0
M103
G1 X8.52 Y8.8 Z1.49 F900.0
G1 X9.12 Y8.8 Z1.49 F300.0
G1 X-8.78 Y-8.56 Z1.75 F3300.0
G1 F1200.0
G1 E199.281
G1 F3300.0
M101
G1 X-9.4 Y-9.16 Z1.76 F1800.0 E199.326
G1 X-9.4 Y-9.4 Z1.76 F658.5 E199.359
G1 X-9.24 Y-9.4 Z1.76 F900.0 E199.375
G1 X-8.84 Y-9.4 Z1.76 F1500.0 E199.4
G1 X-8.44 Y-9.4 Z1.76 F1800.0 E199.42
G1 X9.4 Y-9.4 Z1.76 F1800.0 E200.333
G1 X9.4 Y9.4 Z1.76 F1800.0 E201.295
G1 X-9.4 Y9.4 Z1.76 F1800.0 E202.258
G1 X-9.4 Y-7.96 Z1.76 F1800.0 E203.146
G1 F1200.0
G1 E202.291
G1 F1800.0
M103
G1 X-9.4 Y-8.56 Z1.76 F900.0
G1 X-9.4 Y-9.16 Z1.76 F300.0
;M108 R15.0
G1 X-9.64 Y-9.8 Z1.76 F3300.0
G1 F1200.0
G1 E203.146
G1 F3300.0
M101
G1 X-9.4 Y-9.8 Z1.76 F1017.0 E203.157
G1 X-9.24 Y-9.8 Z1.76 F1500.0 E203.162
G1 X-9.04 Y-9.8 Z1.76 F1800.0 E203.167
G1 X9.8 Y-9.8 Z1.76 F1800.0 E203.649
G1 X9.8 Y9.8 Z1.76 F900.0 E204.652
G1 X-9.8 Y9.8 Z1.76 F900.0 E205.655
G1 X-9.8 Y-9.36 Z1.76 F900.0 E206.635
G1 F1200.0
G1 E205.635
G1 F900.0
M103
G1 X-9.8 Y-9.66 Z1.76 F450.0
M73 P19 (display progress)
G1 X-9.8 Y-9.8 Z1.76 F311.0
G1 X-9.64 Y-9.8 Z1.76 F150.0
;M108 R30.0
G1 X6.63 Y8.48 Z1.76 F3300.0
G1 F1200.0
G1 E206.635
G1 F3300.0
M101
G1 X7.2 Y9.12 Z1.76 F1800.0 E206.68
G1 X6.8 Y9.12 Z1.76 F900.0 E206.721
G1 X6.4 Y9.12 Z1.76 F1500.0 E206.745
G1 X6.0 Y9.12 Z1.76 F1800.0 E206.766
G1 X4.0 Y9.12 Z1.76 F1800.0 E206.868
G1 X2.13 Y6.14 Z1.76 F1800.0 E207.048
G1 X2.13 Y5.86 Z1.76 F1800.0 E207.062
G1 X5.87 Y2.14 Z1.76 F1800.0 E207.333
G1 X5.87 Y1.86 Z1.76 F1800.0 E207.347
G1 X2.13 Y-1.86 Z1.76 F1800.0 E207.617
G1 X2.13 Y-2.14 Z1.76 F1800.0 E207.631
G1 X5.87 Y-5.86 Z1.76 F1800.0 E207.902
G1 X5.87 Y-6.14 Z1.76 F1800.0 E207.916
G1 X7.2 Y-9.12 Z1.76 F1800.0 E208.083
G1 X-0.4 Y-9.12 Z1.76 F1800.0 E208.472
G1 X-1.87 Y-6.14 Z1.76 F1800.0 E208.642
G1 X-1.87 Y-5.86 Z1.76 F1800.0 E208.656
G1 X1.87 Y-2.14 Z1.76 F1800.0 E208.927
G1 X1.87 Y-1.86 Z1.76 F1800.0 E208.941
G1 X-1.87 Y1.86 Z1.76 F1800.0 E209.211
G1 X-1.87 Y2.14 Z1.76 F1800.0 E209.225
G1 X1.87 Y5.86 Z1.76 F1800.0 E209.496
G1 X1.87 Y6.14 Z1.76 F1800.0 E209.51
G1 X3.6 Y9.12 Z1.76 F1800.0 E209.686
G1 X-4.4 Y9.12 Z1.76 F1800.0 E210.096
G1 X-5.87 Y6.14 Z1.76 F1800.0 E210.266
G1 X-5.87 Y5.86 Z1.76 F1800.0 E210.28
G1 X-2.13 Y2.14 Z1.76 F1800.0 E210.55
G1 X-2.13 Y1.86 Z1.76 F1800.0 E210.565
G1 X-5.87 Y-1.86 Z1.76 F1800.0 E210.835
G1 X-5.87 Y-2.14 Z1.76 F1800.0 E210.849
G1 X-2.13 Y-5.86 Z1.76 F1800.0 E211.12
G1 X-2.13 Y-6.14 Z1.76 F1800.0 E211.134
G1 X-0.8 Y-9.12 Z1.76 F1800.0 E211.301
G1 X-3.2 Y-9.12 Z1.76 F1800.0 E211.424
G1 F1200.0
G1 E210.424
G1 F1800.0
M103
G1 X-3.8 Y-9.12 Z1.76 F900.0
G1 X-4.4 Y-9.12 Z1.76 F300.0
G1 X7.83 Y-9.12 Z1.76 F3300.0
M73 P20 (display progress)
G1 F1200.0
G1 E211.424
G1 F3300.0
M101
G1 X8.4 Y-9.12 Z1.76 F1800.0 E211.453
G1 X8.0 Y-9.12 Z1.76 F900.0 E211.494
G1 X7.6 Y-9.12 Z1.76 F1500.0 E211.518
G1 X7.42 Y-8.76 Z1.76 F1800.0 E211.539
G1 X6.13 Y-6.14 Z1.76 F1800.0 E211.688
G1 X6.13 Y2.14 Z1.76 F1800.0 E212.112
G1 X7.6 Y9.12 Z1.76 F1800.0 E212.477
G1 X8.8 Y9.12 Z1.76 F1800.0 E212.538
G1 X8.8 Y-7.92 Z1.76 F1800.0 E213.41
G1 F1200.0
G1 E212.41
G1 F1800.0
M103
G1 X8.8 Y-8.52 Z1.76 F900.0
G1 X8.8 Y-9.12 Z1.76 F300.0
G1 X-7.81 Y8.5 Z1.76 F3300.0
G1 F1200.0
G1 E213.41
G1 F3300.0
M101
G1 X-8.4 Y9.12 Z1.76 F1800.0 E213.454
G1 X-8.0 Y9.12 Z1.76 F900.0 E213.495
G1 X-7.6 Y9.12 Z1.76 F1500.0 E213.52
G1 X-7.2 Y9.12 Z1.76 F1800.0 E213.54
G1 X-4.8 Y9.12 Z1.76 F1800.0 E213.663
G1 X-6.13 Y6.14 Z1.76 F1800.0 E213.83
G1 X-6.13 Y-2.14 Z1.76 F1800.0 E214.254
G1 X-4.8 Y-9.12 Z1.76 F1800.0 E214.617
G1 X-8.8 Y-9.12 Z1.76 F1800.0 E214.822
G1 X-8.8 Y7.92 Z1.76 F1800.0 E215.694
G1 F1200.0
G1 E214.694
G1 F1800.0
M103
G1 X-8.8 Y8.52 Z1.76 F900.0
G1 X-8.8 Y9.12 Z1.76 F300.0
G1 X-9.13 Y-8.68 Z2.01 F3300.0
G1 F1200.0
G1 E215.694
G1 F3300.0
M101
G1 X-9.15 Y-9.4 Z2.03 F1800.0 E215.731
G1 X-8.74 Y-9.4 Z2.03 F900.0 E215.772
G1 X-8.35 Y-9.4 Z2.03 F1500.0 E215.797
G1 X-7.95 Y-9.4 Z2.03 F1800.0 E215.817
G1 X9.4 Y-9.4 Z2.03 F1800.0 E216.705
M73 P21 (display progress)
G1 X9.4 Y9.4 Z2.03 F1800.0 E217.667
G1 X-9.4 Y9.4 Z2.03 F1800.0 E218.629
G1 X-9.4 Y-8.46 Z2.03 F1800.0 E219.543
G1 F1200.0
G1 E219.174
G1 F1800.0
M103
G1 X-9.4 Y-9.06 Z2.03 F900.0
G1 X-9.4 Y-9.4 Z2.03 F555.0
G1 X-9.15 Y-9.4 Z2.03 F300.0
;M108 R15.0
G1 X-9.15 Y-9.8 Z2.03 F3300.0
G1 F1200.0
G1 E219.543
G1 F3300.0
M101
G1 X-8.95 Y-9.8 Z2.03 F900.0 E219.553
G1 X-8.74 Y-9.8 Z2.03 F1500.0 E219.559
G1 X-8.55 Y-9.8 Z2.03 F1800.0 E219.564
G1 X9.8 Y-9.8 Z2.03 F1800.0 E220.033
G1 X9.8 Y9.8 Z2.03 F900.0 E221.037
G1 X-9.8 Y9.8 Z2.03 F900.0 E222.04
G1 X-9.8 Y-9.8 Z2.03 F900.0 E223.043
G1 X-9.74 Y-9.8 Z2.03 F900.0 E223.045
G1 F1200.0
G1 E222.586
G1 F900.0
M103
G1 X-9.45 Y-9.8 Z2.03 F450.0
G1 X-9.4 Y-9.8 Z2.03 F405.0
G1 X-9.15 Y-9.8 Z2.03 F150.0
;M108 R30.0
G1 X-9.12 Y-8.48 Z2.03 F3300.0
G1 F1200.0
G1 E223.045
G1 F3300.0
M101
G1 X-9.12 Y-8.4 Z2.03 F1800.0 E223.05
G1 X-9.12 Y-8.0 Z2.03 F900.0 E223.09
G1 X-9.12 Y-7.6 Z2.03 F1500.0 E223.115
G1 X-9.12 Y-7.2 Z2.03 F1800.0 E223.135
G1 X-9.12 Y-4.8 Z2.03 F1800.0 E223.258
G1 X-2.14 Y-6.13 Z2.03 F1800.0 E223.622
G1 X6.14 Y-6.13 Z2.03 F1800.0 E224.046
G1 X9.12 Y-4.8 Z2.03 F1800.0 E224.213
G1 X9.12 Y-8.8 Z2.03 F1800.0 E224.417
G1 X-7.92 Y-8.8 Z2.03 F1800.0 E225.289
G1 F1200.0
G1 E224.289
G1 F1800.0
M73 P22 (display progress)
M103
G1 X-8.52 Y-8.8 Z2.03 F900.0
G1 X-9.12 Y-8.8 Z2.03 F300.0
G1 X8.49 Y6.64 Z2.03 F3300.0
G1 F1200.0
G1 E225.289
G1 F3300.0
M101
G1 X9.12 Y7.2 Z2.03 F1800.0 E225.332
G1 X9.12 Y6.8 Z2.03 F900.0 E225.373
G1 X9.12 Y6.4 Z2.03 F1500.0 E225.398
G1 X9.12 Y6.0 Z2.03 F1800.0 E225.418
G1 X9.12 Y4.0 Z2.03 F1800.0 E225.521
G1 X6.14 Y2.13 Z2.03 F1800.0 E225.701
G1 X5.86 Y2.13 Z2.03 F1800.0 E225.715
G1 X2.14 Y5.87 Z2.03 F1800.0 E225.985
G1 X1.86 Y5.87 Z2.03 F1800.0 E226.0
G1 X-1.86 Y2.13 Z2.03 F1800.0 E226.27
G1 X-2.14 Y2.13 Z2.03 F1800.0 E226.284
G1 X-5.86 Y5.87 Z2.03 F1800.0 E226.555
G1 X-6.14 Y5.87 Z2.03 F1800.0 E226.569
G1 X-9.12 Y7.2 Z2.03 F1800.0 E226.736
G1 X-9.12 Y-0.4 Z2.03 F1800.0 E227.125
G1 X-6.14 Y-1.87 Z2.03 F1800.0 E227.295
G1 X-5.86 Y-1.87 Z2.03 F1800.0 E227.309
G1 X-2.14 Y1.87 Z2.03 F1800.0 E227.579
G1 X-1.86 Y1.87 Z2.03 F1800.0 E227.594
G1 X1.86 Y-1.87 Z2.03 F1800.0 E227.864
G1 X2.14 Y-1.87 Z2.03 F1800.0 E227.878
G1 X5.86 Y1.87 Z2.03 F1800.0 E228.149
G1 X6.14 Y1.87 Z2.03 F1800.0 E228.163
G1 X9.12 Y3.6 Z2.03 F1800.0 E228.339
G1 X9.12 Y-4.4 Z2.03 F1800.0 E228.748
G1 X6.14 Y-5.87 Z2.03 F1800.0 E228.919
G1 X5.86 Y-5.87 Z2.03 F1800.0 E228.933
G1 X2.14 Y-2.13 Z2.03 F1800.0 E229.203
G1 X1.86 Y-2.13 Z2.03 F1800.0 E229.218
G1 X-1.86 Y-5.87 Z2.03 F1800.0 E229.488
G1 X-2.14 Y-5.87 Z2.03 F1800.0 E229.502
G1 X-5.86 Y-2.13 Z2.03 F1800.0 E229.772
G1 X-6.14 Y-2.13 Z2.03 F1800.0 E229.787
G1 X-9.12 Y-0.8 Z2.03 F1800.0 E229.954
G1 X-9.12 Y-3.2 Z2.03 F1800.0 E230.076
G1 F1200.0
G1 E229.076
G1 F1800.0
M103
G1 X-9.12 Y-3.8 Z2.03 F900.0
G1 X-9.12 Y-4.4 Z2.03 F300.0
G1 X8.46 Y7.94 Z2.03 F3300.0
M73 P23 (display progress)
G1 F1200.0
G1 E230.076
G1 F3300.0
M101
G1 X9.12 Y8.4 Z2.03 F1800.0 E230.118
G1 X9.12 Y8.0 Z2.03 F900.0 E230.159
G1 X9.12 Y7.6 Z2.03 F1500.0 E230.183
G1 X8.73 Y7.52 Z2.03 F1800.0 E230.204
G1 X2.14 Y6.13 Z2.03 F1800.0 E230.548
G1 X-6.14 Y6.13 Z2.03 F1800.0 E230.972
G1 X-9.12 Y7.6 Z2.03 F1800.0 E231.142
G1 X-9.12 Y8.8 Z2.03 F1800.0 E231.203
G1 X7.92 Y8.8 Z2.03 F1800.0 E232.075
G1 F1200.0
G1 E231.075
G1 F1800.0
M103
G1 X8.52 Y8.8 Z2.03 F900.0
G1 X9.12 Y8.8 Z2.03 F300.0
G1 X-8.78 Y-8.74 Z2.29 F3300.0
G1 F1200.0
G1 E232.075
G1 F3300.0
M101
G1 X-9.4 Y-9.35 Z2.3 F1800.0 E232.12
G1 X-9.4 Y-9.4 Z2.3 F375.0 E232.132
G1 X-9.05 Y-9.4 Z2.3 F900.0 E232.168
G1 X-8.65 Y-9.4 Z2.3 F1500.0 E232.193
G1 X-8.25 Y-9.4 Z2.3 F1800.0 E232.213
G1 X9.4 Y-9.4 Z2.3 F1800.0 E233.116
G1 X9.4 Y9.4 Z2.3 F1800.0 E234.079
G1 X-9.4 Y9.4 Z2.3 F1800.0 E235.041
G1 X-9.4 Y-8.15 Z2.3 F1800.0 E235.939
G1 F1200.0
G1 E235.288
G1 F1800.0
M103
G1 X-9.4 Y-8.75 Z2.3 F900.0
G1 X-9.4 Y-9.35 Z2.3 F300.0
;M108 R15.0
G1 X-9.45 Y-9.8 Z2.3 F3300.0
G1 F1200.0
G1 E235.939
G1 F3300.0
M101
G1 X-9.4 Y-9.8 Z2.3 F450.0 E235.944
G1 X-9.25 Y-9.8 Z2.3 F900.0 E235.952
G1 X-9.05 Y-9.8 Z2.3 F1500.0 E235.958
G1 X-8.85 Y-9.8 Z2.3 F1800.0 E235.963
G1 X9.8 Y-9.8 Z2.3 F1800.0 E236.44
M73 P24 (display progress)
G1 X9.8 Y9.8 Z2.3 F900.0 E237.443
G1 X-9.8 Y9.8 Z2.3 F900.0 E238.446
G1 X-9.8 Y-9.55 Z2.3 F900.0 E239.436
G1 F1200.0
G1 E238.436
G1 F900.0
M103
G1 X-9.8 Y-9.8 Z2.3 F500.0
G1 X-9.75 Y-9.8 Z2.3 F450.0
G1 X-9.45 Y-9.8 Z2.3 F150.0
;M108 R30.0
G1 X6.63 Y8.48 Z2.3 F3300.0
G1 F1200.0
G1 E239.436
G1 F3300.0
M101
G1 X7.2 Y9.12 Z2.3 F1800.0 E239.48
G1 X6.8 Y9.12 Z2.3 F900.0 E239.521
G1 X6.4 Y9.12 Z2.3 F1500.0 E239.546
G1 X6.0 Y9.12 Z2.3 F1800.0 E239.566
G1 X4.0 Y9.12 Z2.3 F1800.0 E239.669
G1 X2.13 Y6.14 Z2.3 F1800.0 E239.849
G1 X2.13 Y5.86 Z2.3 F1800.0 E239.863
G1 X5.87 Y2.14 Z2.3 F1800.0 E240.133
G1 X5.87 Y1.86 Z2.3 F1800.0 E240.148
G1 X2.13 Y-1.86 Z2.3 F1800.0 E240.418
G1 X2.13 Y-2.14 Z2.3 F1800.0 E240.432
G1 X5.87 Y-5.86 Z2.3 F1800.0 E240.702
G1 X5.87 Y-6.14 Z2.3 F1800.0 E240.717
G1 X7.2 Y-9.12 Z2.3 F1800.0 E240.884
G1 X-0.4 Y-9.12 Z2.3 F1800.0 E241.273
G1 X-1.87 Y-6.14 Z2.3 F1800.0 E241.443
G1 X-1.87 Y-5.86 Z2.3 F1800.0 E241.457
G1 X1.87 Y-2.14 Z2.3 F1800.0 E241.727
G1 X1.87 Y-1.86 Z2.3 F1800.0 E241.742
G1 X-1.87 Y1.86 Z2.3 F1800.0 E242.012
G1 X-1.87 Y2.14 Z2.3 F1800.0 E242.026
G1 X1.87 Y5.86 Z2.3 F1800.0 E242.296
G1 X1.87 Y6.14 Z2.3 F1800.0 E242.311
G1 X3.6 Y9.12 Z2.3 F1800.0 E242.487
G1 X-4.4 Y9.12 Z2.3 F1800.0 E242.896
G1 X-5.87 Y6.14 Z2.3 F1800.0 E243.066
G1 X-5.87 Y5.86 Z2.3 F1800.0 E243.081
G1 X-2.13 Y2.14 Z2.3 F1800.0 E243.351
G1 X-2.13 Y1.86 Z2.3 F1800.0 E243.365
G1 X-5.87 Y-1.86 Z2.3 F1800.0 E243.636
G1 X-5.87 Y-2.14 Z2.3 F1800.0 E243.65
G1 X-2.13 Y-5.86 Z2.3 F1800.0 E243.92
G1 X-2.13 Y-6.14 Z2.3 F1800.0 E243.934
G1 X-0.8 Y-9.12 Z2.3 F1800.0 E244.101
M73 P25 (display progress)
G1 X-3.2 Y-9.12 Z2.3 F1800.0 E244.224
G1 F1200.0
G1 E243.224
G1 F1800.0
M103
G1 X-3.8 Y-9.12 Z2.3 F900.0
G1 X-4.4 Y-9.12 Z2.3 F300.0
G1 X7.83 Y-9.12 Z2.3 F3300.0
G1 F1200.0
G1 E244.224
G1 F3300.0
M101
G1 X8.4 Y-9.12 Z2.3 F1800.0 E244.253
G1 X8.0 Y-9.12 Z2.3 F900.0 E244.294
G1 X7.6 Y-9.12 Z2.3 F1500.0 E244.319
G1 X7.42 Y-8.76 Z2.3 F1800.0 E244.339
G1 X6.13 Y-6.14 Z2.3 F1800.0 E244.489
G1 X6.13 Y2.14 Z2.3 F1800.0 E244.913
G1 X7.6 Y9.12 Z2.3 F1800.0 E245.278
G1 X8.8 Y9.12 Z2.3 F1800.0 E245.339
G1 X8.8 Y-7.92 Z2.3 F1800.0 E246.211
G1 F1200.0
G1 E245.211
G1 F1800.0
M103
G1 X8.8 Y-8.52 Z2.3 F900.0
G1 X8.8 Y-9.12 Z2.3 F300.0
G1 X-7.81 Y8.5 Z2.3 F3300.0
G1 F1200.0
G1 E246.211
G1 F3300.0
M101
G1 X-8.4 Y9.12 Z2.3 F1800.0 E246.255
G1 X-8.0 Y9.12 Z2.3 F900.0 E246.296
G1 X-7.6 Y9.12 Z2.3 F1500.0 E246.32
G1 X-7.2 Y9.12 Z2.3 F1800.0 E246.341
G1 X-4.8 Y9.12 Z2.3 F1800.0 E246.464
G1 X-6.13 Y6.14 Z2.3 F1800.0 E246.631
G1 X-6.13 Y-2.14 Z2.3 F1800.0 E247.054
G1 X-4.8 Y-9.12 Z2.3 F1800.0 E247.418
G1 X-8.8 Y-9.12 Z2.3 F1800.0 E247.623
G1 X-8.8 Y7.92 Z2.3 F1800.0 E248.495
G1 F1200.0
G1 E247.495
G1 F1800.0
M103
G1 X-8.8 Y8.52 Z2.3 F900.0
G1 X-8.8 Y9.12 Z2.3 F300.0
G1 X-9.38 Y-8.33 Z2.55 F3300.0
G1 F1200.0
M73 P26 (display progress)
G1 E248.495
G1 F3300.0
M101
G1 X-9.4 Y-9.04 Z2.57 F1800.0 E248.531
G1 X-9.4 Y-9.4 Z2.57 F834.0 E248.571
G1 X-9.36 Y-9.4 Z2.57 F900.0 E248.575
G1 X-8.96 Y-9.4 Z2.57 F1500.0 E248.6
G1 X-8.56 Y-9.4 Z2.57 F1800.0 E248.62
G1 X9.4 Y-9.4 Z2.57 F1800.0 E249.539
G1 X9.4 Y9.4 Z2.57 F1800.0 E250.501
G1 X-9.4 Y9.4 Z2.57 F1800.0 E251.463
G1 X-9.4 Y-7.84 Z2.57 F1800.0 E252.346
G1 F1200.0
G1 E251.381
G1 F1800.0
M103
G1 X-9.4 Y-8.44 Z2.57 F900.0
G1 X-9.4 Y-9.04 Z2.57 F300.0
;M108 R15.0
G1 X-9.75 Y-9.78 Z2.57 F3300.0
G1 F1200.0
G1 E252.346
G1 F3300.0
M101
G1 X-9.56 Y-9.8 Z2.57 F900.0 E252.355
G1 X-9.4 Y-9.8 Z2.57 F1368.0 E252.361
G1 X-9.36 Y-9.8 Z2.57 F1500.0 E252.362
G1 X-9.16 Y-9.8 Z2.57 F1800.0 E252.367
G1 X9.8 Y-9.8 Z2.57 F1800.0 E252.852
G1 X9.8 Y9.8 Z2.57 F900.0 E253.855
G1 X-9.8 Y9.8 Z2.57 F900.0 E254.858
G1 X-9.8 Y-9.24 Z2.57 F900.0 E255.833
G1 F1200.0
G1 E255.833
G1 F900.0
M103
G1 X-9.8 Y-9.54 Z2.57 F450.0
G1 X-9.8 Y-9.8 Z2.57 F194.0
G1 X-9.76 Y-9.8 Z2.57 F150.0
;M108 R30.0
G1 X-9.16 Y-8.48 Z2.57 F3300.0
G1 F1200.0
G1 E255.833
G1 F3300.0
M101
G1 X-9.12 Y-8.4 Z2.57 F1800.0 E255.837
G1 X-9.12 Y-8.0 Z2.57 F900.0 E255.878
G1 X-9.12 Y-7.6 Z2.57 F1500.0 E255.903
G1 X-9.12 Y-7.2 Z2.57 F1800.0 E255.923
G1 X-9.12 Y-4.8 Z2.57 F1800.0 E256.046
M73 P27 (display progress)
G1 X-2.14 Y-6.13 Z2.57 F1800.0 E256.41
G1 X6.14 Y-6.13 Z2.57 F1800.0 E256.833
G1 X9.12 Y-4.8 Z2.57 F1800.0 E257.0
G1 X9.12 Y-8.8 Z2.57 F1800.0 E257.205
G1 X-7.92 Y-8.8 Z2.57 F1800.0 E258.077
G1 F1200.0
G1 E257.077
G1 F1800.0
M103
G1 X-8.52 Y-8.8 Z2.57 F900.0
G1 X-9.12 Y-8.8 Z2.57 F300.0
G1 X8.49 Y6.64 Z2.57 F3300.0
G1 F1200.0
G1 E258.077
G1 F3300.0
M101
G1 X9.12 Y7.2 Z2.57 F1800.0 E258.12
G1 X9.12 Y6.8 Z2.57 F900.0 E258.161
G1 X9.12 Y6.4 Z2.57 F1500.0 E258.186
G1 X9.12 Y6.0 Z2.57 F1800.0 E258.206
G1 X9.12 Y4.0 Z2.57 F1800.0 E258.309
G1 X6.14 Y2.13 Z2.57 F1800.0 E258.489
G1 X5.86 Y2.13 Z2.57 F1800.0 E258.503
G1 X2.14 Y5.87 Z2.57 F1800.0 E258.773
G1 X1.86 Y5.87 Z2.57 F1800.0 E258.788
G1 X-1.86 Y2.13 Z2.57 F1800.0 E259.058
G1 X-2.14 Y2.13 Z2.57 F1800.0 E259.072
G1 X-5.86 Y5.87 Z2.57 F1800.0 E259.342
G1 X-6.14 Y5.87 Z2.57 F1800.0 E259.357
G1 X-9.12 Y7.2 Z2.57 F1800.0 E259.524
G1 X-9.12 Y-0.4 Z2.57 F1800.0 E259.913
G1 X-6.14 Y-1.87 Z2.57 F1800.0 E260.083
G1 X-5.86 Y-1.87 Z2.57 F1800.0 E260.097
G1 X-2.14 Y1.87 Z2.57 F1800.0 E260.367
G1 X-1.86 Y1.87 Z2.57 F1800.0 E260.382
G1 X1.86 Y-1.87 Z2.57 F1800.0 E260.652
G1 X2.14 Y-1.87 Z2.57 F1800.0 E260.666
G1 X5.86 Y1.87 Z2.57 F1800.0 E260.936
G1 X6.14 Y1.87 Z2.57 F1800.0 E260.951
G1 X9.12 Y3.6 Z2.57 F1800.0 E261.127
G1 X9.12 Y-4.4 Z2.57 F1800.0 E261.536
G1 X6.14 Y-5.87 Z2.57 F1800.0 E261.707
G1 X5.86 Y-5.87 Z2.57 F1800.0 E261.721
G1 X2.14 Y-2.13 Z2.57 F1800.0 E261.991
G1 X1.86 Y-2.13 Z2.57 F1800.0 E262.005
G1 X-1.86 Y-5.87 Z2.57 F1800.0 E262.276
G1 X-2.14 Y-5.87 Z2.57 F1800.0 E262.29
G1 X-5.86 Y-2.13 Z2.57 F1800.0 E262.56
G1 X-6.14 Y-2.13 Z2.57 F1800.0 E262.575
G1 X-9.12 Y-0.8 Z2.57 F1800.0 E262.741
M73 P28 (display progress)
G1 X-9.12 Y-3.2 Z2.57 F1800.0 E262.864
G1 F1200.0
G1 E261.864
G1 F1800.0
M103
G1 X-9.12 Y-3.8 Z2.57 F900.0
G1 X-9.12 Y-4.4 Z2.57 F300.0
G1 X8.46 Y7.94 Z2.57 F3300.0
G1 F1200.0
G1 E262.864
G1 F3300.0
M101
G1 X9.12 Y8.4 Z2.57 F1800.0 E262.906
G1 X9.12 Y8.0 Z2.57 F900.0 E262.946
G1 X9.12 Y7.6 Z2.57 F1500.0 E262.971
G1 X8.73 Y7.52 Z2.57 F1800.0 E262.991
G1 X2.14 Y6.13 Z2.57 F1800.0 E263.336
G1 X-6.14 Y6.13 Z2.57 F1800.0 E263.76
G1 X-9.12 Y7.6 Z2.57 F1800.0 E263.93
G1 X-9.12 Y8.8 Z2.57 F1800.0 E263.991
G1 X7.92 Y8.8 Z2.57 F1800.0 E264.863
G1 F1200.0
G1 E263.863
G1 F1800.0
M103
G1 X8.52 Y8.8 Z2.57 F900.0
G1 X9.12 Y8.8 Z2.57 F300.0
G1 X-8.64 Y-8.79 Z2.83 F3300.0
G1 F1200.0
G1 E264.863
G1 F3300.0
M101
G1 X-9.26 Y-9.4 Z2.84 F1800.0 E264.908
G1 X-8.86 Y-9.4 Z2.84 F900.0 E264.949
G1 X-8.46 Y-9.4 Z2.84 F1500.0 E264.973
G1 X-8.06 Y-9.4 Z2.84 F1800.0 E264.994
G1 X9.4 Y-9.4 Z2.84 F1800.0 E265.887
G1 X9.4 Y9.4 Z2.84 F1800.0 E266.85
G1 X-9.4 Y9.4 Z2.84 F1800.0 E267.812
G1 X-9.4 Y-8.34 Z2.84 F1800.0 E268.719
G1 F1200.0
G1 E268.252
G1 F1800.0
M103
G1 X-9.4 Y-8.94 Z2.84 F900.0
G1 X-9.4 Y-9.4 Z2.84 F439.0
G1 X-9.26 Y-9.4 Z2.84 F300.0
;M108 R15.0
G1 X-9.26 Y-9.8 Z2.84 F3300.0
G1 F1200.0
M73 P29 (display progress)
G1 E268.719
G1 F3300.0
M101
G1 X-9.06 Y-9.8 Z2.84 F900.0 E268.73
G1 X-8.86 Y-9.8 Z2.84 F1500.0 E268.736
G1 X-8.66 Y-9.8 Z2.84 F1800.0 E268.741
G1 X9.8 Y-9.8 Z2.84 F1800.0 E269.213
G1 X9.8 Y9.8 Z2.84 F900.0 E270.216
G1 X-9.8 Y9.8 Z2.84 F900.0 E271.219
G1 X-9.8 Y-9.74 Z2.84 F900.0 E272.219
G1 F1200.0
G1 E271.219
G1 F900.0
M103
G1 X-9.8 Y-9.8 Z2.84 F689.0
G1 X-9.56 Y-9.8 Z2.84 F450.0
G1 X-9.4 Y-9.8 Z2.84 F289.0
G1 X-9.26 Y-9.8 Z2.84 F150.0
;M108 R30.0
G1 X6.64 Y8.47 Z2.84 F3300.0
G1 F1200.0
G1 E272.219
G1 F3300.0
M101
G1 X7.2 Y9.12 Z2.84 F1800.0 E272.263
G1 X6.8 Y9.12 Z2.84 F900.0 E272.304
G1 X6.4 Y9.12 Z2.84 F1500.0 E272.329
G1 X6.0 Y9.12 Z2.84 F1800.0 E272.349
G1 X4.0 Y9.12 Z2.84 F1800.0 E272.451
G1 X2.13 Y6.14 Z2.84 F1800.0 E272.632
G1 X2.13 Y5.86 Z2.84 F1800.0 E272.646
G1 X5.87 Y2.14 Z2.84 F1800.0 E272.916
G1 X5.87 Y1.86 Z2.84 F1800.0 E272.93
G1 X2.13 Y-1.86 Z2.84 F1800.0 E273.201
G1 X2.13 Y-2.14 Z2.84 F1800.0 E273.215
G1 X5.87 Y-5.86 Z2.84 F1800.0 E273.485
G1 X5.87 Y-6.14 Z2.84 F1800.0 E273.5
G1 X7.2 Y-9.12 Z2.84 F1800.0 E273.666
G1 X-0.4 Y-9.12 Z2.84 F1800.0 E274.055
G1 X-1.87 Y-6.14 Z2.84 F1800.0 E274.226
G1 X-1.87 Y-5.86 Z2.84 F1800.0 E274.24
G1 X1.87 Y-2.14 Z2.84 F1800.0 E274.51
G1 X1.87 Y-1.86 Z2.84 F1800.0 E274.524
G1 X-1.87 Y1.86 Z2.84 F1800.0 E274.795
G1 X-1.87 Y2.14 Z2.84 F1800.0 E274.809
G1 X1.87 Y5.86 Z2.84 F1800.0 E275.079
G1 X1.87 Y6.14 Z2.84 F1800.0 E275.094
G1 X3.6 Y9.12 Z2.84 F1800.0 E275.27
G1 X-4.4 Y9.12 Z2.84 F1800.0 E275.679
G1 X-5.87 Y6.14 Z2.84 F1800.0 E275.849
M73 P30 (display progress)
G1 X-5.87 Y5.86 Z2.84 F1800.0 E275.864
G1 X-2.13 Y2.14 Z2.84 F1800.0 E276.134
G1 X-2.13 Y1.86 Z2.84 F1800.0 E276.148
G1 X-5.87 Y-1.86 Z2.84 F1800.0 E276.418
G1 X-5.87 Y-2.14 Z2.84 F1800.0 E276.433
G1 X-2.13 Y-5.86 Z2.84 F1800.0 E276.703
G1 X-2.13 Y-6.14 Z2.84 F1800.0 E276.717
G1 X-0.8 Y-9.12 Z2.84 F1800.0 E276.884
G1 X-3.2 Y-9.12 Z2.84 F1800.0 E277.007
G1 F1200.0
G1 E276.007
G1 F1800.0
M103
G1 X-3.8 Y-9.12 Z2.84 F900.0
G1 X-4.4 Y-9.12 Z2.84 F300.0
G1 X7.83 Y-9.12 Z2.84 F3300.0
G1 F1200.0
G1 E277.007
G1 F3300.0
M101
G1 X8.4 Y-9.12 Z2.84 F1800.0 E277.036
G1 X8.0 Y-9.12 Z2.84 F900.0 E277.077
G1 X7.6 Y-9.12 Z2.84 F1500.0 E277.102
G1 X7.42 Y-8.76 Z2.84 F1800.0 E277.122
G1 X6.13 Y-6.14 Z2.84 F1800.0 E277.272
G1 X6.13 Y2.14 Z2.84 F1800.0 E277.695
G1 X7.6 Y9.12 Z2.84 F1800.0 E278.061
G1 X8.8 Y9.12 Z2.84 F1800.0 E278.122
G1 X8.8 Y-7.92 Z2.84 F1800.0 E278.994
G1 F1200.0
G1 E277.994
G1 F1800.0
M103
G1 X8.8 Y-8.52 Z2.84 F900.0
G1 X8.8 Y-9.12 Z2.84 F300.0
G1 X-7.81 Y8.5 Z2.84 F3300.0
G1 F1200.0
G1 E278.994
G1 F3300.0
M101
G1 X-8.4 Y9.12 Z2.84 F1800.0 E279.038
G1 X-8.0 Y9.12 Z2.84 F900.0 E279.079
G1 X-7.6 Y9.12 Z2.84 F1500.0 E279.103
G1 X-7.2 Y9.12 Z2.84 F1800.0 E279.124
G1 X-4.8 Y9.12 Z2.84 F1800.0 E279.247
G1 X-6.13 Y6.14 Z2.84 F1800.0 E279.414
G1 X-6.13 Y-2.14 Z2.84 F1800.0 E279.837
G1 X-4.8 Y-9.12 Z2.84 F1800.0 E280.201
G1 X-8.8 Y-9.12 Z2.84 F1800.0 E280.406
G1 X-8.8 Y7.92 Z2.84 F1800.0 E281.278
M73 P31 (display progress)
G1 F1200.0
G1 E280.278
G1 F1800.0
M103
G1 X-8.8 Y8.52 Z2.84 F900.0
G1 X-8.8 Y9.12 Z2.84 F300.0
G1 X-9.38 Y-8.51 Z3.09 F3300.0
G1 F1200.0
G1 E281.278
G1 F3300.0
M101
G1 X-9.4 Y-9.23 Z3.11 F1800.0 E281.314
G1 X-9.4 Y-9.4 Z3.11 F550.5 E281.342
G1 X-9.17 Y-9.4 Z3.11 F900.0 E281.366
G1 X-8.77 Y-9.4 Z3.11 F1500.0 E281.391
G1 X-8.37 Y-9.4 Z3.11 F1800.0 E281.411
G1 X9.4 Y-9.4 Z3.11 F1800.0 E282.32
G1 X9.4 Y9.4 Z3.11 F1800.0 E283.283
G1 X-9.4 Y9.4 Z3.11 F1800.0 E284.245
G1 X-9.4 Y-8.03 Z3.11 F1800.0 E285.137
G1 F1200.0
G1 E284.362
G1 F1800.0
M103
G1 X-9.4 Y-8.63 Z3.11 F900.0
G1 X-9.4 Y-9.23 Z3.11 F300.0
;M108 R15.0
G1 X-9.57 Y-9.8 Z3.11 F3300.0
G1 F1200.0
G1 E285.137
G1 F3300.0
M101
G1 X-9.4 Y-9.8 Z3.11 F801.0 E285.146
G1 X-9.17 Y-9.8 Z3.11 F1500.0 E285.154
G1 X-8.97 Y-9.8 Z3.11 F1800.0 E285.159
G1 X9.8 Y-9.8 Z3.11 F1800.0 E285.639
G1 X9.8 Y9.8 Z3.11 F900.0 E286.642
G1 X-9.8 Y9.8 Z3.11 F900.0 E287.645
G1 X-9.8 Y-9.43 Z3.11 F900.0 E288.629
G1 F1200.0
G1 E288.474
G1 F900.0
M103
G1 X-9.8 Y-9.73 Z3.11 F450.0
G1 X-9.8 Y-9.8 Z3.11 F383.0
G1 X-9.57 Y-9.8 Z3.11 F150.0
;M108 R30.0
G1 X-9.15 Y-8.48 Z3.11 F3300.0
G1 F1200.0
G1 E288.629
M73 P32 (display progress)
G1 F3300.0
M101
G1 X-9.12 Y-8.4 Z3.11 F1800.0 E288.633
G1 X-9.12 Y-8.0 Z3.11 F900.0 E288.674
G1 X-9.12 Y-7.6 Z3.11 F1500.0 E288.699
G1 X-9.12 Y-7.2 Z3.11 F1800.0 E288.719
G1 X-9.12 Y-4.8 Z3.11 F1800.0 E288.842
G1 X-2.14 Y-6.13 Z3.11 F1800.0 E289.206
G1 X6.14 Y-6.13 Z3.11 F1800.0 E289.63
G1 X9.12 Y-4.8 Z3.11 F1800.0 E289.796
G1 X9.12 Y-8.8 Z3.11 F1800.0 E290.001
G1 X-7.92 Y-8.8 Z3.11 F1800.0 E290.873
G1 F1200.0
G1 E289.873
G1 F1800.0
M103
G1 X-8.52 Y-8.8 Z3.11 F900.0
G1 X-9.12 Y-8.8 Z3.11 F300.0
G1 X8.49 Y6.64 Z3.11 F3300.0
G1 F1200.0
G1 E290.873
G1 F3300.0
M101
G1 X9.12 Y7.2 Z3.11 F1800.0 E290.916
G1 X9.12 Y6.8 Z3.11 F900.0 E290.957
G1 X9.12 Y6.4 Z3.11 F1500.0 E290.982
G1 X9.12 Y6.0 Z3.11 F1800.0 E291.002
G1 X9.12 Y4.0 Z3.11 F1800.0 E291.105
G1 X6.14 Y2.13 Z3.11 F1800.0 E291.285
G1 X5.86 Y2.13 Z3.11 F1800.0 E291.299
G1 X2.14 Y5.87 Z3.11 F1800.0 E291.569
G1 X1.86 Y5.87 Z3.11 F1800.0 E291.584
G1 X-1.86 Y2.13 Z3.11 F1800.0 E291.854
G1 X-2.14 Y2.13 Z3.11 F1800.0 E291.868
G1 X-5.86 Y5.87 Z3.11 F1800.0 E292.138
G1 X-6.14 Y5.87 Z3.11 F1800.0 E292.153
G1 X-9.12 Y7.2 Z3.11 F1800.0 E292.32
G1 X-9.12 Y-0.4 Z3.11 F1800.0 E292.709
G1 X-6.14 Y-1.87 Z3.11 F1800.0 E292.879
G1 X-5.86 Y-1.87 Z3.11 F1800.0 E292.893
G1 X-2.14 Y1.87 Z3.11 F1800.0 E293.163
G1 X-1.86 Y1.87 Z3.11 F1800.0 E293.178
G1 X1.86 Y-1.87 Z3.11 F1800.0 E293.448
G1 X2.14 Y-1.87 Z3.11 F1800.0 E293.462
G1 X5.86 Y1.87 Z3.11 F1800.0 E293.732
G1 X6.14 Y1.87 Z3.11 F1800.0 E293.747
G1 X9.12 Y3.6 Z3.11 F1800.0 E293.923
G1 X9.12 Y-4.4 Z3.11 F1800.0 E294.332
G1 X6.14 Y-5.87 Z3.11 F1800.0 E294.503
G1 X5.86 Y-5.87 Z3.11 F1800.0 E294.517
M73 P33 (display progress)
G1 X2.14 Y-2.13 Z3.11 F1800.0 E294.787
G1 X1.86 Y-2.13 Z3.11 F1800.0 E294.801
G1 X-1.86 Y-5.87 Z3.11 F1800.0 E295.072
G1 X-2.14 Y-5.87 Z3.11 F1800.0 E295.086
G1 X-5.86 Y-2.13 Z3.11 F1800.0 E295.356
G1 X-6.14 Y-2.13 Z3.11 F1800.0 E295.371
G1 X-9.12 Y-0.8 Z3.11 F1800.0 E295.537
G1 X-9.12 Y-3.2 Z3.11 F1800.0 E295.66
G1 F1200.0
G1 E294.66
G1 F1800.0
M103
G1 X-9.12 Y-3.8 Z3.11 F900.0
G1 X-9.12 Y-4.4 Z3.11 F300.0
G1 X8.46 Y7.94 Z3.11 F3300.0
G1 F1200.0
G1 E295.66
G1 F3300.0
M101
G1 X9.12 Y8.4 Z3.11 F1800.0 E295.702
G1 X9.12 Y8.0 Z3.11 F900.0 E295.743
G1 X9.12 Y7.6 Z3.11 F1500.0 E295.767
G1 X8.73 Y7.52 Z3.11 F1800.0 E295.788
G1 X2.14 Y6.13 Z3.11 F1800.0 E296.132
G1 X-6.14 Y6.13 Z3.11 F1800.0 E296.556
G1 X-9.12 Y7.6 Z3.11 F1800.0 E296.726
G1 X-9.12 Y8.8 Z3.11 F1800.0 E296.787
G1 X7.92 Y8.8 Z3.11 F1800.0 E297.659
G1 F1200.0
G1 E296.659
G1 F1800.0
M103
G1 X8.52 Y8.8 Z3.11 F900.0
G1 X9.12 Y8.8 Z3.11 F300.0
G1 X-8.77 Y-8.33 Z3.37 F3300.0
G1 F1200.0
G1 E297.659
G1 F3300.0
M101
G1 X-9.4 Y-8.93 Z3.38 F1800.0 E297.704
G1 X-9.4 Y-9.33 Z3.38 F900.0 E297.745
G1 X-9.4 Y-9.4 Z3.38 F1008.0 E297.751
G1 X-9.07 Y-9.4 Z3.38 F1500.0 E297.771
G1 X-8.67 Y-9.4 Z3.38 F1800.0 E297.792
G1 X9.4 Y-9.4 Z3.38 F1800.0 E298.717
G1 X9.4 Y9.4 Z3.38 F1800.0 E299.679
G1 X-9.4 Y9.4 Z3.38 F1800.0 E300.641
G1 X-9.4 Y-7.73 Z3.38 F1800.0 E301.517
G1 F1200.0
G1 E300.517
G1 F1800.0
M73 P34 (display progress)
M103
G1 X-9.4 Y-8.33 Z3.38 F900.0
G1 X-9.4 Y-8.93 Z3.38 F300.0
;M108 R15.0
G1 X-9.79 Y-9.71 Z3.38 F3300.0
G1 F1200.0
G1 E301.517
G1 F3300.0
M101
G1 X-9.8 Y-9.8 Z3.38 F516.0 E301.526
G1 X-9.67 Y-9.8 Z3.38 F900.0 E301.532
G1 X-9.47 Y-9.8 Z3.38 F1500.0 E301.539
G1 X-9.4 Y-9.8 Z3.38 F1716.0 E301.541
G1 X-9.27 Y-9.8 Z3.38 F1800.0 E301.544
G1 X9.8 Y-9.8 Z3.38 F1800.0 E302.032
G1 X9.8 Y9.8 Z3.38 F900.0 E303.035
G1 X-9.8 Y9.8 Z3.38 F900.0 E304.038
G1 X-9.8 Y-9.13 Z3.38 F900.0 E305.006
G1 F1200.0
G1 E304.006
G1 F900.0
M103
G1 X-9.8 Y-9.43 Z3.38 F450.0
G1 X-9.8 Y-9.73 Z3.38 F150.0
;M108 R30.0
G1 X6.62 Y8.48 Z3.38 F3300.0
G1 F1200.0
G1 E305.006
G1 F3300.0
M101
G1 X7.2 Y9.12 Z3.38 F1800.0 E305.051
G1 X6.8 Y9.12 Z3.38 F900.0 E305.092
G1 X6.4 Y9.12 Z3.38 F1500.0 E305.116
G1 X6.0 Y9.12 Z3.38 F1800.0 E305.137
G1 X4.0 Y9.12 Z3.38 F1800.0 E305.239
G1 X2.13 Y6.14 Z3.38 F1800.0 E305.419
G1 X2.13 Y5.86 Z3.38 F1800.0 E305.433
G1 X5.87 Y2.14 Z3.38 F1800.0 E305.704
G1 X5.87 Y1.86 Z3.38 F1800.0 E305.718
G1 X2.13 Y-1.86 Z3.38 F1800.0 E305.988
G1 X2.13 Y-2.14 Z3.38 F1800.0 E306.003
G1 X5.87 Y-5.86 Z3.38 F1800.0 E306.273
G1 X5.87 Y-6.14 Z3.38 F1800.0 E306.287
G1 X7.2 Y-9.12 Z3.38 F1800.0 E306.454
G1 X-0.4 Y-9.12 Z3.38 F1800.0 E306.843
G1 X-1.87 Y-6.14 Z3.38 F1800.0 E307.013
G1 X-1.87 Y-5.86 Z3.38 F1800.0 E307.027
G1 X1.87 Y-2.14 Z3.38 F1800.0 E307.298
G1 X1.87 Y-1.86 Z3.38 F1800.0 E307.312
G1 X-1.87 Y1.86 Z3.38 F1800.0 E307.582
M73 P35 (display progress)
G1 X-1.87 Y2.14 Z3.38 F1800.0 E307.597
G1 X1.87 Y5.86 Z3.38 F1800.0 E307.867
G1 X1.87 Y6.14 Z3.38 F1800.0 E307.881
G1 X3.6 Y9.12 Z3.38 F1800.0 E308.057
G1 X-4.4 Y9.12 Z3.38 F1800.0 E308.467
G1 X-5.87 Y6.14 Z3.38 F1800.0 E308.637
G1 X-5.87 Y5.86 Z3.38 F1800.0 E308.651
G1 X-2.13 Y2.14 Z3.38 F1800.0 E308.921
G1 X-2.13 Y1.86 Z3.38 F1800.0 E308.936
G1 X-5.87 Y-1.86 Z3.38 F1800.0 E309.206
G1 X-5.87 Y-2.14 Z3.38 F1800.0 E309.22
G1 X-2.13 Y-5.86 Z3.38 F1800.0 E309.491
G1 X-2.13 Y-6.14 Z3.38 F1800.0 E309.505
G1 X-0.8 Y-9.12 Z3.38 F1800.0 E309.672
G1 X-3.2 Y-9.12 Z3.38 F1800.0 E309.795
G1 F1200.0
G1 E308.795
G1 F1800.0
M103
G1 X-3.8 Y-9.12 Z3.38 F900.0
G1 X-4.4 Y-9.12 Z3.38 F300.0
G1 X7.83 Y-9.12 Z3.38 F3300.0
G1 F1200.0
G1 E309.795
G1 F3300.0
M101
G1 X8.4 Y-9.12 Z3.38 F1800.0 E309.824
G1 X8.0 Y-9.12 Z3.38 F900.0 E309.865
G1 X7.6 Y-9.12 Z3.38 F1500.0 E309.889
G1 X7.42 Y-8.76 Z3.38 F1800.0 E309.91
G1 X6.13 Y-6.14 Z3.38 F1800.0 E310.059
G1 X6.13 Y2.14 Z3.38 F1800.0 E310.483
G1 X7.6 Y9.12 Z3.38 F1800.0 E310.848
G1 X8.8 Y9.12 Z3.38 F1800.0 E310.91
G1 X8.8 Y-7.92 Z3.38 F1800.0 E311.782
G1 F1200.0
G1 E310.782
G1 F1800.0
M103
G1 X8.8 Y-8.52 Z3.38 F900.0
G1 X8.8 Y-9.12 Z3.38 F300.0
G1 X-7.81 Y8.5 Z3.38 F3300.0
G1 F1200.0
G1 E311.782
G1 F3300.0
M101
G1 X-8.4 Y9.12 Z3.38 F1800.0 E311.825
G1 X-8.0 Y9.12 Z3.38 F900.0 E311.866
G1 X-7.6 Y9.12 Z3.38 F1500.0 E311.891
G1 X-7.2 Y9.12 Z3.38 F1800.0 E311.911
M73 P36 (display progress)
G1 X-4.8 Y9.12 Z3.38 F1800.0 E312.034
G1 X-6.13 Y6.14 Z3.38 F1800.0 E312.201
G1 X-6.13 Y-2.14 Z3.38 F1800.0 E312.625
G1 X-4.8 Y-9.12 Z3.38 F1800.0 E312.988
G1 X-8.8 Y-9.12 Z3.38 F1800.0 E313.193
G1 X-8.8 Y7.92 Z3.38 F1800.0 E314.065
G1 F1200.0
G1 E313.065
G1 F1800.0
M103
G1 X-8.8 Y8.52 Z3.38 F900.0
G1 X-8.8 Y9.12 Z3.38 F300.0
G1 X-9.36 Y-8.68 Z3.63 F3300.0
G1 F1200.0
G1 E314.065
G1 F3300.0
M101
G1 X-9.38 Y-9.4 Z3.65 F1800.0 E314.102
G1 X-8.98 Y-9.4 Z3.65 F900.0 E314.143
G1 X-8.58 Y-9.4 Z3.65 F1500.0 E314.168
G1 X-8.18 Y-9.4 Z3.65 F1800.0 E314.188
G1 X9.4 Y-9.4 Z3.65 F1800.0 E315.088
G1 X9.4 Y9.4 Z3.65 F1800.0 E316.05
G1 X-9.4 Y9.4 Z3.65 F1800.0 E317.012
G1 X-9.4 Y-8.22 Z3.65 F1800.0 E317.914
G1 F1200.0
G1 E317.335
G1 F1800.0
M103
G1 X-9.4 Y-8.82 Z3.65 F900.0
G1 X-9.4 Y-9.4 Z3.65 F322.0
;M108 R15.0
G1 X-9.38 Y-9.8 Z3.65 F3300.0
G1 F1200.0
G1 E317.914
G1 F3300.0
M101
G1 X-9.18 Y-9.8 Z3.65 F900.0 E317.924
G1 X-8.98 Y-9.8 Z3.65 F1500.0 E317.93
G1 X-8.78 Y-9.8 Z3.65 F1800.0 E317.935
G1 X9.8 Y-9.8 Z3.65 F1800.0 E318.41
G1 X9.8 Y9.8 Z3.65 F900.0 E319.414
G1 X-9.8 Y9.8 Z3.65 F900.0 E320.417
G1 X-9.8 Y-9.62 Z3.65 F900.0 E321.41
G1 F1200.0
G1 E321.09
G1 F900.0
M103
G1 X-9.8 Y-9.8 Z3.65 F572.0
G1 X-9.68 Y-9.8 Z3.65 F450.0
M73 P37 (display progress)
G1 X-9.4 Y-9.8 Z3.65 F172.0
;M108 R30.0
G1 X-9.14 Y-8.48 Z3.65 F3300.0
G1 F1200.0
G1 E321.41
G1 F3300.0
M101
G1 X-9.12 Y-8.4 Z3.65 F1800.0 E321.415
G1 X-9.12 Y-8.0 Z3.65 F900.0 E321.456
G1 X-9.12 Y-7.6 Z3.65 F1500.0 E321.48
G1 X-9.12 Y-7.2 Z3.65 F1800.0 E321.501
G1 X-9.12 Y-4.8 Z3.65 F1800.0 E321.623
G1 X-2.14 Y-6.13 Z3.65 F1800.0 E321.987
G1 X6.14 Y-6.13 Z3.65 F1800.0 E322.411
G1 X9.12 Y-4.8 Z3.65 F1800.0 E322.578
G1 X9.12 Y-8.8 Z3.65 F1800.0 E322.782
G1 X-7.92 Y-8.8 Z3.65 F1800.0 E323.654
G1 F1200.0
G1 E322.654
G1 F1800.0
M103
G1 X-8.52 Y-8.8 Z3.65 F900.0
G1 X-9.12 Y-8.8 Z3.65 F300.0
G1 X8.49 Y6.64 Z3.65 F3300.0
G1 F1200.0
G1 E323.654
G1 F3300.0
M101
G1 X9.12 Y7.2 Z3.65 F1800.0 E323.698
G1 X9.12 Y6.8 Z3.65 F900.0 E323.738
G1 X9.12 Y6.4 Z3.65 F1500.0 E323.763
G1 X9.12 Y6.0 Z3.65 F1800.0 E323.783
G1 X9.12 Y4.0 Z3.65 F1800.0 E323.886
G1 X6.14 Y2.13 Z3.65 F1800.0 E324.066
G1 X5.86 Y2.13 Z3.65 F1800.0 E324.08
G1 X2.14 Y5.87 Z3.65 F1800.0 E324.351
G1 X1.86 Y5.87 Z3.65 F1800.0 E324.365
G1 X-1.86 Y2.13 Z3.65 F1800.0 E324.635
G1 X-2.14 Y2.13 Z3.65 F1800.0 E324.649
G1 X-5.86 Y5.87 Z3.65 F1800.0 E324.92
G1 X-6.14 Y5.87 Z3.65 F1800.0 E324.934
G1 X-9.12 Y7.2 Z3.65 F1800.0 E325.101
G1 X-9.12 Y-0.4 Z3.65 F1800.0 E325.49
G1 X-6.14 Y-1.87 Z3.65 F1800.0 E325.66
G1 X-5.86 Y-1.87 Z3.65 F1800.0 E325.674
G1 X-2.14 Y1.87 Z3.65 F1800.0 E325.945
G1 X-1.86 Y1.87 Z3.65 F1800.0 E325.959
G1 X1.86 Y-1.87 Z3.65 F1800.0 E326.229
G1 X2.14 Y-1.87 Z3.65 F1800.0 E326.243
G1 X5.86 Y1.87 Z3.65 F1800.0 E326.514
M73 P38 (display progress)
G1 X6.14 Y1.87 Z3.65 F1800.0 E326.528
G1 X9.12 Y3.6 Z3.65 F1800.0 E326.704
G1 X9.12 Y-4.4 Z3.65 F1800.0 E327.114
G1 X6.14 Y-5.87 Z3.65 F1800.0 E327.284
G1 X5.86 Y-5.87 Z3.65 F1800.0 E327.298
G1 X2.14 Y-2.13 Z3.65 F1800.0 E327.568
G1 X1.86 Y-2.13 Z3.65 F1800.0 E327.583
G1 X-1.86 Y-5.87 Z3.65 F1800.0 E327.853
G1 X-2.14 Y-5.87 Z3.65 F1800.0 E327.867
G1 X-5.86 Y-2.13 Z3.65 F1800.0 E328.137
G1 X-6.14 Y-2.13 Z3.65 F1800.0 E328.152
G1 X-9.12 Y-0.8 Z3.65 F1800.0 E328.319
G1 X-9.12 Y-3.2 Z3.65 F1800.0 E328.442
G1 F1200.0
G1 E327.442
G1 F1800.0
M103
G1 X-9.12 Y-3.8 Z3.65 F900.0
G1 X-9.12 Y-4.4 Z3.65 F300.0
G1 X8.46 Y7.94 Z3.65 F3300.0
G1 F1200.0
G1 E328.442
G1 F3300.0
M101
G1 X9.12 Y8.4 Z3.65 F1800.0 E328.483
G1 X9.12 Y8.0 Z3.65 F900.0 E328.524
G1 X9.12 Y7.6 Z3.65 F1500.0 E328.548
G1 X8.73 Y7.52 Z3.65 F1800.0 E328.569
G1 X2.14 Y6.13 Z3.65 F1800.0 E328.913
G1 X-6.14 Y6.13 Z3.65 F1800.0 E329.337
G1 X-9.12 Y7.6 Z3.65 F1800.0 E329.507
G1 X-9.12 Y8.8 Z3.65 F1800.0 E329.569
G1 X7.92 Y8.8 Z3.65 F1800.0 E330.441
G1 F1200.0
G1 E329.441
G1 F1800.0
M103
G1 X8.52 Y8.8 Z3.65 F900.0
G1 X9.12 Y8.8 Z3.65 F300.0
G1 X-8.78 Y-8.51 Z3.91 F3300.0
G1 F1200.0
G1 E330.441
G1 F3300.0
M101
G1 X-9.4 Y-9.12 Z3.92 F1800.0 E330.485
G1 X-9.4 Y-9.4 Z3.92 F726.0 E330.521
G1 X-9.28 Y-9.4 Z3.92 F900.0 E330.533
G1 X-8.88 Y-9.4 Z3.92 F1500.0 E330.558
G1 X-8.48 Y-9.4 Z3.92 F1800.0 E330.578
G1 X9.4 Y-9.4 Z3.92 F1800.0 E331.493
M73 P39 (display progress)
G1 X9.4 Y9.4 Z3.92 F1800.0 E332.455
G1 X-9.4 Y9.4 Z3.92 F1800.0 E333.417
G1 X-9.4 Y-7.92 Z3.92 F1800.0 E334.304
G1 F1200.0
G1 E333.398
G1 F1800.0
M103
G1 X-9.4 Y-8.52 Z3.92 F900.0
G1 X-9.4 Y-9.12 Z3.92 F300.0
;M108 R15.0
G1 X-9.68 Y-9.8 Z3.92 F3300.0
G1 F1200.0
G1 E334.304
G1 F3300.0
M101
G1 X-9.48 Y-9.8 Z3.92 F900.0 E334.314
G1 X-9.4 Y-9.8 Z3.92 F1152.0 E334.317
G1 X-9.28 Y-9.8 Z3.92 F1500.0 E334.321
G1 X-9.08 Y-9.8 Z3.92 F1800.0 E334.326
G1 X9.8 Y-9.8 Z3.92 F1800.0 E334.809
G1 X9.8 Y9.8 Z3.92 F900.0 E335.812
G1 X-9.8 Y9.8 Z3.92 F900.0 E336.815
G1 X-9.8 Y-9.32 Z3.92 F900.0 E337.793
G1 F1200.0
G1 E336.793
G1 F900.0
M103
G1 X-9.8 Y-9.62 Z3.92 F450.0
G1 X-9.8 Y-9.8 Z3.92 F266.0
G1 X-9.68 Y-9.8 Z3.92 F150.0
;M108 R30.0
G1 X6.63 Y8.48 Z3.92 F3300.0
G1 F1200.0
G1 E337.793
G1 F3300.0
M101
G1 X7.2 Y9.12 Z3.92 F1800.0 E337.837
G1 X6.8 Y9.12 Z3.92 F900.0 E337.878
G1 X6.4 Y9.12 Z3.92 F1500.0 E337.903
G1 X6.0 Y9.12 Z3.92 F1800.0 E337.923
G1 X4.0 Y9.12 Z3.92 F1800.0 E338.026
G1 X2.13 Y6.14 Z3.92 F1800.0 E338.206
G1 X2.13 Y5.86 Z3.92 F1800.0 E338.22
G1 X5.87 Y2.14 Z3.92 F1800.0 E338.49
G1 X5.87 Y1.86 Z3.92 F1800.0 E338.505
G1 X2.13 Y-1.86 Z3.92 F1800.0 E338.775
G1 X2.13 Y-2.14 Z3.92 F1800.0 E338.789
G1 X5.87 Y-5.86 Z3.92 F1800.0 E339.06
G1 X5.87 Y-6.14 Z3.92 F1800.0 E339.074
G1 X7.2 Y-9.12 Z3.92 F1800.0 E339.241
M73 P40 (display progress)
G1 X-0.4 Y-9.12 Z3.92 F1800.0 E339.63
G1 X-1.87 Y-6.14 Z3.92 F1800.0 E339.8
G1 X-1.87 Y-5.86 Z3.92 F1800.0 E339.814
G1 X1.87 Y-2.14 Z3.92 F1800.0 E340.084
G1 X1.87 Y-1.86 Z3.92 F1800.0 E340.099
G1 X-1.87 Y1.86 Z3.92 F1800.0 E340.369
G1 X-1.87 Y2.14 Z3.92 F1800.0 E340.383
G1 X1.87 Y5.86 Z3.92 F1800.0 E340.654
G1 X1.87 Y6.14 Z3.92 F1800.0 E340.668
G1 X3.6 Y9.12 Z3.92 F1800.0 E340.844
G1 X-4.4 Y9.12 Z3.92 F1800.0 E341.254
G1 X-5.87 Y6.14 Z3.92 F1800.0 E341.424
G1 X-5.87 Y5.86 Z3.92 F1800.0 E341.438
G1 X-2.13 Y2.14 Z3.92 F1800.0 E341.708
G1 X-2.13 Y1.86 Z3.92 F1800.0 E341.723
G1 X-5.87 Y-1.86 Z3.92 F1800.0 E341.993
G1 X-5.87 Y-2.14 Z3.92 F1800.0 E342.007
G1 X-2.13 Y-5.86 Z3.92 F1800.0 E342.277
G1 X-2.13 Y-6.14 Z3.92 F1800.0 E342.292
G1 X-0.8 Y-9.12 Z3.92 F1800.0 E342.459
G1 X-3.2 Y-9.12 Z3.92 F1800.0 E342.581
G1 F1200.0
G1 E341.581
G1 F1800.0
M103
G1 X-3.8 Y-9.12 Z3.92 F900.0
G1 X-4.4 Y-9.12 Z3.92 F300.0
G1 X7.83 Y-9.12 Z3.92 F3300.0
G1 F1200.0
G1 E342.581
G1 F3300.0
M101
G1 X8.4 Y-9.12 Z3.92 F1800.0 E342.61
G1 X8.0 Y-9.12 Z3.92 F900.0 E342.651
G1 X7.6 Y-9.12 Z3.92 F1500.0 E342.676
G1 X7.42 Y-8.76 Z3.92 F1800.0 E342.696
G1 X6.13 Y-6.14 Z3.92 F1800.0 E342.846
G1 X6.13 Y2.14 Z3.92 F1800.0 E343.27
G1 X7.6 Y9.12 Z3.92 F1800.0 E343.635
G1 X8.8 Y9.12 Z3.92 F1800.0 E343.696
G1 X8.8 Y-7.92 Z3.92 F1800.0 E344.568
G1 F1200.0
G1 E343.568
G1 F1800.0
M103
G1 X8.8 Y-8.52 Z3.92 F900.0
G1 X8.8 Y-9.12 Z3.92 F300.0
G1 X-7.81 Y8.5 Z3.92 F3300.0
G1 F1200.0
G1 E344.568
M73 P41 (display progress)
G1 F3300.0
M101
G1 X-8.4 Y9.12 Z3.92 F1800.0 E344.612
G1 X-8.0 Y9.12 Z3.92 F900.0 E344.653
G1 X-7.6 Y9.12 Z3.92 F1500.0 E344.678
G1 X-7.2 Y9.12 Z3.92 F1800.0 E344.698
G1 X-4.8 Y9.12 Z3.92 F1800.0 E344.821
G1 X-6.13 Y6.14 Z3.92 F1800.0 E344.988
G1 X-6.13 Y-2.14 Z3.92 F1800.0 E345.412
G1 X-4.8 Y-9.12 Z3.92 F1800.0 E345.775
G1 X-8.8 Y-9.12 Z3.92 F1800.0 E345.98
G1 X-8.8 Y7.92 Z3.92 F1800.0 E346.852
G1 F1200.0
G1 E345.852
G1 F1800.0
M103
G1 X-8.8 Y8.52 Z3.92 F900.0
G1 X-8.8 Y9.12 Z3.92 F300.0
G1 X-9.17 Y-8.68 Z4.17 F3300.0
G1 F1200.0
G1 E346.852
G1 F3300.0
M101
G1 X-9.19 Y-9.4 Z4.18 F1800.0 E346.889
G1 X-8.79 Y-9.4 Z4.18 F900.0 E346.93
G1 X-8.39 Y-9.4 Z4.18 F1500.0 E346.954
G1 X-7.99 Y-9.4 Z4.18 F1800.0 E346.975
G1 X9.4 Y-9.4 Z4.18 F1800.0 E347.865
G1 X9.4 Y9.4 Z4.18 F1800.0 E348.827
G1 X-9.4 Y9.4 Z4.18 F1800.0 E349.789
G1 X-9.4 Y-8.41 Z4.18 F1800.0 E350.7
G1 F1200.0
G1 E350.296
G1 F1800.0
M103
G1 X-9.4 Y-9.01 Z4.18 F900.0
G1 X-9.4 Y-9.4 Z4.18 F511.0
G1 X-9.19 Y-9.4 Z4.18 F300.0
;M108 R15.0
G1 X-9.19 Y-9.8 Z4.18 F3300.0
G1 F1200.0
G1 E350.7
G1 F3300.0
M101
G1 X-8.99 Y-9.8 Z4.18 F900.0 E350.711
G1 X-8.79 Y-9.8 Z4.18 F1500.0 E350.717
G1 X-8.59 Y-9.8 Z4.18 F1800.0 E350.722
G1 X9.8 Y-9.8 Z4.18 F1800.0 E351.192
G1 X9.8 Y9.8 Z4.18 F900.0 E352.195
G1 X-9.8 Y9.8 Z4.18 F900.0 E353.198
M73 P42 (display progress)
G1 X-9.8 Y-9.8 Z4.18 F900.0 E354.201
G1 X-9.4 Y-9.8 Z4.18 F900.0 E354.222
G1 F1200.0
G1 E353.874
G1 F900.0
M103
G1 X-9.49 Y-9.8 Z4.18 F450.0
G1 X-9.4 Y-9.8 Z4.18 F361.0
G1 X-9.19 Y-9.8 Z4.18 F150.0
;M108 R30.0
G1 X-9.12 Y-8.48 Z4.18 F3300.0
G1 F1200.0
G1 E354.222
G1 F3300.0
M101
G1 X-9.12 Y-8.4 Z4.18 F1800.0 E354.226
G1 X-9.12 Y-8.0 Z4.18 F900.0 E354.267
G1 X-9.12 Y-7.6 Z4.18 F1500.0 E354.292
G1 X-9.12 Y-7.2 Z4.18 F1800.0 E354.312
G1 X-9.12 Y-4.8 Z4.18 F1800.0 E354.435
G1 X-2.14 Y-6.13 Z4.18 F1800.0 E354.798
G1 X6.14 Y-6.13 Z4.18 F1800.0 E355.222
G1 X9.12 Y-4.8 Z4.18 F1800.0 E355.389
G1 X9.12 Y-8.8 Z4.18 F1800.0 E355.594
G1 X-7.92 Y-8.8 Z4.18 F1800.0 E356.466
G1 F1200.0
G1 E355.466
G1 F1800.0
M103
G1 X-8.52 Y-8.8 Z4.18 F900.0
G1 X-9.12 Y-8.8 Z4.18 F300.0
G1 X8.49 Y6.64 Z4.18 F3300.0
G1 F1200.0
G1 E356.466
G1 F3300.0
M101
G1 X9.12 Y7.2 Z4.18 F1800.0 E356.509
G1 X9.12 Y6.8 Z4.18 F900.0 E356.55
G1 X9.12 Y6.4 Z4.18 F1500.0 E356.574
G1 X9.12 Y6.0 Z4.18 F1800.0 E356.595
G1 X9.12 Y4.0 Z4.18 F1800.0 E356.697
G1 X6.14 Y2.13 Z4.18 F1800.0 E356.877
G1 X5.86 Y2.13 Z4.18 F1800.0 E356.892
G1 X2.14 Y5.87 Z4.18 F1800.0 E357.162
G1 X1.86 Y5.87 Z4.18 F1800.0 E357.176
G1 X-1.86 Y2.13 Z4.18 F1800.0 E357.447
G1 X-2.14 Y2.13 Z4.18 F1800.0 E357.461
G1 X-5.86 Y5.87 Z4.18 F1800.0 E357.731
G1 X-6.14 Y5.87 Z4.18 F1800.0 E357.745
G1 X-9.12 Y7.2 Z4.18 F1800.0 E357.912
M73 P43 (display progress)
G1 X-9.12 Y-0.4 Z4.18 F1800.0 E358.301
G1 X-6.14 Y-1.87 Z4.18 F1800.0 E358.471
G1 X-5.86 Y-1.87 Z4.18 F1800.0 E358.486
G1 X-2.14 Y1.87 Z4.18 F1800.0 E358.756
G1 X-1.86 Y1.87 Z4.18 F1800.0 E358.77
G1 X1.86 Y-1.87 Z4.18 F1800.0 E359.041
G1 X2.14 Y-1.87 Z4.18 F1800.0 E359.055
G1 X5.86 Y1.87 Z4.18 F1800.0 E359.325
G1 X6.14 Y1.87 Z4.18 F1800.0 E359.339
G1 X9.12 Y3.6 Z4.18 F1800.0 E359.516
G1 X9.12 Y-4.4 Z4.18 F1800.0 E359.925
G1 X6.14 Y-5.87 Z4.18 F1800.0 E360.095
G1 X5.86 Y-5.87 Z4.18 F1800.0 E360.11
G1 X2.14 Y-2.13 Z4.18 F1800.0 E360.38
G1 X1.86 Y-2.13 Z4.18 F1800.0 E360.394
G1 X-1.86 Y-5.87 Z4.18 F1800.0 E360.664
G1 X-2.14 Y-5.87 Z4.18 F1800.0 E360.679
G1 X-5.86 Y-2.13 Z4.18 F1800.0 E360.949
G1 X-6.14 Y-2.13 Z4.18 F1800.0 E360.963
G1 X-9.12 Y-0.8 Z4.18 F1800.0 E361.13
G1 X-9.12 Y-3.2 Z4.18 F1800.0 E361.253
G1 F1200.0
G1 E360.253
G1 F1800.0
M103
G1 X-9.12 Y-3.8 Z4.18 F900.0
G1 X-9.12 Y-4.4 Z4.18 F300.0
G1 X8.46 Y7.94 Z4.18 F3300.0
G1 F1200.0
G1 E361.253
G1 F3300.0
M101
G1 X9.12 Y8.4 Z4.18 F1800.0 E361.294
G1 X9.12 Y8.0 Z4.18 F900.0 E361.335
G1 X9.12 Y7.6 Z4.18 F1500.0 E361.36
G1 X8.73 Y7.52 Z4.18 F1800.0 E361.38
G1 X2.14 Y6.13 Z4.18 F1800.0 E361.725
G1 X-6.14 Y6.13 Z4.18 F1800.0 E362.149
G1 X-9.12 Y7.6 Z4.18 F1800.0 E362.319
G1 X-9.12 Y8.8 Z4.18 F1800.0 E362.38
G1 X7.92 Y8.8 Z4.18 F1800.0 E363.252
G1 F1200.0
G1 E362.252
G1 F1800.0
M103
G1 X8.52 Y8.8 Z4.18 F900.0
G1 X9.12 Y8.8 Z4.18 F300.0
G1 X-8.78 Y-8.7 Z4.45 F3300.0
G1 F1200.0
G1 E363.252
M73 P44 (display progress)
G1 F3300.0
M101
G1 X-9.4 Y-9.31 Z4.46 F1800.0 E363.297
G1 X-9.4 Y-9.4 Z4.46 F442.5 E363.316
G1 X-9.1 Y-9.4 Z4.46 F900.0 E363.348
G1 X-8.7 Y-9.4 Z4.46 F1500.0 E363.372
G1 X-8.3 Y-9.4 Z4.46 F1800.0 E363.393
G1 X9.4 Y-9.4 Z4.46 F1800.0 E364.298
G1 X9.4 Y9.4 Z4.46 F1800.0 E365.26
G1 X-9.4 Y9.4 Z4.46 F1800.0 E366.222
G1 X-9.4 Y-8.11 Z4.46 F1800.0 E367.118
G1 F1200.0
G1 E366.421
G1 F1800.0
M103
G1 X-9.4 Y-8.71 Z4.46 F900.0
G1 X-9.4 Y-9.31 Z4.46 F300.0
;M108 R15.0
G1 X-9.49 Y-9.8 Z4.46 F3300.0
G1 F1200.0
G1 E367.118
G1 F3300.0
M101
G1 X-9.4 Y-9.8 Z4.46 F585.0 E367.126
G1 X-9.3 Y-9.8 Z4.46 F900.0 E367.131
G1 X-9.1 Y-9.8 Z4.46 F1500.0 E367.137
G1 X-8.9 Y-9.8 Z4.46 F1800.0 E367.142
G1 X9.8 Y-9.8 Z4.46 F1800.0 E367.621
G1 X9.8 Y9.8 Z4.46 F900.0 E368.624
G1 X-9.8 Y9.8 Z4.46 F900.0 E369.627
G1 X-9.8 Y-9.51 Z4.46 F900.0 E370.615
G1 F1200.0
G1 E369.615
G1 F900.0
M103
G1 X-9.8 Y-9.8 Z4.46 F455.0
G1 X-9.49 Y-9.8 Z4.46 F150.0
;M108 R30.0
G1 X6.63 Y8.48 Z4.46 F3300.0
G1 F1200.0
G1 E370.615
G1 F3300.0
M101
G1 X7.2 Y9.12 Z4.46 F1800.0 E370.659
G1 X6.8 Y9.12 Z4.46 F900.0 E370.7
G1 X6.4 Y9.12 Z4.46 F1500.0 E370.724
G1 X6.0 Y9.12 Z4.46 F1800.0 E370.745
G1 X4.0 Y9.12 Z4.46 F1800.0 E370.847
G1 X2.13 Y6.14 Z4.46 F1800.0 E371.027
G1 X2.13 Y5.86 Z4.46 F1800.0 E371.041
M73 P45 (display progress)
G1 X5.87 Y2.14 Z4.46 F1800.0 E371.312
G1 X5.87 Y1.86 Z4.46 F1800.0 E371.326
G1 X2.13 Y-1.86 Z4.46 F1800.0 E371.596
G1 X2.13 Y-2.14 Z4.46 F1800.0 E371.611
G1 X5.87 Y-5.86 Z4.46 F1800.0 E371.881
G1 X5.87 Y-6.14 Z4.46 F1800.0 E371.895
G1 X7.2 Y-9.12 Z4.46 F1800.0 E372.062
G1 X-0.4 Y-9.12 Z4.46 F1800.0 E372.451
G1 X-1.87 Y-6.14 Z4.46 F1800.0 E372.621
G1 X-1.87 Y-5.86 Z4.46 F1800.0 E372.635
G1 X1.87 Y-2.14 Z4.46 F1800.0 E372.906
G1 X1.87 Y-1.86 Z4.46 F1800.0 E372.92
G1 X-1.87 Y1.86 Z4.46 F1800.0 E373.19
G1 X-1.87 Y2.14 Z4.46 F1800.0 E373.205
G1 X1.87 Y5.86 Z4.46 F1800.0 E373.475
G1 X1.87 Y6.14 Z4.46 F1800.0 E373.489
G1 X3.6 Y9.12 Z4.46 F1800.0 E373.665
G1 X-4.4 Y9.12 Z4.46 F1800.0 E374.075
G1 X-5.87 Y6.14 Z4.46 F1800.0 E374.245
G1 X-5.87 Y5.86 Z4.46 F1800.0 E374.259
G1 X-2.13 Y2.14 Z4.46 F1800.0 E374.529
G1 X-2.13 Y1.86 Z4.46 F1800.0 E374.544
G1 X-5.87 Y-1.86 Z4.46 F1800.0 E374.814
G1 X-5.87 Y-2.14 Z4.46 F1800.0 E374.828
G1 X-2.13 Y-5.86 Z4.46 F1800.0 E375.099
G1 X-2.13 Y-6.14 Z4.46 F1800.0 E375.113
G1 X-0.8 Y-9.12 Z4.46 F1800.0 E375.28
G1 X-3.2 Y-9.12 Z4.46 F1800.0 E375.403
G1 F1200.0
G1 E374.403
G1 F1800.0
M103
G1 X-3.8 Y-9.12 Z4.46 F900.0
G1 X-4.4 Y-9.12 Z4.46 F300.0
G1 X7.83 Y-9.12 Z4.46 F3300.0
G1 F1200.0
G1 E375.403
G1 F3300.0
M101
G1 X8.4 Y-9.12 Z4.46 F1800.0 E375.432
G1 X8.0 Y-9.12 Z4.46 F900.0 E375.473
G1 X7.6 Y-9.12 Z4.46 F1500.0 E375.497
G1 X7.42 Y-8.76 Z4.46 F1800.0 E375.518
G1 X6.13 Y-6.14 Z4.46 F1800.0 E375.667
G1 X6.13 Y2.14 Z4.46 F1800.0 E376.091
G1 X7.6 Y9.12 Z4.46 F1800.0 E376.456
G1 X8.8 Y9.12 Z4.46 F1800.0 E376.517
G1 X8.8 Y-7.92 Z4.46 F1800.0 E377.39
G1 F1200.0
G1 E376.39
M73 P46 (display progress)
G1 F1800.0
M103
G1 X8.8 Y-8.52 Z4.46 F900.0
G1 X8.8 Y-9.12 Z4.46 F300.0
G1 X-7.81 Y8.5 Z4.46 F3300.0
G1 F1200.0
G1 E377.39
G1 F3300.0
M101
G1 X-8.4 Y9.12 Z4.46 F1800.0 E377.433
G1 X-8.0 Y9.12 Z4.46 F900.0 E377.474
G1 X-7.6 Y9.12 Z4.46 F1500.0 E377.499
G1 X-7.2 Y9.12 Z4.46 F1800.0 E377.519
G1 X-4.8 Y9.12 Z4.46 F1800.0 E377.642
G1 X-6.13 Y6.14 Z4.46 F1800.0 E377.809
G1 X-6.13 Y-2.14 Z4.46 F1800.0 E378.233
G1 X-4.8 Y-9.12 Z4.46 F1800.0 E378.596
G1 X-8.8 Y-9.12 Z4.46 F1800.0 E378.801
G1 X-8.8 Y7.92 Z4.46 F1800.0 E379.673
G1 F1200.0
G1 E378.673
G1 F1800.0
M103
G1 X-8.8 Y8.52 Z4.46 F900.0
G1 X-8.8 Y9.12 Z4.46 F300.0
G1 X-9.38 Y-8.29 Z4.71 F3300.0
G1 F1200.0
G1 E379.673
G1 F3300.0
M101
G1 X-9.4 Y-9.0 Z4.72 F1800.0 E379.71
G1 X-9.4 Y-9.4 Z4.72 F900.0 E379.751
G1 X-9.0 Y-9.4 Z4.72 F1500.0 E379.775
G1 X-8.6 Y-9.4 Z4.72 F1800.0 E379.796
G1 X9.4 Y-9.4 Z4.72 F1800.0 E380.717
G1 X9.4 Y9.4 Z4.72 F1800.0 E381.679
G1 X-9.4 Y9.4 Z4.72 F1800.0 E382.641
G1 X-9.4 Y-7.8 Z4.72 F1800.0 E383.521
G1 F1200.0
G1 E382.521
G1 F1800.0
M103
G1 X-9.4 Y-8.4 Z4.72 F900.0
G1 X-9.4 Y-9.0 Z4.72 F300.0
;M108 R15.0
G1 X-9.79 Y-9.78 Z4.72 F3300.0
G1 F1200.0
G1 E383.521
G1 F3300.0
M101
M73 P47 (display progress)
G1 X-9.8 Y-9.8 Z4.72 F300.0 E383.525
G1 X-9.6 Y-9.8 Z4.72 F900.0 E383.535
G1 X-9.4 Y-9.8 Z4.72 F1500.0 E383.542
G1 X-9.2 Y-9.8 Z4.72 F1800.0 E383.547
G1 X9.8 Y-9.8 Z4.72 F1800.0 E384.033
G1 X9.8 Y9.8 Z4.72 F900.0 E385.036
G1 X-9.8 Y9.8 Z4.72 F900.0 E386.039
G1 X-9.8 Y-9.2 Z4.72 F900.0 E387.011
G1 F1200.0
G1 E387.011
G1 F900.0
M103
G1 X-9.8 Y-9.5 Z4.72 F450.0
G1 X-9.8 Y-9.8 Z4.72 F150.0
;M108 R30.0
G1 X-9.16 Y-8.48 Z4.72 F3300.0
G1 F1200.0
G1 E387.011
G1 F3300.0
M101
G1 X-9.12 Y-8.4 Z4.72 F1800.0 E387.016
G1 X-9.12 Y-8.0 Z4.72 F900.0 E387.057
G1 X-9.12 Y-7.6 Z4.72 F1500.0 E387.081
G1 X-9.12 Y-7.2 Z4.72 F1800.0 E387.102
G1 X-9.12 Y-4.8 Z4.72 F1800.0 E387.225
G1 X-2.14 Y-6.13 Z4.72 F1800.0 E387.588
G1 X6.14 Y-6.13 Z4.72 F1800.0 E388.012
G1 X9.12 Y-4.8 Z4.72 F1800.0 E388.179
G1 X9.12 Y-8.8 Z4.72 F1800.0 E388.383
G1 X-7.92 Y-8.8 Z4.72 F1800.0 E389.255
G1 F1200.0
G1 E388.255
G1 F1800.0
M103
G1 X-8.52 Y-8.8 Z4.72 F900.0
G1 X-9.12 Y-8.8 Z4.72 F300.0
G1 X8.49 Y6.64 Z4.72 F3300.0
G1 F1200.0
G1 E389.255
G1 F3300.0
M101
G1 X9.12 Y7.2 Z4.72 F1800.0 E389.299
G1 X9.12 Y6.8 Z4.72 F900.0 E389.34
G1 X9.12 Y6.4 Z4.72 F1500.0 E389.364
G1 X9.12 Y6.0 Z4.72 F1800.0 E389.385
G1 X9.12 Y4.0 Z4.72 F1800.0 E389.487
G1 X6.14 Y2.13 Z4.72 F1800.0 E389.667
G1 X5.86 Y2.13 Z4.72 F1800.0 E389.681
G1 X2.14 Y5.87 Z4.72 F1800.0 E389.952
G1 X1.86 Y5.87 Z4.72 F1800.0 E389.966
M73 P48 (display progress)
G1 X-1.86 Y2.13 Z4.72 F1800.0 E390.236
G1 X-2.14 Y2.13 Z4.72 F1800.0 E390.251
G1 X-5.86 Y5.87 Z4.72 F1800.0 E390.521
G1 X-6.14 Y5.87 Z4.72 F1800.0 E390.535
G1 X-9.12 Y7.2 Z4.72 F1800.0 E390.702
G1 X-9.12 Y-0.4 Z4.72 F1800.0 E391.091
G1 X-6.14 Y-1.87 Z4.72 F1800.0 E391.261
G1 X-5.86 Y-1.87 Z4.72 F1800.0 E391.275
G1 X-2.14 Y1.87 Z4.72 F1800.0 E391.546
G1 X-1.86 Y1.87 Z4.72 F1800.0 E391.56
G1 X1.86 Y-1.87 Z4.72 F1800.0 E391.83
G1 X2.14 Y-1.87 Z4.72 F1800.0 E391.845
G1 X5.86 Y1.87 Z4.72 F1800.0 E392.115
G1 X6.14 Y1.87 Z4.72 F1800.0 E392.129
G1 X9.12 Y3.6 Z4.72 F1800.0 E392.305
G1 X9.12 Y-4.4 Z4.72 F1800.0 E392.715
G1 X6.14 Y-5.87 Z4.72 F1800.0 E392.885
G1 X5.86 Y-5.87 Z4.72 F1800.0 E392.899
G1 X2.14 Y-2.13 Z4.72 F1800.0 E393.169
G1 X1.86 Y-2.13 Z4.72 F1800.0 E393.184
G1 X-1.86 Y-5.87 Z4.72 F1800.0 E393.454
G1 X-2.14 Y-5.87 Z4.72 F1800.0 E393.468
G1 X-5.86 Y-2.13 Z4.72 F1800.0 E393.739
G1 X-6.14 Y-2.13 Z4.72 F1800.0 E393.753
G1 X-9.12 Y-0.8 Z4.72 F1800.0 E393.92
G1 X-9.12 Y-3.2 Z4.72 F1800.0 E394.043
G1 F1200.0
G1 E393.043
G1 F1800.0
M103
G1 X-9.12 Y-3.8 Z4.72 F900.0
G1 X-9.12 Y-4.4 Z4.72 F300.0
G1 X8.46 Y7.94 Z4.72 F3300.0
G1 F1200.0
G1 E394.043
G1 F3300.0
M101
G1 X9.12 Y8.4 Z4.72 F1800.0 E394.084
G1 X9.12 Y8.0 Z4.72 F900.0 E394.125
G1 X9.12 Y7.6 Z4.72 F1500.0 E394.149
G1 X8.73 Y7.52 Z4.72 F1800.0 E394.17
G1 X2.14 Y6.13 Z4.72 F1800.0 E394.514
G1 X-6.14 Y6.13 Z4.72 F1800.0 E394.938
G1 X-9.12 Y7.6 Z4.72 F1800.0 E395.108
G1 X-9.12 Y8.8 Z4.72 F1800.0 E395.17
G1 X7.92 Y8.8 Z4.72 F1800.0 E396.042
G1 F1200.0
G1 E395.042
G1 F1800.0
M103
M73 P49 (display progress)
G1 X8.52 Y8.8 Z4.72 F900.0
G1 X9.12 Y8.8 Z4.72 F300.0
G1 X-8.69 Y-8.79 Z4.99 F3300.0
G1 F1200.0
G1 E396.042
G1 F3300.0
M101
G1 X-9.31 Y-9.4 Z5.0 F1800.0 E396.086
G1 X-8.91 Y-9.4 Z5.0 F900.0 E396.127
G1 X-8.51 Y-9.4 Z5.0 F1500.0 E396.152
G1 X-8.11 Y-9.4 Z5.0 F1800.0 E396.172
G1 X9.4 Y-9.4 Z5.0 F1800.0 E397.068
G1 X9.4 Y9.4 Z5.0 F1800.0 E398.03
G1 X-9.4 Y9.4 Z5.0 F1800.0 E398.992
G1 X-9.4 Y-8.29 Z5.0 F1800.0 E399.898
G1 F1200.0
G1 E399.389
G1 F1800.0
M103
G1 X-9.4 Y-8.89 Z5.0 F900.0
G1 X-9.4 Y-9.4 Z5.0 F394.0
G1 X-9.31 Y-9.4 Z5.0 F300.0
;M108 R15.0
G1 X-9.31 Y-9.8 Z5.0 F3300.0
G1 F1200.0
G1 E399.898
G1 F3300.0
M101
G1 X-9.11 Y-9.8 Z5.0 F900.0 E399.908
G1 X-8.91 Y-9.8 Z5.0 F1500.0 E399.914
G1 X-8.71 Y-9.8 Z5.0 F1800.0 E399.919
G1 X9.8 Y-9.8 Z5.0 F1800.0 E400.393
G1 X9.8 Y9.8 Z5.0 F900.0 E401.396
G1 X-9.8 Y9.8 Z5.0 F900.0 E402.399
G1 X-9.8 Y-9.69 Z5.0 F900.0 E403.396
G1 F1200.0
G1 E402.396
G1 F900.0
M103
G1 X-9.8 Y-9.8 Z5.0 F644.0
G1 X-9.61 Y-9.8 Z5.0 F450.0
G1 X-9.4 Y-9.8 Z5.0 F244.0
G1 X-9.31 Y-9.8 Z5.0 F150.0
;M108 R30.0
G1 X6.64 Y8.47 Z5.0 F3300.0
G1 F1200.0
G1 E403.396
G1 F3300.0
M101
G1 X7.2 Y9.12 Z5.0 F1800.0 E403.44
M73 P50 (display progress)
G1 X6.8 Y9.12 Z5.0 F900.0 E403.481
G1 X6.4 Y9.12 Z5.0 F1500.0 E403.506
G1 X6.0 Y9.12 Z5.0 F1800.0 E403.526
G1 X4.0 Y9.12 Z5.0 F1800.0 E403.629
G1 X2.13 Y6.14 Z5.0 F1800.0 E403.809
G1 X2.13 Y5.86 Z5.0 F1800.0 E403.823
G1 X5.87 Y2.14 Z5.0 F1800.0 E404.093
G1 X5.87 Y1.86 Z5.0 F1800.0 E404.108
G1 X2.13 Y-1.86 Z5.0 F1800.0 E404.378
G1 X2.13 Y-2.14 Z5.0 F1800.0 E404.392
G1 X5.87 Y-5.86 Z5.0 F1800.0 E404.662
G1 X5.87 Y-6.14 Z5.0 F1800.0 E404.677
G1 X7.2 Y-9.12 Z5.0 F1800.0 E404.844
G1 X-0.4 Y-9.12 Z5.0 F1800.0 E405.233
G1 X-1.87 Y-6.14 Z5.0 F1800.0 E405.403
G1 X-1.87 Y-5.86 Z5.0 F1800.0 E405.417
G1 X1.87 Y-2.14 Z5.0 F1800.0 E405.687
G1 X1.87 Y-1.86 Z5.0 F1800.0 E405.702
G1 X-1.87 Y1.86 Z5.0 F1800.0 E405.972
G1 X-1.87 Y2.14 Z5.0 F1800.0 E405.986
G1 X1.87 Y5.86 Z5.0 F1800.0 E406.256
G1 X1.87 Y6.14 Z5.0 F1800.0 E406.271
G1 X3.6 Y9.12 Z5.0 F1800.0 E406.447
G1 X-4.4 Y9.12 Z5.0 F1800.0 E406.856
G1 X-5.87 Y6.14 Z5.0 F1800.0 E407.027
G1 X-5.87 Y5.86 Z5.0 F1800.0 E407.041
G1 X-2.13 Y2.14 Z5.0 F1800.0 E407.311
G1 X-2.13 Y1.86 Z5.0 F1800.0 E407.325
G1 X-5.87 Y-1.86 Z5.0 F1800.0 E407.596
G1 X-5.87 Y-2.14 Z5.0 F1800.0 E407.61
G1 X-2.13 Y-5.86 Z5.0 F1800.0 E407.88
G1 X-2.13 Y-6.14 Z5.0 F1800.0 E407.895
G1 X-0.8 Y-9.12 Z5.0 F1800.0 E408.062
G1 X-3.2 Y-9.12 Z5.0 F1800.0 E408.184
G1 F1200.0
G1 E407.184
G1 F1800.0
M103
G1 X-3.8 Y-9.12 Z5.0 F900.0
G1 X-4.4 Y-9.12 Z5.0 F300.0
G1 X7.83 Y-9.12 Z5.0 F3300.0
G1 F1200.0
G1 E408.184
G1 F3300.0
M101
G1 X8.4 Y-9.12 Z5.0 F1800.0 E408.213
G1 X8.0 Y-9.12 Z5.0 F900.0 E408.254
G1 X7.6 Y-9.12 Z5.0 F1500.0 E408.279
G1 X7.42 Y-8.76 Z5.0 F1800.0 E408.299
G1 X6.13 Y-6.14 Z5.0 F1800.0 E408.449
G1 X6.13 Y2.14 Z5.0 F1800.0 E408.873
M73 P51 (display progress)
G1 X7.6 Y9.12 Z5.0 F1800.0 E409.238
G1 X8.8 Y9.12 Z5.0 F1800.0 E409.299
G1 X8.8 Y-7.92 Z5.0 F1800.0 E410.171
G1 F1200.0
G1 E409.171
G1 F1800.0
M103
G1 X8.8 Y-8.52 Z5.0 F900.0
G1 X8.8 Y-9.12 Z5.0 F300.0
G1 X-7.81 Y8.5 Z5.0 F3300.0
G1 F1200.0
G1 E410.171
G1 F3300.0
M101
G1 X-8.4 Y9.12 Z5.0 F1800.0 E410.215
G1 X-8.0 Y9.12 Z5.0 F900.0 E410.256
G1 X-7.6 Y9.12 Z5.0 F1500.0 E410.281
G1 X-7.2 Y9.12 Z5.0 F1800.0 E410.301
G1 X-4.8 Y9.12 Z5.0 F1800.0 E410.424
G1 X-6.13 Y6.14 Z5.0 F1800.0 E410.591
G1 X-6.13 Y-2.14 Z5.0 F1800.0 E411.015
G1 X-4.8 Y-9.12 Z5.0 F1800.0 E411.378
G1 X-8.8 Y-9.12 Z5.0 F1800.0 E411.583
G1 X-8.8 Y7.92 Z5.0 F1800.0 E412.455
G1 F1200.0
G1 E411.455
G1 F1800.0
M103
G1 X-8.8 Y8.52 Z5.0 F900.0
G1 X-8.8 Y9.12 Z5.0 F300.0
G1 X-9.38 Y-8.47 Z5.25 F3300.0
G1 F1200.0
G1 E412.455
G1 F3300.0
M101
G1 X-9.4 Y-9.19 Z5.27 F1800.0 E412.492
G1 X-9.4 Y-9.4 Z5.27 F616.5 E412.523
G1 X-9.21 Y-9.4 Z5.27 F900.0 E412.542
G1 X-8.81 Y-9.4 Z5.27 F1500.0 E412.567
G1 X-8.41 Y-9.4 Z5.27 F1800.0 E412.588
G1 X9.4 Y-9.4 Z5.27 F1800.0 E413.499
G1 X9.4 Y9.4 Z5.27 F1800.0 E414.461
G1 X-9.4 Y9.4 Z5.27 F1800.0 E415.423
G1 X-9.4 Y-7.99 Z5.27 F1800.0 E416.313
G1 F1200.0
G1 E415.49
G1 F1800.0
M103
G1 X-9.4 Y-8.59 Z5.27 F900.0
G1 X-9.4 Y-9.19 Z5.27 F300.0
M73 P52 (display progress)
;M108 R15.0
G1 X-9.61 Y-9.8 Z5.27 F3300.0
G1 F1200.0
G1 E416.313
G1 F3300.0
M101
G1 X-9.4 Y-9.8 Z5.27 F933.0 E416.323
G1 X-9.21 Y-9.8 Z5.27 F1500.0 E416.329
G1 X-9.01 Y-9.8 Z5.27 F1800.0 E416.334
G1 X9.8 Y-9.8 Z5.27 F1800.0 E416.816
G1 X9.8 Y9.8 Z5.27 F900.0 E417.819
G1 X-9.8 Y9.8 Z5.27 F900.0 E418.822
G1 X-9.8 Y-9.39 Z5.27 F900.0 E419.804
G1 F1200.0
G1 E419.686
G1 F900.0
M103
G1 X-9.8 Y-9.69 Z5.27 F450.0
G1 X-9.8 Y-9.8 Z5.27 F339.0
G1 X-9.61 Y-9.8 Z5.27 F150.0
;M108 R30.0
G1 X-9.15 Y-8.48 Z5.27 F3300.0
G1 F1200.0
G1 E419.804
G1 F3300.0
M101
G1 X-9.12 Y-8.4 Z5.27 F1800.0 E419.808
G1 X-9.12 Y-8.0 Z5.27 F900.0 E419.849
G1 X-9.12 Y-7.6 Z5.27 F1500.0 E419.874
G1 X-9.12 Y-7.2 Z5.27 F1800.0 E419.894
G1 X-9.12 Y-4.8 Z5.27 F1800.0 E420.017
G1 X-2.14 Y-6.13 Z5.27 F1800.0 E420.38
G1 X6.14 Y-6.13 Z5.27 F1800.0 E420.804
G1 X9.12 Y-4.8 Z5.27 F1800.0 E420.971
G1 X9.12 Y-8.8 Z5.27 F1800.0 E421.176
G1 X-7.92 Y-8.8 Z5.27 F1800.0 E422.048
G1 F1200.0
G1 E421.048
G1 F1800.0
M103
G1 X-8.52 Y-8.8 Z5.27 F900.0
G1 X-9.12 Y-8.8 Z5.27 F300.0
G1 X8.49 Y6.64 Z5.27 F3300.0
G1 F1200.0
G1 E422.048
G1 F3300.0
M101
G1 X9.12 Y7.2 Z5.27 F1800.0 E422.091
G1 X9.12 Y6.8 Z5.27 F900.0 E422.132
G1 X9.12 Y6.4 Z5.27 F1500.0 E422.156
M73 P53 (display progress)
G1 X9.12 Y6.0 Z5.27 F1800.0 E422.177
G1 X9.12 Y4.0 Z5.27 F1800.0 E422.279
G1 X6.14 Y2.13 Z5.27 F1800.0 E422.459
G1 X5.86 Y2.13 Z5.27 F1800.0 E422.474
G1 X2.14 Y5.87 Z5.27 F1800.0 E422.744
G1 X1.86 Y5.87 Z5.27 F1800.0 E422.758
G1 X-1.86 Y2.13 Z5.27 F1800.0 E423.029
G1 X-2.14 Y2.13 Z5.27 F1800.0 E423.043
G1 X-5.86 Y5.87 Z5.27 F1800.0 E423.313
G1 X-6.14 Y5.87 Z5.27 F1800.0 E423.327
G1 X-9.12 Y7.2 Z5.27 F1800.0 E423.494
G1 X-9.12 Y-0.4 Z5.27 F1800.0 E423.883
G1 X-6.14 Y-1.87 Z5.27 F1800.0 E424.053
G1 X-5.86 Y-1.87 Z5.27 F1800.0 E424.068
G1 X-2.14 Y1.87 Z5.27 F1800.0 E424.338
G1 X-1.86 Y1.87 Z5.27 F1800.0 E424.352
G1 X1.86 Y-1.87 Z5.27 F1800.0 E424.623
G1 X2.14 Y-1.87 Z5.27 F1800.0 E424.637
G1 X5.86 Y1.87 Z5.27 F1800.0 E424.907
G1 X6.14 Y1.87 Z5.27 F1800.0 E424.921
G1 X9.12 Y3.6 Z5.27 F1800.0 E425.098
G1 X9.12 Y-4.4 Z5.27 F1800.0 E425.507
G1 X6.14 Y-5.87 Z5.27 F1800.0 E425.677
G1 X5.86 Y-5.87 Z5.27 F1800.0 E425.692
G1 X2.14 Y-2.13 Z5.27 F1800.0 E425.962
G1 X1.86 Y-2.13 Z5.27 F1800.0 E425.976
G1 X-1.86 Y-5.87 Z5.27 F1800.0 E426.246
G1 X-2.14 Y-5.87 Z5.27 F1800.0 E426.261
G1 X-5.86 Y-2.13 Z5.27 F1800.0 E426.531
G1 X-6.14 Y-2.13 Z5.27 F1800.0 E426.545
G1 X-9.12 Y-0.8 Z5.27 F1800.0 E426.712
G1 X-9.12 Y-3.2 Z5.27 F1800.0 E426.835
G1 F1200.0
G1 E425.835
G1 F1800.0
M103
G1 X-9.12 Y-3.8 Z5.27 F900.0
G1 X-9.12 Y-4.4 Z5.27 F300.0
G1 X8.46 Y7.94 Z5.27 F3300.0
G1 F1200.0
G1 E426.835
G1 F3300.0
M101
G1 X9.12 Y8.4 Z5.27 F1800.0 E426.876
G1 X9.12 Y8.0 Z5.27 F900.0 E426.917
G1 X9.12 Y7.6 Z5.27 F1500.0 E426.942
G1 X8.73 Y7.52 Z5.27 F1800.0 E426.962
G1 X2.14 Y6.13 Z5.27 F1800.0 E427.307
G1 X-6.14 Y6.13 Z5.27 F1800.0 E427.731
G1 X-9.12 Y7.6 Z5.27 F1800.0 E427.901
M73 P54 (display progress)
G1 X-9.12 Y8.8 Z5.27 F1800.0 E427.962
G1 X7.92 Y8.8 Z5.27 F1800.0 E428.834
G1 F1200.0
G1 E427.834
G1 F1800.0
M103
G1 X8.52 Y8.8 Z5.27 F900.0
G1 X9.12 Y8.8 Z5.27 F300.0
G1 X-8.5 Y-8.79 Z5.53 F3300.0
G1 F1200.0
G1 E428.834
G1 F3300.0
M101
G1 X-9.12 Y-9.4 Z5.54 F1800.0 E428.879
G1 X-8.72 Y-9.4 Z5.54 F900.0 E428.919
G1 X-8.32 Y-9.4 Z5.54 F1500.0 E428.944
G1 X-7.92 Y-9.4 Z5.54 F1800.0 E428.965
G1 X9.4 Y-9.4 Z5.54 F1800.0 E429.851
G1 X9.4 Y9.4 Z5.54 F1800.0 E430.813
G1 X-9.4 Y9.4 Z5.54 F1800.0 E431.775
G1 X-9.4 Y-8.48 Z5.54 F1800.0 E432.69
G1 F1200.0
G1 E432.343
G1 F1800.0
M103
G1 X-9.4 Y-9.08 Z5.54 F900.0
G1 X-9.4 Y-9.4 Z5.54 F583.0
G1 X-9.12 Y-9.4 Z5.54 F300.0
;M108 R15.0
G1 X-9.12 Y-9.8 Z5.54 F3300.0
G1 F1200.0
G1 E432.69
G1 F3300.0
M101
G1 X-8.92 Y-9.8 Z5.54 F900.0 E432.7
G1 X-8.72 Y-9.8 Z5.54 F1500.0 E432.706
G1 X-8.52 Y-9.8 Z5.54 F1800.0 E432.711
G1 X9.8 Y-9.8 Z5.54 F1800.0 E433.18
G1 X9.8 Y9.8 Z5.54 F900.0 E434.183
G1 X-9.8 Y9.8 Z5.54 F900.0 E435.186
G1 X-9.8 Y-9.8 Z5.54 F900.0 E436.189
G1 X-9.72 Y-9.8 Z5.54 F900.0 E436.193
G1 F1200.0
G1 E435.193
G1 F900.0
M103
G1 X-9.4 Y-9.8 Z5.54 F450.0
G1 X-9.4 Y-9.8 Z5.54 F433.0
G1 X-9.12 Y-9.8 Z5.54 F150.0
;M108 R30.0
M73 P55 (display progress)
G1 X6.64 Y8.47 Z5.54 F3300.0
G1 F1200.0
G1 E436.193
G1 F3300.0
M101
G1 X7.2 Y9.12 Z5.54 F1800.0 E436.237
G1 X6.8 Y9.12 Z5.54 F900.0 E436.278
G1 X6.4 Y9.12 Z5.54 F1500.0 E436.303
G1 X6.0 Y9.12 Z5.54 F1800.0 E436.323
G1 X4.0 Y9.12 Z5.54 F1800.0 E436.426
G1 X2.13 Y6.14 Z5.54 F1800.0 E436.606
G1 X2.13 Y5.86 Z5.54 F1800.0 E436.62
G1 X5.87 Y2.14 Z5.54 F1800.0 E436.89
G1 X5.87 Y1.86 Z5.54 F1800.0 E436.905
G1 X2.13 Y-1.86 Z5.54 F1800.0 E437.175
G1 X2.13 Y-2.14 Z5.54 F1800.0 E437.189
G1 X5.87 Y-5.86 Z5.54 F1800.0 E437.459
G1 X5.87 Y-6.14 Z5.54 F1800.0 E437.474
G1 X7.2 Y-9.12 Z5.54 F1800.0 E437.641
G1 X-0.4 Y-9.12 Z5.54 F1800.0 E438.03
G1 X-1.87 Y-6.14 Z5.54 F1800.0 E438.2
G1 X-1.87 Y-5.86 Z5.54 F1800.0 E438.214
G1 X1.87 Y-2.14 Z5.54 F1800.0 E438.484
G1 X1.87 Y-1.86 Z5.54 F1800.0 E438.499
G1 X-1.87 Y1.86 Z5.54 F1800.0 E438.769
G1 X-1.87 Y2.14 Z5.54 F1800.0 E438.783
G1 X1.87 Y5.86 Z5.54 F1800.0 E439.053
G1 X1.87 Y6.14 Z5.54 F1800.0 E439.068
G1 X3.6 Y9.12 Z5.54 F1800.0 E439.244
G1 X-4.4 Y9.12 Z5.54 F1800.0 E439.653
G1 X-5.87 Y6.14 Z5.54 F1800.0 E439.824
G1 X-5.87 Y5.86 Z5.54 F1800.0 E439.838
G1 X-2.13 Y2.14 Z5.54 F1800.0 E440.108
G1 X-2.13 Y1.86 Z5.54 F1800.0 E440.122
G1 X-5.87 Y-1.86 Z5.54 F1800.0 E440.393
G1 X-5.87 Y-2.14 Z5.54 F1800.0 E440.407
G1 X-2.13 Y-5.86 Z5.54 F1800.0 E440.677
G1 X-2.13 Y-6.14 Z5.54 F1800.0 E440.692
G1 X-0.8 Y-9.12 Z5.54 F1800.0 E440.858
G1 X-3.2 Y-9.12 Z5.54 F1800.0 E440.981
G1 F1200.0
G1 E439.981
G1 F1800.0
M103
G1 X-3.8 Y-9.12 Z5.54 F900.0
G1 X-4.4 Y-9.12 Z5.54 F300.0
G1 X7.83 Y-9.12 Z5.54 F3300.0
G1 F1200.0
G1 E440.981
G1 F3300.0
M73 P56 (display progress)
M101
G1 X8.4 Y-9.12 Z5.54 F1800.0 E441.01
G1 X8.0 Y-9.12 Z5.54 F900.0 E441.051
G1 X7.6 Y-9.12 Z5.54 F1500.0 E441.076
G1 X7.42 Y-8.76 Z5.54 F1800.0 E441.096
G1 X6.13 Y-6.14 Z5.54 F1800.0 E441.246
G1 X6.13 Y2.14 Z5.54 F1800.0 E441.67
G1 X7.6 Y9.12 Z5.54 F1800.0 E442.035
G1 X8.8 Y9.12 Z5.54 F1800.0 E442.096
G1 X8.8 Y-7.92 Z5.54 F1800.0 E442.968
G1 F1200.0
G1 E441.968
G1 F1800.0
M103
G1 X8.8 Y-8.52 Z5.54 F900.0
G1 X8.8 Y-9.12 Z5.54 F300.0
G1 X-7.81 Y8.5 Z5.54 F3300.0
G1 F1200.0
G1 E442.968
G1 F3300.0
M101
G1 X-8.4 Y9.12 Z5.54 F1800.0 E443.012
G1 X-8.0 Y9.12 Z5.54 F900.0 E443.053
G1 X-7.6 Y9.12 Z5.54 F1500.0 E443.078
G1 X-7.2 Y9.12 Z5.54 F1800.0 E443.098
G1 X-4.8 Y9.12 Z5.54 F1800.0 E443.221
G1 X-6.13 Y6.14 Z5.54 F1800.0 E443.388
G1 X-6.13 Y-2.14 Z5.54 F1800.0 E443.811
G1 X-4.8 Y-9.12 Z5.54 F1800.0 E444.175
G1 X-8.8 Y-9.12 Z5.54 F1800.0 E444.38
G1 X-8.8 Y7.92 Z5.54 F1800.0 E445.252
G1 F1200.0
G1 E444.252
G1 F1800.0
M103
G1 X-8.8 Y8.52 Z5.54 F900.0
G1 X-8.8 Y9.12 Z5.54 F300.0
G1 X-9.38 Y-8.65 Z5.79 F3300.0
G1 F1200.0
G1 E445.252
G1 F3300.0
M101
G1 X-9.4 Y-9.38 Z5.81 F1800.0 E445.289
G1 X-9.4 Y-9.4 Z5.81 F334.5 E445.295
G1 X-9.02 Y-9.4 Z5.81 F900.0 E445.334
G1 X-8.62 Y-9.4 Z5.81 F1500.0 E445.358
G1 X-8.22 Y-9.4 Z5.81 F1800.0 E445.379
G1 X9.4 Y-9.4 Z5.81 F1800.0 E446.281
G1 X9.4 Y9.4 Z5.81 F1800.0 E447.243
G1 X-9.4 Y9.4 Z5.81 F1800.0 E448.205
M73 P57 (display progress)
G1 X-9.4 Y-8.18 Z5.81 F1800.0 E449.104
G1 F1200.0
G1 E448.481
G1 F1800.0
M103
G1 X-9.4 Y-8.78 Z5.81 F900.0
G1 X-9.4 Y-9.38 Z5.81 F300.0
;M108 R15.0
G1 X-9.42 Y-9.8 Z5.81 F3300.0
G1 F1200.0
G1 E449.104
G1 F3300.0
M101
G1 X-9.4 Y-9.8 Z5.81 F369.0 E449.107
G1 X-9.22 Y-9.8 Z5.81 F900.0 E449.116
G1 X-9.02 Y-9.8 Z5.81 F1500.0 E449.122
G1 X-8.82 Y-9.8 Z5.81 F1800.0 E449.127
G1 X9.8 Y-9.8 Z5.81 F1800.0 E449.604
G1 X9.8 Y9.8 Z5.81 F900.0 E450.607
G1 X-9.8 Y9.8 Z5.81 F900.0 E451.61
G1 X-9.8 Y-9.58 Z5.81 F900.0 E452.602
G1 F1200.0
G1 E452.321
G1 F900.0
M103
G1 X-9.8 Y-9.8 Z5.81 F527.0
G1 X-9.72 Y-9.8 Z5.81 F450.0
G1 X-9.42 Y-9.8 Z5.81 F150.0
;M108 R30.0
G1 X-9.14 Y-8.48 Z5.81 F3300.0
G1 F1200.0
G1 E452.602
G1 F3300.0
M101
G1 X-9.12 Y-8.4 Z5.81 F1800.0 E452.606
G1 X-9.12 Y-8.0 Z5.81 F900.0 E452.647
G1 X-9.12 Y-7.6 Z5.81 F1500.0 E452.671
G1 X-9.12 Y-7.2 Z5.81 F1800.0 E452.692
G1 X-9.12 Y-4.8 Z5.81 F1800.0 E452.815
G1 X-2.14 Y-6.13 Z5.81 F1800.0 E453.178
G1 X6.14 Y-6.13 Z5.81 F1800.0 E453.602
G1 X9.12 Y-4.8 Z5.81 F1800.0 E453.769
G1 X9.12 Y-8.8 Z5.81 F1800.0 E453.974
G1 X-7.92 Y-8.8 Z5.81 F1800.0 E454.846
G1 F1200.0
G1 E453.846
G1 F1800.0
M103
G1 X-8.52 Y-8.8 Z5.81 F900.0
G1 X-9.12 Y-8.8 Z5.81 F300.0
M73 P58 (display progress)
G1 X8.49 Y6.64 Z5.81 F3300.0
G1 F1200.0
G1 E454.846
G1 F3300.0
M101
G1 X9.12 Y7.2 Z5.81 F1800.0 E454.889
G1 X9.12 Y6.8 Z5.81 F900.0 E454.93
G1 X9.12 Y6.4 Z5.81 F1500.0 E454.954
G1 X9.12 Y6.0 Z5.81 F1800.0 E454.975
G1 X9.12 Y4.0 Z5.81 F1800.0 E455.077
G1 X6.14 Y2.13 Z5.81 F1800.0 E455.257
G1 X5.86 Y2.13 Z5.81 F1800.0 E455.271
G1 X2.14 Y5.87 Z5.81 F1800.0 E455.542
G1 X1.86 Y5.87 Z5.81 F1800.0 E455.556
G1 X-1.86 Y2.13 Z5.81 F1800.0 E455.826
G1 X-2.14 Y2.13 Z5.81 F1800.0 E455.841
G1 X-5.86 Y5.87 Z5.81 F1800.0 E456.111
G1 X-6.14 Y5.87 Z5.81 F1800.0 E456.125
G1 X-9.12 Y7.2 Z5.81 F1800.0 E456.292
G1 X-9.12 Y-0.4 Z5.81 F1800.0 E456.681
G1 X-6.14 Y-1.87 Z5.81 F1800.0 E456.851
G1 X-5.86 Y-1.87 Z5.81 F1800.0 E456.865
G1 X-2.14 Y1.87 Z5.81 F1800.0 E457.136
G1 X-1.86 Y1.87 Z5.81 F1800.0 E457.15
G1 X1.86 Y-1.87 Z5.81 F1800.0 E457.42
G1 X2.14 Y-1.87 Z5.81 F1800.0 E457.435
G1 X5.86 Y1.87 Z5.81 F1800.0 E457.705
G1 X6.14 Y1.87 Z5.81 F1800.0 E457.719
G1 X9.12 Y3.6 Z5.81 F1800.0 E457.895
G1 X9.12 Y-4.4 Z5.81 F1800.0 E458.305
G1 X6.14 Y-5.87 Z5.81 F1800.0 E458.475
G1 X5.86 Y-5.87 Z5.81 F1800.0 E458.489
G1 X2.14 Y-2.13 Z5.81 F1800.0 E458.759
G1 X1.86 Y-2.13 Z5.81 F1800.0 E458.774
G1 X-1.86 Y-5.87 Z5.81 F1800.0 E459.044
G1 X-2.14 Y-5.87 Z5.81 F1800.0 E459.058
G1 X-5.86 Y-2.13 Z5.81 F1800.0 E459.329
G1 X-6.14 Y-2.13 Z5.81 F1800.0 E459.343
G1 X-9.12 Y-0.8 Z5.81 F1800.0 E459.51
G1 X-9.12 Y-3.2 Z5.81 F1800.0 E459.633
G1 F1200.0
G1 E458.633
G1 F1800.0
M103
G1 X-9.12 Y-3.8 Z5.81 F900.0
G1 X-9.12 Y-4.4 Z5.81 F300.0
G1 X8.46 Y7.94 Z5.81 F3300.0
G1 F1200.0
G1 E459.633
G1 F3300.0
M73 P59 (display progress)
M101
G1 X9.12 Y8.4 Z5.81 F1800.0 E459.674
G1 X9.12 Y8.0 Z5.81 F900.0 E459.715
G1 X9.12 Y7.6 Z5.81 F1500.0 E459.739
G1 X8.73 Y7.52 Z5.81 F1800.0 E459.76
G1 X2.14 Y6.13 Z5.81 F1800.0 E460.105
G1 X-6.14 Y6.13 Z5.81 F1800.0 E460.528
G1 X-9.12 Y7.6 Z5.81 F1800.0 E460.698
G1 X-9.12 Y8.8 Z5.81 F1800.0 E460.76
G1 X7.92 Y8.8 Z5.81 F1800.0 E461.632
G1 F1200.0
G1 E460.632
G1 F1800.0
M103
G1 X8.52 Y8.8 Z5.81 F900.0
G1 X9.12 Y8.8 Z5.81 F300.0
G1 X-8.78 Y-8.47 Z6.07 F3300.0
G1 F1200.0
G1 E461.632
G1 F3300.0
M101
G1 X-9.4 Y-9.07 Z6.08 F1800.0 E461.676
G1 X-9.4 Y-9.4 Z6.08 F792.0 E461.714
G1 X-9.33 Y-9.4 Z6.08 F900.0 E461.722
G1 X-8.93 Y-9.4 Z6.08 F1500.0 E461.746
G1 X-8.53 Y-9.4 Z6.08 F1800.0 E461.767
G1 X9.4 Y-9.4 Z6.08 F1800.0 E462.684
G1 X9.4 Y9.4 Z6.08 F1800.0 E463.646
G1 X-9.4 Y9.4 Z6.08 F1800.0 E464.608
G1 X-9.4 Y-7.87 Z6.08 F1800.0 E465.492
G1 F1200.0
G1 E464.537
G1 F1800.0
M103
G1 X-9.4 Y-8.47 Z6.08 F900.0
G1 X-9.4 Y-9.07 Z6.08 F300.0
;M108 R15.0
G1 X-9.73 Y-9.8 Z6.08 F3300.0
G1 F1200.0
G1 E465.492
G1 F3300.0
M101
G1 X-9.53 Y-9.8 Z6.08 F900.0 E465.503
G1 X-9.4 Y-9.8 Z6.08 F1284.0 E465.507
G1 X-9.33 Y-9.8 Z6.08 F1500.0 E465.509
G1 X-9.13 Y-9.8 Z6.08 F1800.0 E465.514
G1 X9.8 Y-9.8 Z6.08 F1800.0 E465.999
G1 X9.8 Y9.8 Z6.08 F900.0 E467.002
G1 X-9.8 Y9.8 Z6.08 F900.0 E468.005
G1 X-9.8 Y-9.27 Z6.08 F900.0 E468.981
M73 P60 (display progress)
G1 F1200.0
G1 E467.981
G1 F900.0
M103
G1 X-9.8 Y-9.57 Z6.08 F450.0
G1 X-9.8 Y-9.8 Z6.08 F222.0
G1 X-9.73 Y-9.8 Z6.08 F150.0
;M108 R30.0
G1 X6.63 Y8.48 Z6.08 F3300.0
G1 F1200.0
G1 E468.981
G1 F3300.0
M101
G1 X7.2 Y9.12 Z6.08 F1800.0 E469.025
G1 X6.8 Y9.12 Z6.08 F900.0 E469.066
G1 X6.4 Y9.12 Z6.08 F1500.0 E469.09
G1 X6.0 Y9.12 Z6.08 F1800.0 E469.111
G1 X4.0 Y9.12 Z6.08 F1800.0 E469.213
G1 X2.13 Y6.14 Z6.08 F1800.0 E469.393
G1 X2.13 Y5.86 Z6.08 F1800.0 E469.408
G1 X5.87 Y2.14 Z6.08 F1800.0 E469.678
G1 X5.87 Y1.86 Z6.08 F1800.0 E469.692
G1 X2.13 Y-1.86 Z6.08 F1800.0 E469.963
G1 X2.13 Y-2.14 Z6.08 F1800.0 E469.977
G1 X5.87 Y-5.86 Z6.08 F1800.0 E470.247
G1 X5.87 Y-6.14 Z6.08 F1800.0 E470.261
G1 X7.2 Y-9.12 Z6.08 F1800.0 E470.428
G1 X-0.4 Y-9.12 Z6.08 F1800.0 E470.817
G1 X-1.87 Y-6.14 Z6.08 F1800.0 E470.987
G1 X-1.87 Y-5.86 Z6.08 F1800.0 E471.002
G1 X1.87 Y-2.14 Z6.08 F1800.0 E471.272
G1 X1.87 Y-1.86 Z6.08 F1800.0 E471.286
G1 X-1.87 Y1.86 Z6.08 F1800.0 E471.557
G1 X-1.87 Y2.14 Z6.08 F1800.0 E471.571
G1 X1.87 Y5.86 Z6.08 F1800.0 E471.841
G1 X1.87 Y6.14 Z6.08 F1800.0 E471.855
G1 X3.6 Y9.12 Z6.08 F1800.0 E472.032
G1 X-4.4 Y9.12 Z6.08 F1800.0 E472.441
G1 X-5.87 Y6.14 Z6.08 F1800.0 E472.611
G1 X-5.87 Y5.86 Z6.08 F1800.0 E472.625
G1 X-2.13 Y2.14 Z6.08 F1800.0 E472.896
G1 X-2.13 Y1.86 Z6.08 F1800.0 E472.91
G1 X-5.87 Y-1.86 Z6.08 F1800.0 E473.18
G1 X-5.87 Y-2.14 Z6.08 F1800.0 E473.195
G1 X-2.13 Y-5.86 Z6.08 F1800.0 E473.465
G1 X-2.13 Y-6.14 Z6.08 F1800.0 E473.479
G1 X-0.8 Y-9.12 Z6.08 F1800.0 E473.646
G1 X-3.2 Y-9.12 Z6.08 F1800.0 E473.769
G1 F1200.0
G1 E472.769
M73 P61 (display progress)
G1 F1800.0
M103
G1 X-3.8 Y-9.12 Z6.08 F900.0
G1 X-4.4 Y-9.12 Z6.08 F300.0
G1 X7.83 Y-9.12 Z6.08 F3300.0
G1 F1200.0
G1 E473.769
G1 F3300.0
M101
G1 X8.4 Y-9.12 Z6.08 F1800.0 E473.798
G1 X8.0 Y-9.12 Z6.08 F900.0 E473.839
G1 X7.6 Y-9.12 Z6.08 F1500.0 E473.863
G1 X7.42 Y-8.76 Z6.08 F1800.0 E473.884
G1 X6.13 Y-6.14 Z6.08 F1800.0 E474.034
G1 X6.13 Y2.14 Z6.08 F1800.0 E474.457
G1 X7.6 Y9.12 Z6.08 F1800.0 E474.822
G1 X8.8 Y9.12 Z6.08 F1800.0 E474.884
G1 X8.8 Y-7.92 Z6.08 F1800.0 E475.756
G1 F1200.0
G1 E474.756
G1 F1800.0
M103
G1 X8.8 Y-8.52 Z6.08 F900.0
G1 X8.8 Y-9.12 Z6.08 F300.0
G1 X-7.81 Y8.5 Z6.08 F3300.0
G1 F1200.0
G1 E475.756
G1 F3300.0
M101
G1 X-8.4 Y9.12 Z6.08 F1800.0 E475.8
G1 X-8.0 Y9.12 Z6.08 F900.0 E475.841
G1 X-7.6 Y9.12 Z6.08 F1500.0 E475.865
G1 X-7.2 Y9.12 Z6.08 F1800.0 E475.886
G1 X-4.8 Y9.12 Z6.08 F1800.0 E476.008
G1 X-6.13 Y6.14 Z6.08 F1800.0 E476.175
G1 X-6.13 Y-2.14 Z6.08 F1800.0 E476.599
G1 X-4.8 Y-9.12 Z6.08 F1800.0 E476.963
G1 X-8.8 Y-9.12 Z6.08 F1800.0 E477.167
G1 X-8.8 Y7.92 Z6.08 F1800.0 E478.039
G1 F1200.0
G1 E477.039
G1 F1800.0
M103
G1 X-8.8 Y8.52 Z6.08 F900.0
G1 X-8.8 Y9.12 Z6.08 F300.0
G1 X-9.22 Y-8.68 Z6.33 F3300.0
G1 F1200.0
G1 E478.039
G1 F3300.0
M101
M73 P62 (display progress)
G1 X-9.23 Y-9.4 Z6.35 F1800.0 E478.077
G1 X-8.83 Y-9.4 Z6.35 F900.0 E478.117
G1 X-8.43 Y-9.4 Z6.35 F1500.0 E478.142
G1 X-8.03 Y-9.4 Z6.35 F1800.0 E478.162
G1 X9.4 Y-9.4 Z6.35 F1800.0 E479.055
G1 X9.4 Y9.4 Z6.35 F1800.0 E480.017
G1 X-9.4 Y9.4 Z6.35 F1800.0 E480.979
G1 X-9.4 Y-8.37 Z6.35 F1800.0 E481.888
G1 F1200.0
G1 E481.444
G1 F1800.0
M103
G1 X-9.4 Y-8.97 Z6.35 F900.0
G1 X-9.4 Y-9.4 Z6.35 F466.0
G1 X-9.23 Y-9.4 Z6.35 F300.0
;M108 R15.0
G1 X-9.23 Y-9.8 Z6.35 F3300.0
G1 F1200.0
G1 E481.888
G1 F3300.0
M101
G1 X-9.03 Y-9.8 Z6.35 F900.0 E481.898
G1 X-8.83 Y-9.8 Z6.35 F1500.0 E481.904
G1 X-8.63 Y-9.8 Z6.35 F1800.0 E481.909
G1 X9.8 Y-9.8 Z6.35 F1800.0 E482.381
G1 X9.8 Y9.8 Z6.35 F900.0 E483.384
G1 X-9.8 Y9.8 Z6.35 F900.0 E484.387
G1 X-9.8 Y-9.8 Z6.35 F900.0 E485.39
G1 F1200.0
G1 E484.909
G1 F900.0
M103
G1 X-9.8 Y-9.8 Z6.35 F716.0
G1 X-9.53 Y-9.8 Z6.35 F450.0
G1 X-9.4 Y-9.8 Z6.35 F316.0
G1 X-9.23 Y-9.8 Z6.35 F150.0
;M108 R30.0
G1 X-9.13 Y-8.48 Z6.35 F3300.0
G1 F1200.0
G1 E485.39
G1 F3300.0
M101
G1 X-9.12 Y-8.4 Z6.35 F1800.0 E485.394
G1 X-9.12 Y-8.0 Z6.35 F900.0 E485.435
G1 X-9.12 Y-7.6 Z6.35 F1500.0 E485.46
G1 X-9.12 Y-7.2 Z6.35 F1800.0 E485.48
G1 X-9.12 Y-4.8 Z6.35 F1800.0 E485.603
G1 X-2.14 Y-6.13 Z6.35 F1800.0 E485.967
G1 X6.14 Y-6.13 Z6.35 F1800.0 E486.39
G1 X9.12 Y-4.8 Z6.35 F1800.0 E486.557
M73 P63 (display progress)
G1 X9.12 Y-8.8 Z6.35 F1800.0 E486.762
G1 X-7.92 Y-8.8 Z6.35 F1800.0 E487.634
G1 F1200.0
G1 E486.634
G1 F1800.0
M103
G1 X-8.52 Y-8.8 Z6.35 F900.0
G1 X-9.12 Y-8.8 Z6.35 F300.0
G1 X8.49 Y6.64 Z6.35 F3300.0
G1 F1200.0
G1 E487.634
G1 F3300.0
M101
G1 X9.12 Y7.2 Z6.35 F1800.0 E487.677
G1 X9.12 Y6.8 Z6.35 F900.0 E487.718
G1 X9.12 Y6.4 Z6.35 F1500.0 E487.743
G1 X9.12 Y6.0 Z6.35 F1800.0 E487.763
G1 X9.12 Y4.0 Z6.35 F1800.0 E487.866
G1 X6.14 Y2.13 Z6.35 F1800.0 E488.046
G1 X5.86 Y2.13 Z6.35 F1800.0 E488.06
G1 X2.14 Y5.87 Z6.35 F1800.0 E488.33
G1 X1.86 Y5.87 Z6.35 F1800.0 E488.345
G1 X-1.86 Y2.13 Z6.35 F1800.0 E488.615
G1 X-2.14 Y2.13 Z6.35 F1800.0 E488.629
G1 X-5.86 Y5.87 Z6.35 F1800.0 E488.899
G1 X-6.14 Y5.87 Z6.35 F1800.0 E488.914
G1 X-9.12 Y7.2 Z6.35 F1800.0 E489.081
G1 X-9.12 Y-0.4 Z6.35 F1800.0 E489.47
G1 X-6.14 Y-1.87 Z6.35 F1800.0 E489.64
G1 X-5.86 Y-1.87 Z6.35 F1800.0 E489.654
G1 X-2.14 Y1.87 Z6.35 F1800.0 E489.924
G1 X-1.86 Y1.87 Z6.35 F1800.0 E489.939
G1 X1.86 Y-1.87 Z6.35 F1800.0 E490.209
G1 X2.14 Y-1.87 Z6.35 F1800.0 E490.223
G1 X5.86 Y1.87 Z6.35 F1800.0 E490.493
G1 X6.14 Y1.87 Z6.35 F1800.0 E490.508
G1 X9.12 Y3.6 Z6.35 F1800.0 E490.684
G1 X9.12 Y-4.4 Z6.35 F1800.0 E491.093
G1 X6.14 Y-5.87 Z6.35 F1800.0 E491.263
G1 X5.86 Y-5.87 Z6.35 F1800.0 E491.278
G1 X2.14 Y-2.13 Z6.35 F1800.0 E491.548
G1 X1.86 Y-2.13 Z6.35 F1800.0 E491.562
G1 X-1.86 Y-5.87 Z6.35 F1800.0 E491.833
G1 X-2.14 Y-5.87 Z6.35 F1800.0 E491.847
G1 X-5.86 Y-2.13 Z6.35 F1800.0 E492.117
G1 X-6.14 Y-2.13 Z6.35 F1800.0 E492.131
G1 X-9.12 Y-0.8 Z6.35 F1800.0 E492.298
G1 X-9.12 Y-3.2 Z6.35 F1800.0 E492.421
G1 F1200.0
G1 E491.421
M73 P64 (display progress)
G1 F1800.0
M103
G1 X-9.12 Y-3.8 Z6.35 F900.0
G1 X-9.12 Y-4.4 Z6.35 F300.0
G1 X8.46 Y7.94 Z6.35 F3300.0
G1 F1200.0
G1 E492.421
G1 F3300.0
M101
G1 X9.12 Y8.4 Z6.35 F1800.0 E492.462
G1 X9.12 Y8.0 Z6.35 F900.0 E492.503
G1 X9.12 Y7.6 Z6.35 F1500.0 E492.528
G1 X8.73 Y7.52 Z6.35 F1800.0 E492.548
G1 X2.14 Y6.13 Z6.35 F1800.0 E492.893
G1 X-6.14 Y6.13 Z6.35 F1800.0 E493.317
G1 X-9.12 Y7.6 Z6.35 F1800.0 E493.487
G1 X-9.12 Y8.8 Z6.35 F1800.0 E493.548
G1 X7.92 Y8.8 Z6.35 F1800.0 E494.42
G1 F1200.0
G1 E493.42
G1 F1800.0
M103
G1 X8.52 Y8.8 Z6.35 F900.0
G1 X9.12 Y8.8 Z6.35 F300.0
G1 X-8.78 Y-8.65 Z6.61 F3300.0
G1 F1200.0
G1 E494.42
G1 F3300.0
M101
G1 X-9.4 Y-9.26 Z6.62 F1800.0 E494.465
G1 X-9.4 Y-9.4 Z6.62 F508.5 E494.49
G1 X-9.14 Y-9.4 Z6.62 F900.0 E494.517
G1 X-8.74 Y-9.4 Z6.62 F1500.0 E494.541
G1 X-8.34 Y-9.4 Z6.62 F1800.0 E494.562
G1 X9.4 Y-9.4 Z6.62 F1800.0 E495.47
G1 X9.4 Y9.4 Z6.62 F1800.0 E496.432
G1 X-9.4 Y9.4 Z6.62 F1800.0 E497.394
G1 X-9.4 Y-8.06 Z6.62 F1800.0 E498.287
G1 F1200.0
G1 E497.543
G1 F1800.0
M103
G1 X-9.4 Y-8.66 Z6.62 F900.0
G1 X-9.4 Y-9.26 Z6.62 F300.0
;M108 R15.0
G1 X-9.54 Y-9.8 Z6.62 F3300.0
G1 F1200.0
G1 E498.287
G1 F3300.0
M101
M73 P65 (display progress)
G1 X-9.4 Y-9.8 Z6.62 F717.0 E498.296
G1 X-9.34 Y-9.8 Z6.62 F900.0 E498.299
G1 X-9.14 Y-9.8 Z6.62 F1500.0 E498.305
G1 X-8.94 Y-9.8 Z6.62 F1800.0 E498.311
G1 X9.8 Y-9.8 Z6.62 F1800.0 E498.79
G1 X9.8 Y9.8 Z6.62 F900.0 E499.793
G1 X-9.8 Y9.8 Z6.62 F900.0 E500.796
G1 X-9.8 Y-9.46 Z6.62 F900.0 E501.782
G1 F1200.0
G1 E500.782
G1 F900.0
M103
G1 X-9.8 Y-9.8 Z6.62 F450.0
G1 X-9.8 Y-9.8 Z6.62 F411.0
G1 X-9.54 Y-9.8 Z6.62 F150.0
;M108 R30.0
G1 X6.63 Y8.48 Z6.62 F3300.0
G1 F1200.0
G1 E501.782
G1 F3300.0
M101
G1 X7.2 Y9.12 Z6.62 F1800.0 E501.826
G1 X6.8 Y9.12 Z6.62 F900.0 E501.867
G1 X6.4 Y9.12 Z6.62 F1500.0 E501.891
G1 X6.0 Y9.12 Z6.62 F1800.0 E501.912
G1 X4.0 Y9.12 Z6.62 F1800.0 E502.014
G1 X2.13 Y6.14 Z6.62 F1800.0 E502.194
G1 X2.13 Y5.86 Z6.62 F1800.0 E502.209
G1 X5.87 Y2.14 Z6.62 F1800.0 E502.479
G1 X5.87 Y1.86 Z6.62 F1800.0 E502.493
G1 X2.13 Y-1.86 Z6.62 F1800.0 E502.763
G1 X2.13 Y-2.14 Z6.62 F1800.0 E502.778
G1 X5.87 Y-5.86 Z6.62 F1800.0 E503.048
G1 X5.87 Y-6.14 Z6.62 F1800.0 E503.062
G1 X7.2 Y-9.12 Z6.62 F1800.0 E503.229
G1 X-0.4 Y-9.12 Z6.62 F1800.0 E503.618
G1 X-1.87 Y-6.14 Z6.62 F1800.0 E503.788
G1 X-1.87 Y-5.86 Z6.62 F1800.0 E503.803
G1 X1.87 Y-2.14 Z6.62 F1800.0 E504.073
G1 X1.87 Y-1.86 Z6.62 F1800.0 E504.087
G1 X-1.87 Y1.86 Z6.62 F1800.0 E504.357
G1 X-1.87 Y2.14 Z6.62 F1800.0 E504.372
G1 X1.87 Y5.86 Z6.62 F1800.0 E504.642
G1 X1.87 Y6.14 Z6.62 F1800.0 E504.656
G1 X3.6 Y9.12 Z6.62 F1800.0 E504.833
G1 X-4.4 Y9.12 Z6.62 F1800.0 E505.242
G1 X-5.87 Y6.14 Z6.62 F1800.0 E505.412
G1 X-5.87 Y5.86 Z6.62 F1800.0 E505.426
G1 X-2.13 Y2.14 Z6.62 F1800.0 E505.697
G1 X-2.13 Y1.86 Z6.62 F1800.0 E505.711
M73 P66 (display progress)
G1 X-5.87 Y-1.86 Z6.62 F1800.0 E505.981
G1 X-5.87 Y-2.14 Z6.62 F1800.0 E505.996
G1 X-2.13 Y-5.86 Z6.62 F1800.0 E506.266
G1 X-2.13 Y-6.14 Z6.62 F1800.0 E506.28
G1 X-0.8 Y-9.12 Z6.62 F1800.0 E506.447
G1 X-3.2 Y-9.12 Z6.62 F1800.0 E506.57
G1 F1200.0
G1 E505.57
G1 F1800.0
M103
G1 X-3.8 Y-9.12 Z6.62 F900.0
G1 X-4.4 Y-9.12 Z6.62 F300.0
G1 X7.83 Y-9.12 Z6.62 F3300.0
G1 F1200.0
G1 E506.57
G1 F3300.0
M101
G1 X8.4 Y-9.12 Z6.62 F1800.0 E506.599
G1 X8.0 Y-9.12 Z6.62 F900.0 E506.64
G1 X7.6 Y-9.12 Z6.62 F1500.0 E506.664
G1 X7.42 Y-8.76 Z6.62 F1800.0 E506.685
G1 X6.13 Y-6.14 Z6.62 F1800.0 E506.834
G1 X6.13 Y2.14 Z6.62 F1800.0 E507.258
G1 X7.6 Y9.12 Z6.62 F1800.0 E507.623
G1 X8.8 Y9.12 Z6.62 F1800.0 E507.685
G1 X8.8 Y-7.92 Z6.62 F1800.0 E508.557
G1 F1200.0
G1 E507.557
G1 F1800.0
M103
G1 X8.8 Y-8.52 Z6.62 F900.0
G1 X8.8 Y-9.12 Z6.62 F300.0
G1 X-7.81 Y8.5 Z6.62 F3300.0
G1 F1200.0
G1 E508.557
G1 F3300.0
M101
G1 X-8.4 Y9.12 Z6.62 F1800.0 E508.601
G1 X-8.0 Y9.12 Z6.62 F900.0 E508.642
G1 X-7.6 Y9.12 Z6.62 F1500.0 E508.666
G1 X-7.2 Y9.12 Z6.62 F1800.0 E508.687
G1 X-4.8 Y9.12 Z6.62 F1800.0 E508.809
G1 X-6.13 Y6.14 Z6.62 F1800.0 E508.976
G1 X-6.13 Y-2.14 Z6.62 F1800.0 E509.4
G1 X-4.8 Y-9.12 Z6.62 F1800.0 E509.764
G1 X-8.8 Y-9.12 Z6.62 F1800.0 E509.968
G1 X-8.8 Y7.92 Z6.62 F1800.0 E510.84
G1 F1200.0
G1 E509.84
G1 F1800.0
M103
M73 P67 (display progress)
G1 X-8.8 Y8.52 Z6.62 F900.0
G1 X-8.8 Y9.12 Z6.62 F300.0
G1 X-9.38 Y-8.24 Z6.87 F3300.0
G1 F1200.0
G1 E510.84
G1 F3300.0
M101
G1 X-9.4 Y-8.96 Z6.89 F1800.0 E510.877
G1 X-9.4 Y-9.36 Z6.89 F900.0 E510.918
G1 X-9.4 Y-9.4 Z6.89 F967.5 E510.922
G1 X-9.05 Y-9.4 Z6.89 F1500.0 E510.944
G1 X-8.65 Y-9.4 Z6.89 F1800.0 E510.964
G1 X9.4 Y-9.4 Z6.89 F1800.0 E511.888
G1 X9.4 Y9.4 Z6.89 F1800.0 E512.85
G1 X-9.4 Y9.4 Z6.89 F1800.0 E513.812
G1 X-9.4 Y-7.76 Z6.89 F1800.0 E514.69
G1 F1200.0
G1 E513.69
G1 F1800.0
M103
G1 X-9.4 Y-8.36 Z6.89 F900.0
G1 X-9.4 Y-8.96 Z6.89 F300.0
;M108 R15.0
G1 X-9.79 Y-9.73 Z6.89 F3300.0
G1 F1200.0
G1 E514.69
G1 F3300.0
M101
G1 X-9.8 Y-9.8 Z6.89 F435.0 E514.697
G1 X-9.65 Y-9.8 Z6.89 F900.0 E514.705
G1 X-9.45 Y-9.8 Z6.89 F1500.0 E514.711
G1 X-9.4 Y-9.8 Z6.89 F1635.0 E514.712
G1 X-9.24 Y-9.8 Z6.89 F1800.0 E514.716
G1 X9.8 Y-9.8 Z6.89 F1800.0 E515.204
G1 X9.8 Y9.8 Z6.89 F900.0 E516.207
G1 X-9.8 Y9.8 Z6.89 F900.0 E517.21
G1 X-9.8 Y-9.15 Z6.89 F900.0 E518.18
G1 F1200.0
G1 E518.18
G1 F900.0
M103
G1 X-9.8 Y-9.46 Z6.89 F450.0
G1 X-9.8 Y-9.76 Z6.89 F150.0
;M108 R30.0
G1 X-9.16 Y-8.48 Z6.89 F3300.0
G1 F1200.0
G1 E518.18
G1 F3300.0
M101
G1 X-9.12 Y-8.4 Z6.89 F1800.0 E518.184
M73 P68 (display progress)
G1 X-9.12 Y-8.0 Z6.89 F900.0 E518.225
G1 X-9.12 Y-7.6 Z6.89 F1500.0 E518.25
G1 X-9.12 Y-7.2 Z6.89 F1800.0 E518.27
G1 X-9.12 Y-4.8 Z6.89 F1800.0 E518.393
G1 X-2.14 Y-6.13 Z6.89 F1800.0 E518.757
G1 X6.14 Y-6.13 Z6.89 F1800.0 E519.18
G1 X9.12 Y-4.8 Z6.89 F1800.0 E519.347
G1 X9.12 Y-8.8 Z6.89 F1800.0 E519.552
G1 X-7.92 Y-8.8 Z6.89 F1800.0 E520.424
G1 F1200.0
G1 E519.424
G1 F1800.0
M103
G1 X-8.52 Y-8.8 Z6.89 F900.0
G1 X-9.12 Y-8.8 Z6.89 F300.0
G1 X8.49 Y6.64 Z6.89 F3300.0
G1 F1200.0
G1 E520.424
G1 F3300.0
M101
G1 X9.12 Y7.2 Z6.89 F1800.0 E520.467
G1 X9.12 Y6.8 Z6.89 F900.0 E520.508
G1 X9.12 Y6.4 Z6.89 F1500.0 E520.533
G1 X9.12 Y6.0 Z6.89 F1800.0 E520.553
G1 X9.12 Y4.0 Z6.89 F1800.0 E520.655
G1 X6.14 Y2.13 Z6.89 F1800.0 E520.836
G1 X5.86 Y2.13 Z6.89 F1800.0 E520.85
G1 X2.14 Y5.87 Z6.89 F1800.0 E521.12
G1 X1.86 Y5.87 Z6.89 F1800.0 E521.134
G1 X-1.86 Y2.13 Z6.89 F1800.0 E521.405
G1 X-2.14 Y2.13 Z6.89 F1800.0 E521.419
G1 X-5.86 Y5.87 Z6.89 F1800.0 E521.689
G1 X-6.14 Y5.87 Z6.89 F1800.0 E521.704
G1 X-9.12 Y7.2 Z6.89 F1800.0 E521.871
G1 X-9.12 Y-0.4 Z6.89 F1800.0 E522.259
G1 X-6.14 Y-1.87 Z6.89 F1800.0 E522.43
G1 X-5.86 Y-1.87 Z6.89 F1800.0 E522.444
G1 X-2.14 Y1.87 Z6.89 F1800.0 E522.714
G1 X-1.86 Y1.87 Z6.89 F1800.0 E522.728
G1 X1.86 Y-1.87 Z6.89 F1800.0 E522.999
G1 X2.14 Y-1.87 Z6.89 F1800.0 E523.013
G1 X5.86 Y1.87 Z6.89 F1800.0 E523.283
G1 X6.14 Y1.87 Z6.89 F1800.0 E523.298
G1 X9.12 Y3.6 Z6.89 F1800.0 E523.474
G1 X9.12 Y-4.4 Z6.89 F1800.0 E523.883
G1 X6.14 Y-5.87 Z6.89 F1800.0 E524.053
G1 X5.86 Y-5.87 Z6.89 F1800.0 E524.068
G1 X2.14 Y-2.13 Z6.89 F1800.0 E524.338
G1 X1.86 Y-2.13 Z6.89 F1800.0 E524.352
G1 X-1.86 Y-5.87 Z6.89 F1800.0 E524.623
M73 P69 (display progress)
G1 X-2.14 Y-5.87 Z6.89 F1800.0 E524.637
G1 X-5.86 Y-2.13 Z6.89 F1800.0 E524.907
G1 X-6.14 Y-2.13 Z6.89 F1800.0 E524.921
G1 X-9.12 Y-0.8 Z6.89 F1800.0 E525.088
G1 X-9.12 Y-3.2 Z6.89 F1800.0 E525.211
G1 F1200.0
G1 E524.211
G1 F1800.0
M103
G1 X-9.12 Y-3.8 Z6.89 F900.0
G1 X-9.12 Y-4.4 Z6.89 F300.0
G1 X8.46 Y7.94 Z6.89 F3300.0
G1 F1200.0
G1 E525.211
G1 F3300.0
M101
G1 X9.12 Y8.4 Z6.89 F1800.0 E525.252
G1 X9.12 Y8.0 Z6.89 F900.0 E525.293
G1 X9.12 Y7.6 Z6.89 F1500.0 E525.318
G1 X8.73 Y7.52 Z6.89 F1800.0 E525.338
G1 X2.14 Y6.13 Z6.89 F1800.0 E525.683
G1 X-6.14 Y6.13 Z6.89 F1800.0 E526.107
G1 X-9.12 Y7.6 Z6.89 F1800.0 E526.277
G1 X-9.12 Y8.8 Z6.89 F1800.0 E526.338
G1 X7.92 Y8.8 Z6.89 F1800.0 E527.21
G1 F1200.0
G1 E526.21
G1 F1800.0
M103
G1 X8.52 Y8.8 Z6.89 F900.0
G1 X9.12 Y8.8 Z6.89 F300.0
G1 X-8.73 Y-8.79 Z7.15 F3300.0
G1 F1200.0
G1 E527.21
G1 F3300.0
M101
