(** This GCode was generated by ReplicatorG 0040 **)
(*  using Skeinforge (50)  *)
(*  for a Dual headed The Replicator  *)
(*  on 2014/12/14 18:12:54 (-0500) *)
(**** start.gcode for The Replicator, dual head ****)
M103 (disable RPM)
M73 P0 (enable build progress)
G21 (set units to mm)
G90 (set positioning to absolute)
M109 S80 T0 (set HBP temperature)
M104 S220 T0 (set extruder temperature) (temp updated by printOMatic)
(**** begin homing ****)
G162 X Y F2500 (home XY axes maximum)
G161 Z F1100 (home Z axis minimum)
G92 Z-5 (set Z to -5)
G1 Z0.0 (move Z to "0")
G161 Z F100 (home Z axis minimum)
M132 X Y Z A B (Recall stored home offsets for XYZAB axis)
(**** end homing ****)
G1 X-110.5 Y-74 Z150 F3300.0 (move to waiting position)
G130 X20 Y20 Z20 A20 B20 (Lower stepper Vrefs while heating)
M6 T0 (wait for toolhead, and HBP to reach temperature)
G130 X127 Y127 Z40 A127 B127 (Set Stepper motor Vref to defaults)
M108 R3.0 T0
G0 X-110.5 Y-74 (Position Nozzle)
G0 Z0.6      (Position Height)
M108 R5.0    (Set Extruder Speed)
M101         (Start Extruder)
G4 P2000     (Create Anchor)
(**** end of start.gcode ****)
M105
M126
;M113 S1.0
;M108 R13.5
G1 X-14.37 Y10.59 Z0.14 F3300.0
G1 F1200.0
G1 E1.0
G1 F3300.0
M101
G1 X-14.32 Y10.76 Z0.14 F900.0 E1.008
G1 X-14.28 Y10.94 Z0.14 F1500.0 E1.013
G1 X-14.23 Y11.11 Z0.14 F1800.0 E1.017
G1 X-14.05 Y11.73 Z0.14 F1800.0 E1.032
G1 X-13.68 Y12.42 Z0.14 F810.0 E1.072
G1 X-12.68 Y13.5 Z0.14 F810.0 E1.148
G1 X-11.75 Y14.05 Z0.14 F810.0 E1.203
G1 X-10.59 Y14.37 Z0.14 F810.0 E1.265
G1 X11.13 Y14.29 Z0.14 F810.0 E2.376
G1 X12.62 Y13.55 Z0.14 F810.0 E2.461
G1 X13.52 Y12.66 Z0.14 F810.0 E2.526
G1 X14.05 Y11.75 Z0.14 F810.0 E2.58
G1 X14.37 Y10.59 Z0.14 F810.0 E2.641
G1 X14.37 Y-10.59 Z0.14 F810.0 E3.726
G1 X14.05 Y-11.75 Z0.14 F810.0 E3.787
G1 X13.52 Y-12.66 Z0.14 F810.0 E3.841
G1 X12.66 Y-13.52 Z0.14 F810.0 E3.903
G1 X11.75 Y-14.05 Z0.14 F810.0 E3.957
G1 X10.59 Y-14.37 Z0.14 F810.0 E4.018
M73 P1 (display progress)
G1 X-10.59 Y-14.37 Z0.14 F810.0 E5.103
G1 X-11.75 Y-14.05 Z0.14 F810.0 E5.164
G1 X-12.66 Y-13.52 Z0.14 F810.0 E5.218
G1 X-13.55 Y-12.62 Z0.14 F810.0 E5.283
G1 X-14.29 Y-11.13 Z0.14 F810.0 E5.368
G1 X-14.37 Y10.05 Z0.14 F810.0 E6.452
G1 F1200.0
G1 E5.452
G1 F810.0
M103
G1 X-14.37 Y10.32 Z0.14 F405.0
G1 X-14.37 Y10.59 Z0.14 F135.0
;M108 R13.5
G1 X-12.02 Y-11.61 Z0.14 F3300.0
G1 F1200.0
G1 E6.452
G1 F3300.0
M101
G1 X-11.98 Y-11.98 Z0.14 F1800.0 E6.46
G1 X-11.98 Y-11.98 Z0.14 F318.856 E6.461
G1 X-11.85 Y-12.09 Z0.14 F900.0 E6.469
G1 X-11.7 Y-12.22 Z0.14 F1539.917 E6.474
G1 X-11.56 Y-12.31 Z0.14 F1800.0 E6.478
G1 X-11.4 Y-12.42 Z0.14 F1800.0 E6.482
G1 X-11.07 Y-12.59 Z0.14 F810.0 E6.501
G1 X-10.72 Y-12.7 Z0.14 F810.0 E6.52
G1 X-10.37 Y-12.77 Z0.14 F810.0 E6.538
G1 X10.37 Y-12.77 Z0.14 F810.0 E7.6
G1 X10.72 Y-12.7 Z0.14 F810.0 E7.618
G1 X11.07 Y-12.59 Z0.14 F810.0 E7.637
G1 X11.4 Y-12.42 Z0.14 F810.0 E7.656
G1 X11.7 Y-12.22 Z0.14 F810.0 E7.675
G1 X11.98 Y-11.98 Z0.14 F810.0 E7.693
G1 X12.22 Y-11.7 Z0.14 F810.0 E7.712
G1 X12.42 Y-11.4 Z0.14 F810.0 E7.731
G1 X12.59 Y-11.07 Z0.14 F810.0 E7.749
G1 X12.7 Y-10.72 Z0.14 F810.0 E7.768
G1 X12.77 Y-10.37 Z0.14 F810.0 E7.787
G1 X12.77 Y10.37 Z0.14 F810.0 E8.848
G1 X12.7 Y10.72 Z0.14 F810.0 E8.867
G1 X12.59 Y11.07 Z0.14 F810.0 E8.885
G1 X12.42 Y11.4 Z0.14 F810.0 E8.904
G1 X12.22 Y11.7 Z0.14 F810.0 E8.923
G1 X11.98 Y11.98 Z0.14 F810.0 E8.942
G1 X11.7 Y12.22 Z0.14 F810.0 E8.96
G1 X11.4 Y12.42 Z0.14 F810.0 E8.979
G1 X11.07 Y12.59 Z0.14 F810.0 E8.998
G1 X10.72 Y12.7 Z0.14 F810.0 E9.016
G1 X10.37 Y12.77 Z0.14 F810.0 E9.035
G1 X-10.37 Y12.77 Z0.14 F810.0 E10.096
G1 X-10.72 Y12.7 Z0.14 F810.0 E10.115
G1 X-11.07 Y12.59 Z0.14 F810.0 E10.134
G1 X-11.4 Y12.42 Z0.14 F810.0 E10.152
M73 P2 (display progress)
G1 X-11.7 Y12.22 Z0.14 F810.0 E10.171
G1 X-11.98 Y11.98 Z0.14 F810.0 E10.19
G1 X-12.22 Y11.7 Z0.14 F810.0 E10.209
G1 X-12.42 Y11.4 Z0.14 F810.0 E10.227
G1 X-12.59 Y11.07 Z0.14 F810.0 E10.246
G1 X-12.7 Y10.72 Z0.14 F810.0 E10.265
G1 X-12.77 Y10.37 Z0.14 F810.0 E10.283
G1 X-12.77 Y-10.37 Z0.14 F810.0 E11.345
G1 X-12.7 Y-10.72 Z0.14 F810.0 E11.363
G1 X-12.59 Y-11.07 Z0.14 F810.0 E11.382
G1 X-12.42 Y-11.4 Z0.14 F810.0 E11.401
G1 X-12.32 Y-11.56 Z0.14 F810.0 E11.41
G1 F1200.0
G1 E10.41
G1 F810.0
M103
G1 X-12.22 Y-11.7 Z0.14 F495.673
G1 X-12.16 Y-11.77 Z0.14 F405.0
G1 X-11.98 Y-11.98 Z0.14 F135.0
G1 X-10.24 Y-10.25 Z0.14 F3300.0
G1 F1200.0
G1 E11.41
G1 F3300.0
M101
G1 X-10.19 Y-10.2 Z0.14 F1800.0 E11.412
G1 X-10.2 Y-10.2 Z0.14 F320.0 E11.412
G1 X-10.2 Y-10.03 Z0.14 F900.0 E11.42
G1 X-10.2 Y-9.85 Z0.14 F1500.0 E11.425
G1 X-10.2 Y-9.67 Z0.14 F1800.0 E11.429
G1 X-10.2 Y10.2 Z0.14 F1800.0 E11.887
G1 X10.2 Y10.2 Z0.14 F810.0 E12.931
G1 X10.2 Y-10.2 Z0.14 F810.0 E13.975
G1 X-9.65 Y-10.2 Z0.14 F810.0 E14.991
G1 F1200.0
G1 E14.991
G1 F810.0
M103
G1 X-9.92 Y-10.2 Z0.14 F405.0
G1 X-10.19 Y-10.2 Z0.14 F135.0
;M108 R24.0
G1 X-10.19 Y-10.58 Z0.14 F3300.0
G1 F1200.0
G1 E14.991
G1 F3300.0
M101
G1 X-10.2 Y-10.6 Z0.14 F310.0 E14.996
G1 X-10.55 Y-10.6 Z0.14 F900.0 E15.025
G1 X-10.6 Y-10.6 Z0.14 F976.667 E15.029
G1 X-10.6 Y-10.29 Z0.14 F1500.0 E15.044
G1 X-10.6 Y-9.93 Z0.14 F1800.0 E15.059
G1 X-10.6 Y10.6 Z0.14 F1800.0 E15.899
G1 X10.6 Y10.6 Z0.14 F1620.0 E16.863
G1 X10.6 Y-10.6 Z0.14 F1620.0 E17.828
M73 P3 (display progress)
G1 X-9.11 Y-10.6 Z0.14 F1620.0 E18.724
G1 F1200.0
G1 E17.724
G1 F1620.0
M103
G1 X-9.65 Y-10.6 Z0.14 F810.0
G1 X-10.19 Y-10.6 Z0.14 F270.0
G1 X-10.84 Y-12.13 Z0.14 F3300.0
G1 F1200.0
G1 E18.724
G1 F3300.0
M101
G1 X-10.87 Y-12.21 Z0.14 F1800.0 E18.728
G1 X-10.87 Y-12.21 Z0.14 F308.975 E18.729
G1 X-10.62 Y-12.32 Z0.14 F756.54 E18.756
G1 X-10.54 Y-12.33 Z0.14 F900.0 E18.763
G1 X-10.33 Y-12.37 Z0.14 F1245.85 E18.775
G1 X-10.18 Y-12.37 Z0.14 F1500.0 E18.782
G1 X-9.82 Y-12.37 Z0.14 F1800.0 E18.797
G1 X10.33 Y-12.37 Z0.14 F1800.0 E19.622
G1 X10.92 Y-12.22 Z0.14 F1620.0 E19.65
G1 X11.46 Y-11.9 Z0.14 F1620.0 E19.678
G1 X11.9 Y-11.46 Z0.14 F1620.0 E19.707
G1 X12.22 Y-10.92 Z0.14 F1620.0 E19.735
G1 X12.37 Y-10.33 Z0.14 F1620.0 E19.763
G1 X12.37 Y10.33 Z0.14 F1620.0 E20.703
G1 X12.32 Y10.62 Z0.14 F1620.0 E20.716
G1 X12.08 Y11.2 Z0.14 F1620.0 E20.745
G1 X11.7 Y11.7 Z0.14 F1620.0 E20.773
G1 X11.2 Y12.08 Z0.14 F1620.0 E20.802
G1 X10.62 Y12.32 Z0.14 F1620.0 E20.83
G1 X10.33 Y12.37 Z0.14 F1620.0 E20.843
G1 X-10.33 Y12.37 Z0.14 F1620.0 E21.784
G1 X-10.92 Y12.22 Z0.14 F1620.0 E21.811
G1 X-11.46 Y11.9 Z0.14 F1620.0 E21.84
G1 X-11.9 Y11.46 Z0.14 F1620.0 E21.868
G1 X-12.22 Y10.92 Z0.14 F1620.0 E21.897
G1 X-12.37 Y10.33 Z0.14 F1620.0 E21.924
G1 X-12.37 Y-10.33 Z0.14 F1620.0 E22.864
G1 X-12.32 Y-10.62 Z0.14 F1620.0 E22.877
G1 X-12.08 Y-11.2 Z0.14 F1620.0 E22.906
G1 X-11.76 Y-11.62 Z0.14 F1620.0 E22.93
G1 F1200.0
G1 E22.93
G1 F1620.0
M103
G1 X-11.7 Y-11.7 Z0.14 F1248.158
G1 X-11.35 Y-11.96 Z0.14 F810.0
G1 X-11.2 Y-12.08 Z0.14 F621.923
G1 X-10.87 Y-12.21 Z0.14 F270.0
G1 X-11.56 Y-11.41 Z0.14 F3300.0
G1 F1200.0
G1 E22.93
M73 P4 (display progress)
G1 F3300.0
M101
G1 X-11.6 Y-11.36 Z0.14 F1800.0 E22.932
G1 X-11.6 Y-11.0 Z0.14 F900.0 E22.962
G1 X-11.6 Y-10.64 Z0.14 F1500.0 E22.979
G1 X-11.6 Y-10.28 Z0.14 F1800.0 E22.994
G1 X-11.6 Y11.37 Z0.14 F1800.0 E23.88
G1 F1200.0
G1 E23.88
G1 F1800.0
M103
G1 X-11.98 Y10.68 Z0.14 F3300.0
G1 F1200.0
G1 E23.88
G1 F3300.0
M101
G1 X-12.0 Y10.65 Z0.14 F1800.0 E23.882
G1 X-12.0 Y10.29 Z0.14 F900.0 E23.912
G1 X-12.0 Y9.93 Z0.14 F1500.0 E23.929
G1 X-12.0 Y9.57 Z0.14 F1800.0 E23.944
G1 X-12.0 Y-10.66 Z0.14 F1800.0 E24.772
G1 F1200.0
G1 E23.772
G1 F1800.0
M103
G1 X-0.49 Y-12.04 Z0.14 F3300.0
G1 F1200.0
G1 E24.772
G1 F3300.0
M101
G1 X-0.0 Y-12.09 Z0.14 F1800.0 E24.792
G1 X0.0 Y-11.73 Z0.14 F900.0 E24.821
G1 X0.0 Y-11.37 Z0.14 F1500.0 E24.839
G1 X0.0 Y-11.01 Z0.14 F1800.0 E24.854
G1 X-0.0 Y-10.88 Z0.14 F1800.0 E24.859
G1 X-0.4 Y-10.88 Z0.14 F1620.0 E24.877
G1 X-0.4 Y-12.09 Z0.14 F1620.0 E24.933
G1 X-0.8 Y-12.09 Z0.14 F1620.0 E24.951
G1 X-0.8 Y-10.88 Z0.14 F1620.0 E25.006
G1 X-1.2 Y-10.88 Z0.14 F1620.0 E25.024
G1 X-1.2 Y-12.09 Z0.14 F1620.0 E25.08
G1 X-1.6 Y-12.09 Z0.14 F1620.0 E25.098
G1 X-1.6 Y-10.88 Z0.14 F1620.0 E25.153
G1 X-2.0 Y-10.88 Z0.14 F1620.0 E25.171
G1 X-2.0 Y-12.09 Z0.14 F1620.0 E25.226
G1 X-2.4 Y-12.09 Z0.14 F1620.0 E25.245
G1 X-2.4 Y-10.88 Z0.14 F1620.0 E25.3
G1 X-2.8 Y-10.88 Z0.14 F1620.0 E25.318
G1 X-2.8 Y-12.09 Z0.14 F1620.0 E25.373
G1 X-3.2 Y-12.09 Z0.14 F1620.0 E25.391
G1 X-3.2 Y-10.88 Z0.14 F1620.0 E25.447
G1 X-3.6 Y-10.88 Z0.14 F1620.0 E25.465
G1 X-3.6 Y-12.09 Z0.14 F1620.0 E25.52
G1 X-4.0 Y-12.09 Z0.14 F1620.0 E25.538
M73 P5 (display progress)
G1 X-4.0 Y-10.88 Z0.14 F1620.0 E25.593
G1 X-4.4 Y-10.88 Z0.14 F1620.0 E25.612
G1 X-4.4 Y-12.09 Z0.14 F1620.0 E25.667
G1 X-4.8 Y-12.09 Z0.14 F1620.0 E25.685
G1 X-4.8 Y-10.88 Z0.14 F1620.0 E25.74
G1 X-5.2 Y-10.88 Z0.14 F1620.0 E25.758
G1 X-5.2 Y-12.09 Z0.14 F1620.0 E25.814
G1 X-5.6 Y-12.09 Z0.14 F1620.0 E25.832
G1 X-5.6 Y-10.88 Z0.14 F1620.0 E25.887
G1 X-6.0 Y-10.88 Z0.14 F1620.0 E25.905
G1 X-6.0 Y-12.09 Z0.14 F1620.0 E25.961
G1 X-6.4 Y-12.09 Z0.14 F1620.0 E25.979
G1 X-6.4 Y-10.88 Z0.14 F1620.0 E26.034
G1 X-6.8 Y-10.88 Z0.14 F1620.0 E26.052
G1 X-6.8 Y-12.09 Z0.14 F1620.0 E26.107
G1 X-7.2 Y-12.09 Z0.14 F1620.0 E26.126
G1 X-7.2 Y-10.88 Z0.14 F1620.0 E26.181
G1 X-7.6 Y-10.88 Z0.14 F1620.0 E26.199
G1 X-7.6 Y-12.09 Z0.14 F1620.0 E26.254
G1 X-8.0 Y-12.09 Z0.14 F1620.0 E26.272
G1 X-8.0 Y-10.88 Z0.14 F1620.0 E26.328
G1 X-8.4 Y-10.88 Z0.14 F1620.0 E26.346
G1 X-8.4 Y-12.09 Z0.14 F1620.0 E26.401
G1 X-8.8 Y-12.09 Z0.14 F1620.0 E26.419
G1 X-8.8 Y-10.88 Z0.14 F1620.0 E26.474
G1 X-9.2 Y-10.88 Z0.14 F1620.0 E26.493
G1 X-9.2 Y-12.09 Z0.14 F1620.0 E26.548
G1 X-9.6 Y-12.09 Z0.14 F1620.0 E26.566
G1 X-9.6 Y-10.88 Z0.14 F1620.0 E26.621
G1 X-10.0 Y-10.88 Z0.14 F1620.0 E26.639
G1 X-10.0 Y-12.09 Z0.14 F1620.0 E26.695
G1 X-10.4 Y-12.08 Z0.14 F1620.0 E26.713
G1 X-10.4 Y-10.88 Z0.14 F1620.0 E26.767
G1 X-10.8 Y-10.88 Z0.14 F1620.0 E26.785
G1 X-10.8 Y-11.94 Z0.14 F1620.0 E26.834
G1 X-11.2 Y-11.72 Z0.14 F1620.0 E26.854
G1 X-11.2 Y11.73 Z0.14 F1620.0 E27.921
G1 X-10.8 Y11.96 Z0.14 F1620.0 E27.942
G1 X-10.8 Y10.88 Z0.14 F1620.0 E27.991
G1 X-10.4 Y10.88 Z0.14 F1620.0 E28.009
G1 X-10.4 Y12.07 Z0.14 F1620.0 E28.063
G1 X-10.0 Y12.09 Z0.14 F1620.0 E28.082
G1 X-10.0 Y10.88 Z0.14 F1620.0 E28.137
G1 X-9.6 Y10.88 Z0.14 F1620.0 E28.155
G1 X-9.6 Y12.09 Z0.14 F1620.0 E28.21
G1 X-9.2 Y12.09 Z0.14 F1620.0 E28.228
G1 X-9.2 Y10.88 Z0.14 F1620.0 E28.284
G1 X-8.8 Y10.88 Z0.14 F1620.0 E28.302
G1 X-8.8 Y12.09 Z0.14 F1620.0 E28.357
G1 X-8.4 Y12.09 Z0.14 F1620.0 E28.375
G1 X-8.4 Y10.88 Z0.14 F1620.0 E28.431
G1 X-8.0 Y10.88 Z0.14 F1620.0 E28.449
G1 X-8.0 Y12.09 Z0.14 F1620.0 E28.504
M73 P6 (display progress)
G1 X-7.6 Y12.09 Z0.14 F1620.0 E28.522
G1 X-7.6 Y10.88 Z0.14 F1620.0 E28.577
G1 X-7.2 Y10.88 Z0.14 F1620.0 E28.596
G1 X-7.2 Y12.09 Z0.14 F1620.0 E28.651
G1 X-6.8 Y12.09 Z0.14 F1620.0 E28.669
G1 X-6.8 Y10.88 Z0.14 F1620.0 E28.724
G1 X-6.4 Y10.88 Z0.14 F1620.0 E28.742
G1 X-6.4 Y12.09 Z0.14 F1620.0 E28.798
G1 X-6.0 Y12.09 Z0.14 F1620.0 E28.816
G1 X-6.0 Y10.88 Z0.14 F1620.0 E28.871
G1 X-5.6 Y10.88 Z0.14 F1620.0 E28.889
G1 X-5.6 Y12.09 Z0.14 F1620.0 E28.944
G1 X-5.2 Y12.09 Z0.14 F1620.0 E28.963
G1 X-5.2 Y10.88 Z0.14 F1620.0 E29.018
G1 X-4.8 Y10.88 Z0.14 F1620.0 E29.036
G1 X-4.8 Y12.09 Z0.14 F1620.0 E29.091
G1 X-4.4 Y12.09 Z0.14 F1620.0 E29.109
G1 X-4.4 Y10.88 Z0.14 F1620.0 E29.165
G1 X-4.0 Y10.88 Z0.14 F1620.0 E29.183
G1 X-4.0 Y12.09 Z0.14 F1620.0 E29.238
G1 X-3.6 Y12.09 Z0.14 F1620.0 E29.256
G1 X-3.6 Y10.88 Z0.14 F1620.0 E29.312
G1 X-3.2 Y10.88 Z0.14 F1620.0 E29.33
G1 X-3.2 Y12.09 Z0.14 F1620.0 E29.385
G1 X-2.8 Y12.09 Z0.14 F1620.0 E29.403
G1 X-2.8 Y10.88 Z0.14 F1620.0 E29.458
G1 X-2.4 Y10.88 Z0.14 F1620.0 E29.477
G1 X-2.4 Y12.09 Z0.14 F1620.0 E29.532
G1 X-2.0 Y12.09 Z0.14 F1620.0 E29.55
G1 X-2.0 Y10.88 Z0.14 F1620.0 E29.605
G1 X-1.6 Y10.88 Z0.14 F1620.0 E29.623
G1 X-1.6 Y12.09 Z0.14 F1620.0 E29.679
G1 X-1.2 Y12.09 Z0.14 F1620.0 E29.697
G1 X-1.2 Y10.88 Z0.14 F1620.0 E29.752
G1 X-0.8 Y10.88 Z0.14 F1620.0 E29.77
G1 X-0.8 Y12.09 Z0.14 F1620.0 E29.825
G1 X-0.4 Y12.09 Z0.14 F1620.0 E29.844
G1 X-0.4 Y10.88 Z0.14 F1620.0 E29.899
G1 X0.0 Y10.88 Z0.14 F1620.0 E29.917
G1 X0.0 Y12.09 Z0.14 F1620.0 E29.972
G1 X0.4 Y12.09 Z0.14 F1620.0 E29.99
G1 X0.4 Y10.88 Z0.14 F1620.0 E30.046
G1 X0.8 Y10.88 Z0.14 F1620.0 E30.064
G1 X0.8 Y12.09 Z0.14 F1620.0 E30.119
G1 X1.2 Y12.09 Z0.14 F1620.0 E30.137
G1 X1.2 Y10.88 Z0.14 F1620.0 E30.193
G1 X1.6 Y10.88 Z0.14 F1620.0 E30.211
G1 X1.6 Y12.09 Z0.14 F1620.0 E30.266
G1 X2.0 Y12.09 Z0.14 F1620.0 E30.284
G1 X2.0 Y10.88 Z0.14 F1620.0 E30.339
G1 X2.4 Y10.88 Z0.14 F1620.0 E30.358
G1 X2.4 Y12.09 Z0.14 F1620.0 E30.413
G1 X2.8 Y12.09 Z0.14 F1620.0 E30.431
M73 P7 (display progress)
G1 X2.8 Y10.88 Z0.14 F1620.0 E30.486
G1 X3.2 Y10.88 Z0.14 F1620.0 E30.504
G1 X3.2 Y12.09 Z0.14 F1620.0 E30.56
G1 X3.6 Y12.09 Z0.14 F1620.0 E30.578
G1 X3.6 Y10.88 Z0.14 F1620.0 E30.633
G1 X4.0 Y10.88 Z0.14 F1620.0 E30.651
G1 X4.0 Y12.09 Z0.14 F1620.0 E30.706
G1 X4.4 Y12.09 Z0.14 F1620.0 E30.725
G1 X4.4 Y10.88 Z0.14 F1620.0 E30.78
G1 X4.8 Y10.88 Z0.14 F1620.0 E30.798
G1 X4.8 Y12.09 Z0.14 F1620.0 E30.853
G1 X5.2 Y12.09 Z0.14 F1620.0 E30.872
G1 X5.2 Y10.88 Z0.14 F1620.0 E30.927
G1 X5.6 Y10.88 Z0.14 F1620.0 E30.945
G1 X5.6 Y12.09 Z0.14 F1620.0 E31.0
G1 X6.0 Y12.09 Z0.14 F1620.0 E31.018
G1 X6.0 Y10.88 Z0.14 F1620.0 E31.074
G1 X6.4 Y10.88 Z0.14 F1620.0 E31.092
G1 X6.4 Y12.09 Z0.14 F1620.0 E31.147
G1 X6.8 Y12.09 Z0.14 F1620.0 E31.165
G1 X6.8 Y10.88 Z0.14 F1620.0 E31.22
G1 X7.2 Y10.88 Z0.14 F1620.0 E31.239
G1 X7.2 Y12.09 Z0.14 F1620.0 E31.294
G1 X7.6 Y12.09 Z0.14 F1620.0 E31.312
G1 X7.6 Y10.88 Z0.14 F1620.0 E31.367
G1 X8.0 Y10.88 Z0.14 F1620.0 E31.385
G1 X8.0 Y12.09 Z0.14 F1620.0 E31.441
G1 X8.4 Y12.09 Z0.14 F1620.0 E31.459
G1 X8.4 Y10.88 Z0.14 F1620.0 E31.514
G1 X8.8 Y10.88 Z0.14 F1620.0 E31.532
G1 X8.8 Y12.09 Z0.14 F1620.0 E31.587
G1 X9.2 Y12.09 Z0.14 F1620.0 E31.606
G1 X9.2 Y10.88 Z0.14 F1620.0 E31.661
G1 X9.6 Y10.88 Z0.14 F1620.0 E31.679
G1 X9.6 Y12.09 Z0.14 F1620.0 E31.734
G1 X10.0 Y12.09 Z0.14 F1620.0 E31.753
G1 X10.0 Y10.88 Z0.14 F1620.0 E31.808
G1 X10.4 Y10.88 Z0.14 F1620.0 E31.826
G1 X10.4 Y12.08 Z0.14 F1620.0 E31.88
G1 X10.8 Y11.94 Z0.14 F1620.0 E31.9
G1 X10.8 Y-11.96 Z0.14 F1620.0 E32.987
G1 X10.4 Y-12.07 Z0.14 F1620.0 E33.005
G1 X10.4 Y-10.88 Z0.14 F1620.0 E33.059
G1 X10.0 Y-10.88 Z0.14 F1620.0 E33.078
G1 X10.0 Y-12.09 Z0.14 F1620.0 E33.133
G1 X9.6 Y-12.09 Z0.14 F1620.0 E33.151
G1 X9.6 Y-10.88 Z0.14 F1620.0 E33.206
G1 X9.2 Y-10.88 Z0.14 F1620.0 E33.224
G1 X9.2 Y-12.09 Z0.14 F1620.0 E33.28
G1 X8.8 Y-12.09 Z0.14 F1620.0 E33.298
G1 X8.8 Y-10.88 Z0.14 F1620.0 E33.353
G1 X8.4 Y-10.88 Z0.14 F1620.0 E33.371
G1 X8.4 Y-12.09 Z0.14 F1620.0 E33.426
M73 P8 (display progress)
G1 X8.0 Y-12.09 Z0.14 F1620.0 E33.445
G1 X8.0 Y-10.88 Z0.14 F1620.0 E33.5
G1 X7.6 Y-10.88 Z0.14 F1620.0 E33.518
G1 X7.6 Y-12.09 Z0.14 F1620.0 E33.573
G1 X7.2 Y-12.09 Z0.14 F1620.0 E33.592
G1 X7.2 Y-10.88 Z0.14 F1620.0 E33.647
G1 X6.8 Y-10.88 Z0.14 F1620.0 E33.665
G1 X6.8 Y-12.09 Z0.14 F1620.0 E33.72
G1 X6.4 Y-12.09 Z0.14 F1620.0 E33.738
G1 X6.4 Y-10.88 Z0.14 F1620.0 E33.794
G1 X6.0 Y-10.88 Z0.14 F1620.0 E33.812
G1 X6.0 Y-12.09 Z0.14 F1620.0 E33.867
G1 X5.6 Y-12.09 Z0.14 F1620.0 E33.885
G1 X5.6 Y-10.88 Z0.14 F1620.0 E33.94
G1 X5.2 Y-10.88 Z0.14 F1620.0 E33.959
G1 X5.2 Y-12.09 Z0.14 F1620.0 E34.014
G1 X4.8 Y-12.09 Z0.14 F1620.0 E34.032
G1 X4.8 Y-10.88 Z0.14 F1620.0 E34.087
G1 X4.4 Y-10.88 Z0.14 F1620.0 E34.105
G1 X4.4 Y-12.09 Z0.14 F1620.0 E34.161
G1 X4.0 Y-12.09 Z0.14 F1620.0 E34.179
G1 X4.0 Y-10.88 Z0.14 F1620.0 E34.234
G1 X3.6 Y-10.88 Z0.14 F1620.0 E34.252
G1 X3.6 Y-12.09 Z0.14 F1620.0 E34.307
G1 X3.2 Y-12.09 Z0.14 F1620.0 E34.326
G1 X3.2 Y-10.88 Z0.14 F1620.0 E34.381
G1 X2.8 Y-10.88 Z0.14 F1620.0 E34.399
G1 X2.8 Y-12.09 Z0.14 F1620.0 E34.454
G1 X2.4 Y-12.09 Z0.14 F1620.0 E34.473
G1 X2.4 Y-10.88 Z0.14 F1620.0 E34.528
G1 X2.0 Y-10.88 Z0.14 F1620.0 E34.546
G1 X2.0 Y-12.09 Z0.14 F1620.0 E34.601
G1 X1.6 Y-12.09 Z0.14 F1620.0 E34.619
G1 X1.6 Y-10.88 Z0.14 F1620.0 E34.675
G1 X1.2 Y-10.88 Z0.14 F1620.0 E34.693
G1 X1.2 Y-12.09 Z0.14 F1620.0 E34.748
G1 X0.8 Y-12.09 Z0.14 F1620.0 E34.766
G1 X0.8 Y-10.88 Z0.14 F1620.0 E34.821
G1 X0.4 Y-10.88 Z0.14 F1620.0 E34.84
G1 X0.4 Y-11.01 Z0.14 F1620.0 E34.846
G1 F1200.0
G1 E33.846
G1 F1620.0
M103
G1 X0.4 Y-11.55 Z0.14 F810.0
G1 X0.4 Y-12.09 Z0.14 F270.0
G1 X10.2 Y-10.2 Z0.14 F3300.0
G1 X11.93 Y9.81 Z0.14 F3300.0
G1 F1200.0
G1 E34.846
G1 F3300.0
M101
G1 X12.0 Y10.66 Z0.14 F1800.0 E34.881
G1 X12.0 Y10.3 Z0.14 F900.0 E34.91
M73 P9 (display progress)
G1 X12.0 Y9.94 Z0.14 F1500.0 E34.928
G1 X12.0 Y9.57 Z0.14 F1800.0 E34.942
G1 X12.0 Y-10.65 Z0.14 F1800.0 E35.77
G1 F1200.0
G1 E34.77
G1 F1800.0
M103
G1 X11.61 Y10.64 Z0.14 F3300.0
G1 F1200.0
G1 E35.77
G1 F3300.0
M101
G1 X11.6 Y11.36 Z0.14 F1800.0 E35.8
G1 X11.6 Y11.0 Z0.14 F900.0 E35.829
G1 X11.6 Y10.64 Z0.14 F1500.0 E35.847
G1 X11.6 Y10.28 Z0.14 F1800.0 E35.862
G1 X11.6 Y-11.37 Z0.14 F1800.0 E36.748
G1 X11.2 Y-11.73 Z0.14 F1620.0 E36.772
G1 X11.2 Y10.64 Z0.14 F1620.0 E37.79
G1 F1200.0
G1 E36.79
G1 F1620.0
M103
G1 X11.2 Y11.18 Z0.14 F810.0
G1 X11.2 Y11.72 Z0.14 F270.0
;M108 R30.0
G1 X-8.75 Y-8.43 Z0.4 F3300.0
G1 F1200.0
G1 E37.79
G1 F3300.0
M101
G1 X-9.4 Y-9.09 Z0.41 F1800.0 E37.837
G1 X-9.4 Y-9.4 Z0.41 F766.5 E37.875
G1 X-9.31 Y-9.4 Z0.41 F900.0 E37.884
G1 X-8.91 Y-9.4 Z0.41 F1500.0 E37.908
G1 X-8.51 Y-9.4 Z0.41 F1800.0 E37.929
G1 X9.4 Y-9.4 Z0.41 F1800.0 E38.846
G1 X9.4 Y9.4 Z0.41 F1800.0 E39.808
G1 X-9.4 Y9.4 Z0.41 F1800.0 E40.77
G1 X-9.4 Y-7.89 Z0.41 F1800.0 E41.654
G1 F1200.0
G1 E41.39
G1 F1800.0
M103
G1 X-9.4 Y-8.49 Z0.41 F900.0
G1 X-9.4 Y-9.09 Z0.41 F300.0
;M108 R15.0
G1 X-9.8 Y-9.09 Z0.41 F3300.0
G1 F1200.0
G1 E41.654
G1 F3300.0
M101
G1 X-9.8 Y-9.29 Z0.41 F900.0 E41.665
M73 P10 (display progress)
G1 X-9.8 Y-9.4 Z0.41 F1233.0 E41.669
G1 X-9.8 Y-9.49 Z0.41 F1500.0 E41.672
G1 X-9.8 Y-9.69 Z0.41 F1800.0 E41.677
G1 X-9.8 Y-9.8 Z0.41 F1800.0 E41.68
G1 X9.8 Y-9.8 Z0.41 F900.0 E42.683
G1 X9.8 Y9.8 Z0.41 F900.0 E43.686
G1 X-9.8 Y9.8 Z0.41 F900.0 E44.689
G1 X-9.8 Y-8.49 Z0.41 F900.0 E45.624
G1 F1200.0
G1 E44.624
G1 F900.0
M103
G1 X-9.8 Y-8.79 Z0.41 F450.0
G1 X-9.8 Y-9.09 Z0.41 F150.0
;M108 R30.0
G1 X8.42 Y-0.34 Z0.41 F3300.0
G1 F1200.0
G1 E45.624
G1 F3300.0
M101
G1 X9.12 Y-0.0 Z0.41 F1800.0 E45.664
G1 X8.72 Y0.0 Z0.41 F900.0 E45.705
G1 X8.32 Y0.0 Z0.41 F1500.0 E45.73
G1 X7.92 Y0.0 Z0.41 F1800.0 E45.75
G1 X-9.12 Y0.0 Z0.41 F1800.0 E46.622
G1 X-9.12 Y-0.4 Z0.41 F1800.0 E46.643
G1 X9.12 Y-0.4 Z0.41 F1800.0 E47.576
G1 X9.12 Y-0.8 Z0.41 F1800.0 E47.597
G1 X-9.12 Y-0.8 Z0.41 F1800.0 E48.53
G1 X-9.12 Y-1.2 Z0.41 F1800.0 E48.551
G1 X9.12 Y-1.2 Z0.41 F1800.0 E49.484
G1 X9.12 Y-1.6 Z0.41 F1800.0 E49.505
G1 X-9.12 Y-1.6 Z0.41 F1800.0 E50.438
G1 X-9.12 Y-2.0 Z0.41 F1800.0 E50.458
G1 X9.12 Y-2.0 Z0.41 F1800.0 E51.392
G1 X9.12 Y-2.4 Z0.41 F1800.0 E51.412
G1 X-9.12 Y-2.4 Z0.41 F1800.0 E52.346
G1 X-9.12 Y-2.8 Z0.41 F1800.0 E52.366
G1 X9.12 Y-2.8 Z0.41 F1800.0 E53.3
G1 X9.12 Y-3.2 Z0.41 F1800.0 E53.32
G1 X-9.12 Y-3.2 Z0.41 F1800.0 E54.253
G1 X-9.12 Y-3.6 Z0.41 F1800.0 E54.274
G1 X9.12 Y-3.6 Z0.41 F1800.0 E55.207
G1 X9.12 Y-4.0 Z0.41 F1800.0 E55.228
G1 X-9.12 Y-4.0 Z0.41 F1800.0 E56.161
G1 X-9.12 Y-4.4 Z0.41 F1800.0 E56.182
G1 X9.12 Y-4.4 Z0.41 F1800.0 E57.115
G1 X9.12 Y-4.8 Z0.41 F1800.0 E57.136
G1 X-9.12 Y-4.8 Z0.41 F1800.0 E58.069
G1 X-9.12 Y-5.2 Z0.41 F1800.0 E58.089
G1 X9.12 Y-5.2 Z0.41 F1800.0 E59.023
G1 X9.12 Y-5.6 Z0.41 F1800.0 E59.043
G1 X-9.12 Y-5.6 Z0.41 F1800.0 E59.977
M73 P11 (display progress)
G1 X-9.12 Y-6.0 Z0.41 F1800.0 E59.997
G1 X9.12 Y-6.0 Z0.41 F1800.0 E60.931
G1 X9.12 Y-6.4 Z0.41 F1800.0 E60.951
G1 X-9.12 Y-6.4 Z0.41 F1800.0 E61.885
G1 X-9.12 Y-6.8 Z0.41 F1800.0 E61.905
G1 X9.12 Y-6.8 Z0.41 F1800.0 E62.838
G1 X9.12 Y-7.2 Z0.41 F1800.0 E62.859
G1 X-9.12 Y-7.2 Z0.41 F1800.0 E63.792
G1 X-9.12 Y-7.6 Z0.41 F1800.0 E63.813
G1 X9.12 Y-7.6 Z0.41 F1800.0 E64.746
G1 X9.12 Y-8.0 Z0.41 F1800.0 E64.767
G1 X-9.12 Y-8.0 Z0.41 F1800.0 E65.7
G1 X-9.12 Y-8.4 Z0.41 F1800.0 E65.721
G1 X9.12 Y-8.4 Z0.41 F1800.0 E66.654
G1 X9.12 Y-8.8 Z0.41 F1800.0 E66.674
G1 X-7.92 Y-8.8 Z0.41 F1800.0 E67.546
G1 F1200.0
G1 E66.546
G1 F1800.0
M103
G1 X-8.52 Y-8.8 Z0.41 F900.0
G1 X-9.12 Y-8.8 Z0.41 F300.0
G1 X-9.12 Y-0.04 Z0.41 F3300.0
G1 F1200.0
G1 E67.546
G1 F3300.0
M101
G1 X-9.12 Y0.4 Z0.41 F1800.0 E67.569
G1 X-8.72 Y0.4 Z0.41 F900.0 E67.61
G1 X-8.32 Y0.4 Z0.41 F1500.0 E67.635
G1 X-7.92 Y0.4 Z0.41 F1800.0 E67.655
G1 X9.12 Y0.4 Z0.41 F1800.0 E68.527
G1 X9.12 Y0.8 Z0.41 F1800.0 E68.548
G1 X-9.12 Y0.8 Z0.41 F1800.0 E69.481
G1 X-9.12 Y1.2 Z0.41 F1800.0 E69.501
G1 X9.12 Y1.2 Z0.41 F1800.0 E70.435
G1 X9.12 Y1.6 Z0.41 F1800.0 E70.455
G1 X-9.12 Y1.6 Z0.41 F1800.0 E71.389
G1 X-9.12 Y2.0 Z0.41 F1800.0 E71.409
G1 X9.12 Y2.0 Z0.41 F1800.0 E72.343
G1 X9.12 Y2.4 Z0.41 F1800.0 E72.363
G1 X-9.12 Y2.4 Z0.41 F1800.0 E73.297
G1 X-9.12 Y2.8 Z0.41 F1800.0 E73.317
G1 X9.12 Y2.8 Z0.41 F1800.0 E74.25
G1 X9.12 Y3.2 Z0.41 F1800.0 E74.271
G1 X-9.12 Y3.2 Z0.41 F1800.0 E75.204
G1 X-9.12 Y3.6 Z0.41 F1800.0 E75.225
G1 X9.12 Y3.6 Z0.41 F1800.0 E76.158
G1 X9.12 Y4.0 Z0.41 F1800.0 E76.179
G1 X-9.12 Y4.0 Z0.41 F1800.0 E77.112
G1 X-9.12 Y4.4 Z0.41 F1800.0 E77.133
G1 X9.12 Y4.4 Z0.41 F1800.0 E78.066
G1 X9.12 Y4.8 Z0.41 F1800.0 E78.086
M73 P12 (display progress)
G1 X-9.12 Y4.8 Z0.41 F1800.0 E79.02
G1 X-9.12 Y5.2 Z0.41 F1800.0 E79.04
G1 X9.12 Y5.2 Z0.41 F1800.0 E79.974
G1 X9.12 Y5.6 Z0.41 F1800.0 E79.994
G1 X-9.12 Y5.6 Z0.41 F1800.0 E80.928
G1 X-9.12 Y6.0 Z0.41 F1800.0 E80.948
G1 X9.12 Y6.0 Z0.41 F1800.0 E81.882
G1 X9.12 Y6.4 Z0.41 F1800.0 E81.902
G1 X-9.12 Y6.4 Z0.41 F1800.0 E82.835
G1 X-9.12 Y6.8 Z0.41 F1800.0 E82.856
G1 X9.12 Y6.8 Z0.41 F1800.0 E83.789
G1 X9.12 Y7.2 Z0.41 F1800.0 E83.81
G1 X-9.12 Y7.2 Z0.41 F1800.0 E84.743
G1 X-9.12 Y7.6 Z0.41 F1800.0 E84.764
G1 X9.12 Y7.6 Z0.41 F1800.0 E85.697
G1 X9.12 Y8.0 Z0.41 F1800.0 E85.718
G1 X-9.12 Y8.0 Z0.41 F1800.0 E86.651
G1 X-9.12 Y8.4 Z0.41 F1800.0 E86.671
G1 X9.12 Y8.4 Z0.41 F1800.0 E87.605
G1 X9.12 Y8.8 Z0.41 F1800.0 E87.625
G1 X-7.92 Y8.8 Z0.41 F1800.0 E88.497
G1 F1200.0
G1 E87.497
G1 F1800.0
M103
G1 X-8.52 Y8.8 Z0.41 F900.0
G1 X-9.12 Y8.8 Z0.41 F300.0
G1 X-9.21 Y-8.68 Z0.66 F3300.0
G1 F1200.0
G1 E88.497
G1 F3300.0
M101
G1 X-9.22 Y-9.4 Z0.68 F1800.0 E88.534
G1 X-8.82 Y-9.4 Z0.68 F900.0 E88.575
G1 X-8.42 Y-9.4 Z0.68 F1500.0 E88.6
G1 X-8.02 Y-9.4 Z0.68 F1800.0 E88.62
G1 X9.4 Y-9.4 Z0.68 F1800.0 E89.511
G1 X9.4 Y9.4 Z0.68 F1800.0 E90.473
G1 X-9.4 Y9.4 Z0.68 F1800.0 E91.435
G1 X-9.4 Y-8.38 Z0.68 F1800.0 E92.345
G1 F1200.0
G1 E92.081
G1 F1800.0
M103
G1 X-9.4 Y-8.98 Z0.68 F900.0
G1 X-9.4 Y-9.4 Z0.68 F483.0
G1 X-9.22 Y-9.4 Z0.68 F300.0
;M108 R15.0
G1 X-9.8 Y-9.58 Z0.68 F3300.0
G1 F1200.0
G1 E92.345
G1 F3300.0
M101
G1 X-9.8 Y-9.8 Z0.68 F951.0 E92.356
M73 P13 (display progress)
G1 X-9.62 Y-9.8 Z0.68 F1500.0 E92.362
G1 X-9.42 Y-9.8 Z0.68 F1800.0 E92.367
G1 X9.8 Y-9.8 Z0.68 F1800.0 E92.858
G1 X9.8 Y9.8 Z0.68 F900.0 E93.861
G1 X-9.8 Y9.8 Z0.68 F900.0 E94.864
G1 X-9.8 Y-8.98 Z0.68 F900.0 E95.826
G1 F1200.0
G1 E94.826
G1 F900.0
M103
G1 X-9.8 Y-9.28 Z0.68 F450.0
G1 X-9.8 Y-9.4 Z0.68 F333.0
G1 X-9.8 Y-9.58 Z0.68 F150.0
;M108 R30.0
G1 X-0.47 Y-9.14 Z0.68 F3300.0
G1 F1200.0
G1 E95.826
G1 F3300.0
M101
G1 X-0.0 Y-9.12 Z0.68 F1800.0 E95.85
G1 X0.0 Y-8.72 Z0.68 F900.0 E95.89
G1 X0.0 Y-8.32 Z0.68 F1500.0 E95.915
G1 X0.0 Y-7.92 Z0.68 F1800.0 E95.935
G1 X0.0 Y9.12 Z0.68 F1800.0 E96.807
G1 X-0.4 Y9.12 Z0.68 F1800.0 E96.828
G1 X-0.4 Y-9.12 Z0.68 F1800.0 E97.761
G1 X-0.8 Y-9.12 Z0.68 F1800.0 E97.782
G1 X-0.8 Y9.12 Z0.68 F1800.0 E98.715
G1 X-1.2 Y9.12 Z0.68 F1800.0 E98.736
G1 X-1.2 Y-9.12 Z0.68 F1800.0 E99.669
G1 X-1.6 Y-9.12 Z0.68 F1800.0 E99.69
G1 X-1.6 Y9.12 Z0.68 F1800.0 E100.623
G1 X-2.0 Y9.12 Z0.68 F1800.0 E100.644
G1 X-2.0 Y-9.12 Z0.68 F1800.0 E101.577
G1 X-2.4 Y-9.12 Z0.68 F1800.0 E101.597
G1 X-2.4 Y9.12 Z0.68 F1800.0 E102.531
G1 X-2.8 Y9.12 Z0.68 F1800.0 E102.551
G1 X-2.8 Y-9.12 Z0.68 F1800.0 E103.485
G1 X-3.2 Y-9.12 Z0.68 F1800.0 E103.505
G1 X-3.2 Y9.12 Z0.68 F1800.0 E104.439
G1 X-3.6 Y9.12 Z0.68 F1800.0 E104.459
G1 X-3.6 Y-9.12 Z0.68 F1800.0 E105.392
G1 X-4.0 Y-9.12 Z0.68 F1800.0 E105.413
G1 X-4.0 Y9.12 Z0.68 F1800.0 E106.346
G1 X-4.4 Y9.12 Z0.68 F1800.0 E106.367
G1 X-4.4 Y-9.12 Z0.68 F1800.0 E107.3
G1 X-4.8 Y-9.12 Z0.68 F1800.0 E107.321
G1 X-4.8 Y9.12 Z0.68 F1800.0 E108.254
G1 X-5.2 Y9.12 Z0.68 F1800.0 E108.275
G1 X-5.2 Y-9.12 Z0.68 F1800.0 E109.208
G1 X-5.6 Y-9.12 Z0.68 F1800.0 E109.228
G1 X-5.6 Y9.12 Z0.68 F1800.0 E110.162
G1 X-6.0 Y9.12 Z0.68 F1800.0 E110.182
M73 P14 (display progress)
G1 X-6.0 Y-9.12 Z0.68 F1800.0 E111.116
G1 X-6.4 Y-9.12 Z0.68 F1800.0 E111.136
G1 X-6.4 Y9.12 Z0.68 F1800.0 E112.07
G1 X-6.8 Y9.12 Z0.68 F1800.0 E112.09
G1 X-6.8 Y-9.12 Z0.68 F1800.0 E113.024
G1 X-7.2 Y-9.12 Z0.68 F1800.0 E113.044
G1 X-7.2 Y9.12 Z0.68 F1800.0 E113.977
G1 X-7.6 Y9.12 Z0.68 F1800.0 E113.998
G1 X-7.6 Y-9.12 Z0.68 F1800.0 E114.931
G1 X-8.0 Y-9.12 Z0.68 F1800.0 E114.952
G1 X-8.0 Y9.12 Z0.68 F1800.0 E115.885
G1 X-8.4 Y9.12 Z0.68 F1800.0 E115.906
G1 X-8.4 Y-9.12 Z0.68 F1800.0 E116.839
G1 X-8.8 Y-9.12 Z0.68 F1800.0 E116.86
G1 X-8.8 Y7.92 Z0.68 F1800.0 E117.732
G1 F1200.0
G1 E116.732
G1 F1800.0
M103
G1 X-8.8 Y8.52 Z0.68 F900.0
G1 X-8.8 Y9.12 Z0.68 F300.0
G1 X-0.04 Y9.12 Z0.68 F3300.0
G1 F1200.0
G1 E117.732
G1 F3300.0
M101
G1 X0.4 Y9.12 Z0.68 F1800.0 E117.754
G1 X0.4 Y8.72 Z0.68 F900.0 E117.795
G1 X0.4 Y8.32 Z0.68 F1500.0 E117.82
G1 X0.4 Y7.92 Z0.68 F1800.0 E117.84
G1 X0.4 Y-9.12 Z0.68 F1800.0 E118.712
G1 X0.8 Y-9.12 Z0.68 F1800.0 E118.733
G1 X0.8 Y9.12 Z0.68 F1800.0 E119.666
G1 X1.2 Y9.12 Z0.68 F1800.0 E119.687
G1 X1.2 Y-9.12 Z0.68 F1800.0 E120.62
G1 X1.6 Y-9.12 Z0.68 F1800.0 E120.64
G1 X1.6 Y9.12 Z0.68 F1800.0 E121.574
G1 X2.0 Y9.12 Z0.68 F1800.0 E121.594
G1 X2.0 Y-9.12 Z0.68 F1800.0 E122.528
G1 X2.4 Y-9.12 Z0.68 F1800.0 E122.548
G1 X2.4 Y9.12 Z0.68 F1800.0 E123.482
G1 X2.8 Y9.12 Z0.68 F1800.0 E123.502
G1 X2.8 Y-9.12 Z0.68 F1800.0 E124.436
G1 X3.2 Y-9.12 Z0.68 F1800.0 E124.456
G1 X3.2 Y9.12 Z0.68 F1800.0 E125.389
G1 X3.6 Y9.12 Z0.68 F1800.0 E125.41
G1 X3.6 Y-9.12 Z0.68 F1800.0 E126.343
G1 X4.0 Y-9.12 Z0.68 F1800.0 E126.364
G1 X4.0 Y9.12 Z0.68 F1800.0 E127.297
G1 X4.4 Y9.12 Z0.68 F1800.0 E127.318
G1 X4.4 Y-9.12 Z0.68 F1800.0 E128.251
G1 X4.8 Y-9.12 Z0.68 F1800.0 E128.272
G1 X4.8 Y9.12 Z0.68 F1800.0 E129.205
M73 P15 (display progress)
G1 X5.2 Y9.12 Z0.68 F1800.0 E129.225
G1 X5.2 Y-9.12 Z0.68 F1800.0 E130.159
G1 X5.6 Y-9.12 Z0.68 F1800.0 E130.179
G1 X5.6 Y9.12 Z0.68 F1800.0 E131.113
G1 X6.0 Y9.12 Z0.68 F1800.0 E131.133
G1 X6.0 Y-9.12 Z0.68 F1800.0 E132.067
G1 X6.4 Y-9.12 Z0.68 F1800.0 E132.087
G1 X6.4 Y9.12 Z0.68 F1800.0 E133.021
G1 X6.8 Y9.12 Z0.68 F1800.0 E133.041
G1 X6.8 Y-9.12 Z0.68 F1800.0 E133.974
G1 X7.2 Y-9.12 Z0.68 F1800.0 E133.995
G1 X7.2 Y9.12 Z0.68 F1800.0 E134.928
G1 X7.6 Y9.12 Z0.68 F1800.0 E134.949
G1 X7.6 Y-9.12 Z0.68 F1800.0 E135.882
G1 X8.0 Y-9.12 Z0.68 F1800.0 E135.903
G1 X8.0 Y9.12 Z0.68 F1800.0 E136.836
G1 X8.4 Y9.12 Z0.68 F1800.0 E136.857
G1 X8.4 Y-9.12 Z0.68 F1800.0 E137.79
G1 X8.8 Y-9.12 Z0.68 F1800.0 E137.81
G1 X8.8 Y7.92 Z0.68 F1800.0 E138.682
G1 F1200.0
G1 E137.682
G1 F1800.0
M103
G1 X8.8 Y8.52 Z0.68 F900.0
G1 X8.8 Y9.12 Z0.68 F300.0
G1 X-8.79 Y-8.66 Z0.94 F3300.0
G1 F1200.0
G1 E138.682
G1 F3300.0
M101
G1 X-9.4 Y-9.28 Z0.95 F1800.0 E138.727
G1 X-9.4 Y-9.4 Z0.95 F483.0 E138.75
G1 X-9.12 Y-9.4 Z0.95 F900.0 E138.779
G1 X-8.72 Y-9.4 Z0.95 F1500.0 E138.803
G1 X-8.32 Y-9.4 Z0.95 F1800.0 E138.824
G1 X9.4 Y-9.4 Z0.95 F1800.0 E139.731
G1 X9.4 Y9.4 Z0.95 F1800.0 E140.693
G1 X-9.4 Y9.4 Z0.95 F1800.0 E141.655
G1 X-9.4 Y-8.08 Z0.95 F1800.0 E142.549
G1 F1200.0
G1 E142.284
G1 F1800.0
M103
G1 X-9.4 Y-8.68 Z0.95 F900.0
G1 X-9.4 Y-9.28 Z0.95 F300.0
;M108 R15.0
G1 X-9.8 Y-9.28 Z0.95 F3300.0
G1 F1200.0
G1 E142.549
G1 F3300.0
M101
G1 X-9.8 Y-9.4 Z0.95 F666.0 E142.558
M73 P16 (display progress)
G1 X-9.8 Y-9.48 Z0.95 F900.0 E142.562
G1 X-9.8 Y-9.68 Z0.95 F1500.0 E142.568
G1 X-9.8 Y-9.8 Z0.95 F1800.0 E142.571
G1 X-9.72 Y-9.8 Z0.95 F1800.0 E142.573
G1 X9.8 Y-9.8 Z0.95 F1800.0 E143.072
G1 X9.8 Y9.8 Z0.95 F900.0 E144.075
G1 X-9.8 Y9.8 Z0.95 F900.0 E145.078
G1 X-9.8 Y-8.68 Z0.95 F900.0 E146.024
G1 F1200.0
G1 E145.024
G1 F900.0
M103
G1 X-9.8 Y-8.98 Z0.95 F450.0
G1 X-9.8 Y-9.28 Z0.95 F150.0
;M108 R30.0
G1 X8.42 Y-0.34 Z0.95 F3300.0
G1 F1200.0
G1 E146.024
G1 F3300.0
M101
G1 X9.12 Y-0.0 Z0.95 F1800.0 E146.064
G1 X8.72 Y0.0 Z0.95 F900.0 E146.105
G1 X8.32 Y0.0 Z0.95 F1500.0 E146.13
G1 X7.92 Y0.0 Z0.95 F1800.0 E146.15
G1 X-9.12 Y0.0 Z0.95 F1800.0 E147.022
G1 X-9.12 Y-0.4 Z0.95 F1800.0 E147.043
G1 X9.12 Y-0.4 Z0.95 F1800.0 E147.976
G1 X9.12 Y-0.8 Z0.95 F1800.0 E147.996
G1 X-9.12 Y-0.8 Z0.95 F1800.0 E148.93
G1 X-9.12 Y-1.2 Z0.95 F1800.0 E148.95
G1 X9.12 Y-1.2 Z0.95 F1800.0 E149.884
G1 X9.12 Y-1.6 Z0.95 F1800.0 E149.904
G1 X-9.12 Y-1.6 Z0.95 F1800.0 E150.838
G1 X-9.12 Y-2.0 Z0.95 F1800.0 E150.858
G1 X9.12 Y-2.0 Z0.95 F1800.0 E151.792
G1 X9.12 Y-2.4 Z0.95 F1800.0 E151.812
G1 X-9.12 Y-2.4 Z0.95 F1800.0 E152.745
G1 X-9.12 Y-2.8 Z0.95 F1800.0 E152.766
G1 X9.12 Y-2.8 Z0.95 F1800.0 E153.699
G1 X9.12 Y-3.2 Z0.95 F1800.0 E153.72
G1 X-9.12 Y-3.2 Z0.95 F1800.0 E154.653
G1 X-9.12 Y-3.6 Z0.95 F1800.0 E154.674
G1 X9.12 Y-3.6 Z0.95 F1800.0 E155.607
G1 X9.12 Y-4.0 Z0.95 F1800.0 E155.628
G1 X-9.12 Y-4.0 Z0.95 F1800.0 E156.561
G1 X-9.12 Y-4.4 Z0.95 F1800.0 E156.581
G1 X9.12 Y-4.4 Z0.95 F1800.0 E157.515
G1 X9.12 Y-4.8 Z0.95 F1800.0 E157.535
G1 X-9.12 Y-4.8 Z0.95 F1800.0 E158.469
G1 X-9.12 Y-5.2 Z0.95 F1800.0 E158.489
G1 X9.12 Y-5.2 Z0.95 F1800.0 E159.423
G1 X9.12 Y-5.6 Z0.95 F1800.0 E159.443
G1 X-9.12 Y-5.6 Z0.95 F1800.0 E160.377
G1 X-9.12 Y-6.0 Z0.95 F1800.0 E160.397
M73 P17 (display progress)
G1 X9.12 Y-6.0 Z0.95 F1800.0 E161.33
G1 X9.12 Y-6.4 Z0.95 F1800.0 E161.351
G1 X-9.12 Y-6.4 Z0.95 F1800.0 E162.284
G1 X-9.12 Y-6.8 Z0.95 F1800.0 E162.305
G1 X9.12 Y-6.8 Z0.95 F1800.0 E163.238
G1 X9.12 Y-7.2 Z0.95 F1800.0 E163.259
G1 X-9.12 Y-7.2 Z0.95 F1800.0 E164.192
G1 X-9.12 Y-7.6 Z0.95 F1800.0 E164.213
G1 X9.12 Y-7.6 Z0.95 F1800.0 E165.146
G1 X9.12 Y-8.0 Z0.95 F1800.0 E165.166
G1 X-9.12 Y-8.0 Z0.95 F1800.0 E166.1
G1 X-9.12 Y-8.4 Z0.95 F1800.0 E166.12
G1 X9.12 Y-8.4 Z0.95 F1800.0 E167.054
G1 X9.12 Y-8.8 Z0.95 F1800.0 E167.074
G1 X-7.92 Y-8.8 Z0.95 F1800.0 E167.946
G1 F1200.0
G1 E166.946
G1 F1800.0
M103
G1 X-8.52 Y-8.8 Z0.95 F900.0
G1 X-9.12 Y-8.8 Z0.95 F300.0
G1 X-9.12 Y-0.04 Z0.95 F3300.0
G1 F1200.0
G1 E167.946
G1 F3300.0
M101
G1 X-9.12 Y0.4 Z0.95 F1800.0 E167.969
G1 X-8.72 Y0.4 Z0.95 F900.0 E168.01
G1 X-8.32 Y0.4 Z0.95 F1500.0 E168.034
G1 X-7.92 Y0.4 Z0.95 F1800.0 E168.055
G1 X9.12 Y0.4 Z0.95 F1800.0 E168.927
G1 X9.12 Y0.8 Z0.95 F1800.0 E168.947
G1 X-9.12 Y0.8 Z0.95 F1800.0 E169.881
G1 X-9.12 Y1.2 Z0.95 F1800.0 E169.901
G1 X9.12 Y1.2 Z0.95 F1800.0 E170.835
G1 X9.12 Y1.6 Z0.95 F1800.0 E170.855
G1 X-9.12 Y1.6 Z0.95 F1800.0 E171.788
G1 X-9.12 Y2.0 Z0.95 F1800.0 E171.809
G1 X9.12 Y2.0 Z0.95 F1800.0 E172.742
G1 X9.12 Y2.4 Z0.95 F1800.0 E172.763
G1 X-9.12 Y2.4 Z0.95 F1800.0 E173.696
G1 X-9.12 Y2.8 Z0.95 F1800.0 E173.717
G1 X9.12 Y2.8 Z0.95 F1800.0 E174.65
G1 X9.12 Y3.2 Z0.95 F1800.0 E174.671
G1 X-9.12 Y3.2 Z0.95 F1800.0 E175.604
G1 X-9.12 Y3.6 Z0.95 F1800.0 E175.624
G1 X9.12 Y3.6 Z0.95 F1800.0 E176.558
G1 X9.12 Y4.0 Z0.95 F1800.0 E176.578
G1 X-9.12 Y4.0 Z0.95 F1800.0 E177.512
G1 X-9.12 Y4.4 Z0.95 F1800.0 E177.532
G1 X9.12 Y4.4 Z0.95 F1800.0 E178.466
G1 X9.12 Y4.8 Z0.95 F1800.0 E178.486
G1 X-9.12 Y4.8 Z0.95 F1800.0 E179.42
M73 P18 (display progress)
G1 X-9.12 Y5.2 Z0.95 F1800.0 E179.44
G1 X9.12 Y5.2 Z0.95 F1800.0 E180.373
G1 X9.12 Y5.6 Z0.95 F1800.0 E180.394
G1 X-9.12 Y5.6 Z0.95 F1800.0 E181.327
G1 X-9.12 Y6.0 Z0.95 F1800.0 E181.348
G1 X9.12 Y6.0 Z0.95 F1800.0 E182.281
G1 X9.12 Y6.4 Z0.95 F1800.0 E182.302
G1 X-9.12 Y6.4 Z0.95 F1800.0 E183.235
G1 X-9.12 Y6.8 Z0.95 F1800.0 E183.256
G1 X9.12 Y6.8 Z0.95 F1800.0 E184.189
G1 X9.12 Y7.2 Z0.95 F1800.0 E184.209
G1 X-9.12 Y7.2 Z0.95 F1800.0 E185.143
G1 X-9.12 Y7.6 Z0.95 F1800.0 E185.163
G1 X9.12 Y7.6 Z0.95 F1800.0 E186.097
G1 X9.12 Y8.0 Z0.95 F1800.0 E186.117
G1 X-9.12 Y8.0 Z0.95 F1800.0 E187.051
G1 X-9.12 Y8.4 Z0.95 F1800.0 E187.071
G1 X9.12 Y8.4 Z0.95 F1800.0 E188.005
G1 X9.12 Y8.8 Z0.95 F1800.0 E188.025
G1 X-7.92 Y8.8 Z0.95 F1800.0 E188.897
G1 F1200.0
G1 E187.897
G1 F1800.0
M103
G1 X-8.52 Y8.8 Z0.95 F900.0
G1 X-9.12 Y8.8 Z0.95 F300.0
G1 X-9.39 Y-8.27 Z1.2 F3300.0
G1 F1200.0
G1 E188.897
G1 F3300.0
M101
G1 X-9.4 Y-8.97 Z1.22 F1800.0 E188.933
G1 X-9.4 Y-9.4 Z1.22 F942.0 E188.975
G1 X-9.03 Y-9.4 Z1.22 F1500.0 E188.998
G1 X-8.63 Y-9.4 Z1.22 F1800.0 E189.018
G1 X9.4 Y-9.4 Z1.22 F1800.0 E189.941
G1 X9.4 Y9.4 Z1.22 F1800.0 E190.903
G1 X-9.4 Y9.4 Z1.22 F1800.0 E191.865
G1 X-9.4 Y-7.77 Z1.22 F1800.0 E192.744
G1 F1200.0
G1 E192.479
G1 F1800.0
M103
G1 X-9.4 Y-8.37 Z1.22 F900.0
G1 X-9.4 Y-8.97 Z1.22 F300.0
;M108 R15.0
G1 X-9.8 Y-8.97 Z1.22 F3300.0
G1 F1200.0
G1 E192.744
G1 F3300.0
M101
G1 X-9.8 Y-9.17 Z1.22 F900.0 E192.754
G1 X-9.8 Y-9.4 Z1.22 F1584.0 E192.761
M73 P19 (display progress)
G1 X-9.8 Y-9.57 Z1.22 F1800.0 E192.765
G1 X-9.8 Y-9.8 Z1.22 F1800.0 E192.771
G1 X9.8 Y-9.8 Z1.22 F900.0 E193.774
G1 X9.8 Y9.8 Z1.22 F900.0 E194.777
G1 X-9.8 Y9.8 Z1.22 F900.0 E195.78
G1 X-9.8 Y-8.37 Z1.22 F900.0 E196.71
G1 F1200.0
G1 E195.71
G1 F900.0
M103
G1 X-9.8 Y-8.67 Z1.22 F450.0
G1 X-9.8 Y-8.97 Z1.22 F150.0
;M108 R30.0
G1 X6.62 Y8.5 Z1.22 F3300.0
G1 F1200.0
G1 E196.71
G1 F3300.0
M101
G1 X7.2 Y9.12 Z1.22 F1800.0 E196.754
G1 X6.8 Y9.12 Z1.22 F900.0 E196.795
G1 X6.4 Y9.12 Z1.22 F1500.0 E196.819
G1 X6.0 Y9.12 Z1.22 F1800.0 E196.84
G1 X4.0 Y9.12 Z1.22 F1800.0 E196.942
G1 X2.13 Y6.14 Z1.22 F1800.0 E197.122
G1 X2.13 Y5.86 Z1.22 F1800.0 E197.136
G1 X5.87 Y2.14 Z1.22 F1800.0 E197.407
G1 X5.87 Y1.86 Z1.22 F1800.0 E197.421
G1 X2.13 Y-1.86 Z1.22 F1800.0 E197.691
G1 X2.13 Y-2.14 Z1.22 F1800.0 E197.706
G1 X5.87 Y-5.86 Z1.22 F1800.0 E197.976
G1 X5.87 Y-6.14 Z1.22 F1800.0 E197.99
G1 X7.2 Y-9.12 Z1.22 F1800.0 E198.157
G1 X-0.4 Y-9.12 Z1.22 F1800.0 E198.546
G1 X-1.87 Y-6.14 Z1.22 F1800.0 E198.716
G1 X-1.87 Y-5.86 Z1.22 F1800.0 E198.73
G1 X1.87 Y-2.14 Z1.22 F1800.0 E199.001
G1 X1.87 Y-1.86 Z1.22 F1800.0 E199.015
G1 X-1.87 Y1.86 Z1.22 F1800.0 E199.285
G1 X-1.87 Y2.14 Z1.22 F1800.0 E199.3
G1 X1.87 Y5.86 Z1.22 F1800.0 E199.57
G1 X1.87 Y6.14 Z1.22 F1800.0 E199.584
G1 X3.6 Y9.12 Z1.22 F1800.0 E199.76
G1 X-4.4 Y9.12 Z1.22 F1800.0 E200.17
G1 X-5.87 Y6.14 Z1.22 F1800.0 E200.34
G1 X-5.87 Y5.86 Z1.22 F1800.0 E200.354
G1 X-2.13 Y2.14 Z1.22 F1800.0 E200.624
G1 X-2.13 Y1.86 Z1.22 F1800.0 E200.639
G1 X-5.87 Y-1.86 Z1.22 F1800.0 E200.909
G1 X-5.87 Y-2.14 Z1.22 F1800.0 E200.923
G1 X-2.13 Y-5.86 Z1.22 F1800.0 E201.194
G1 X-2.13 Y-6.14 Z1.22 F1800.0 E201.208
G1 X-0.8 Y-9.12 Z1.22 F1800.0 E201.375
G1 X-3.2 Y-9.12 Z1.22 F1800.0 E201.498
M73 P20 (display progress)
G1 F1200.0
G1 E200.498
G1 F1800.0
M103
G1 X-3.8 Y-9.12 Z1.22 F900.0
G1 X-4.4 Y-9.12 Z1.22 F300.0
G1 X7.83 Y-9.12 Z1.22 F3300.0
G1 F1200.0
G1 E201.498
G1 F3300.0
M101
G1 X8.4 Y-9.12 Z1.22 F1800.0 E201.527
G1 X8.0 Y-9.12 Z1.22 F900.0 E201.568
G1 X7.6 Y-9.12 Z1.22 F1500.0 E201.592
G1 X7.42 Y-8.76 Z1.22 F1800.0 E201.613
G1 X6.13 Y-6.14 Z1.22 F1800.0 E201.762
G1 X6.13 Y2.14 Z1.22 F1800.0 E202.186
G1 X7.6 Y9.12 Z1.22 F1800.0 E202.551
G1 X8.8 Y9.12 Z1.22 F1800.0 E202.612
G1 X8.8 Y-7.92 Z1.22 F1800.0 E203.484
G1 F1200.0
G1 E202.484
G1 F1800.0
M103
G1 X8.8 Y-8.52 Z1.22 F900.0
G1 X8.8 Y-9.12 Z1.22 F300.0
G1 X-7.81 Y8.5 Z1.22 F3300.0
G1 F1200.0
G1 E203.484
G1 F3300.0
M101
G1 X-8.4 Y9.12 Z1.22 F1800.0 E203.528
G1 X-8.0 Y9.12 Z1.22 F900.0 E203.569
G1 X-7.6 Y9.12 Z1.22 F1500.0 E203.594
G1 X-7.2 Y9.12 Z1.22 F1800.0 E203.614
G1 X-4.8 Y9.12 Z1.22 F1800.0 E203.737
G1 X-6.13 Y6.14 Z1.22 F1800.0 E203.904
G1 X-6.13 Y-2.14 Z1.22 F1800.0 E204.328
G1 X-4.8 Y-9.12 Z1.22 F1800.0 E204.691
G1 X-8.8 Y-9.12 Z1.22 F1800.0 E204.896
G1 X-8.8 Y7.92 Z1.22 F1800.0 E205.768
G1 F1200.0
G1 E204.768
G1 F1800.0
M103
G1 X-8.8 Y8.52 Z1.22 F900.0
G1 X-8.8 Y9.12 Z1.22 F300.0
G1 X-9.31 Y-8.68 Z1.47 F3300.0
G1 F1200.0
G1 E205.768
G1 F3300.0
M101
G1 X-9.33 Y-9.4 Z1.49 F1800.0 E205.805
G1 X-8.93 Y-9.4 Z1.49 F900.0 E205.846
M73 P21 (display progress)
G1 X-8.53 Y-9.4 Z1.49 F1500.0 E205.871
G1 X-8.13 Y-9.4 Z1.49 F1800.0 E205.891
G1 X9.4 Y-9.4 Z1.49 F1800.0 E206.788
G1 X9.4 Y9.4 Z1.49 F1800.0 E207.75
G1 X-9.4 Y9.4 Z1.49 F1800.0 E208.712
G1 X-9.4 Y-8.27 Z1.49 F1800.0 E209.617
G1 F1200.0
G1 E209.352
G1 F1800.0
M103
G1 X-9.4 Y-8.87 Z1.49 F900.0
G1 X-9.4 Y-9.4 Z1.49 F367.0
G1 X-9.33 Y-9.4 Z1.49 F300.0
;M108 R15.0
G1 X-9.8 Y-9.47 Z1.49 F3300.0
G1 F1200.0
G1 E209.617
G1 F3300.0
M101
G1 X-9.8 Y-9.67 Z1.49 F900.0 E209.627
G1 X-9.8 Y-9.8 Z1.49 F1299.0 E209.632
G1 X-9.73 Y-9.8 Z1.49 F1500.0 E209.634
G1 X-9.53 Y-9.8 Z1.49 F1800.0 E209.639
G1 X9.8 Y-9.8 Z1.49 F1800.0 E210.133
G1 X9.8 Y9.8 Z1.49 F900.0 E211.136
G1 X-9.8 Y9.8 Z1.49 F900.0 E212.139
G1 X-9.8 Y-8.87 Z1.49 F900.0 E213.095
G1 F1200.0
G1 E213.095
G1 F900.0
M103
G1 X-9.8 Y-9.17 Z1.49 F450.0
G1 X-9.8 Y-9.4 Z1.49 F217.0
G1 X-9.8 Y-9.47 Z1.49 F150.0
;M108 R30.0
G1 X-9.16 Y-8.46 Z1.49 F3300.0
G1 F1200.0
G1 E213.095
G1 F3300.0
M101
G1 X-9.12 Y-8.4 Z1.49 F1800.0 E213.098
G1 X-9.12 Y-8.0 Z1.49 F900.0 E213.139
G1 X-9.12 Y-7.6 Z1.49 F1500.0 E213.164
G1 X-9.12 Y-7.2 Z1.49 F1800.0 E213.184
G1 X-9.12 Y-4.8 Z1.49 F1800.0 E213.307
G1 X-2.14 Y-6.13 Z1.49 F1800.0 E213.671
G1 X6.14 Y-6.13 Z1.49 F1800.0 E214.095
G1 X9.12 Y-4.8 Z1.49 F1800.0 E214.261
G1 X9.12 Y-8.8 Z1.49 F1800.0 E214.466
G1 X-7.92 Y-8.8 Z1.49 F1800.0 E215.338
G1 F1200.0
G1 E214.338
G1 F1800.0
M73 P22 (display progress)
M103
G1 X-8.52 Y-8.8 Z1.49 F900.0
G1 X-9.12 Y-8.8 Z1.49 F300.0
G1 X8.49 Y6.64 Z1.49 F3300.0
G1 F1200.0
G1 E215.338
G1 F3300.0
M101
G1 X9.12 Y7.2 Z1.49 F1800.0 E215.381
G1 X9.12 Y6.8 Z1.49 F900.0 E215.422
G1 X9.12 Y6.4 Z1.49 F1500.0 E215.447
G1 X9.12 Y6.0 Z1.49 F1800.0 E215.467
G1 X9.12 Y4.0 Z1.49 F1800.0 E215.57
G1 X6.14 Y2.13 Z1.49 F1800.0 E215.75
G1 X5.86 Y2.13 Z1.49 F1800.0 E215.764
G1 X2.14 Y5.87 Z1.49 F1800.0 E216.034
G1 X1.86 Y5.87 Z1.49 F1800.0 E216.049
G1 X-1.86 Y2.13 Z1.49 F1800.0 E216.319
G1 X-2.14 Y2.13 Z1.49 F1800.0 E216.333
G1 X-5.86 Y5.87 Z1.49 F1800.0 E216.603
G1 X-6.14 Y5.87 Z1.49 F1800.0 E216.618
G1 X-9.12 Y7.2 Z1.49 F1800.0 E216.785
G1 X-9.12 Y-0.4 Z1.49 F1800.0 E217.174
G1 X-6.14 Y-1.87 Z1.49 F1800.0 E217.344
G1 X-5.86 Y-1.87 Z1.49 F1800.0 E217.358
G1 X-2.14 Y1.87 Z1.49 F1800.0 E217.628
G1 X-1.86 Y1.87 Z1.49 F1800.0 E217.643
G1 X1.86 Y-1.87 Z1.49 F1800.0 E217.913
G1 X2.14 Y-1.87 Z1.49 F1800.0 E217.927
G1 X5.86 Y1.87 Z1.49 F1800.0 E218.197
G1 X6.14 Y1.87 Z1.49 F1800.0 E218.212
G1 X9.12 Y3.6 Z1.49 F1800.0 E218.388
G1 X9.12 Y-4.4 Z1.49 F1800.0 E218.797
G1 X6.14 Y-5.87 Z1.49 F1800.0 E218.968
G1 X5.86 Y-5.87 Z1.49 F1800.0 E218.982
G1 X2.14 Y-2.13 Z1.49 F1800.0 E219.252
G1 X1.86 Y-2.13 Z1.49 F1800.0 E219.266
G1 X-1.86 Y-5.87 Z1.49 F1800.0 E219.537
G1 X-2.14 Y-5.87 Z1.49 F1800.0 E219.551
G1 X-5.86 Y-2.13 Z1.49 F1800.0 E219.821
G1 X-6.14 Y-2.13 Z1.49 F1800.0 E219.836
G1 X-9.12 Y-0.8 Z1.49 F1800.0 E220.003
G1 X-9.12 Y-3.2 Z1.49 F1800.0 E220.125
G1 F1200.0
G1 E219.125
G1 F1800.0
M103
G1 X-9.12 Y-3.8 Z1.49 F900.0
G1 X-9.12 Y-4.4 Z1.49 F300.0
G1 X8.46 Y7.94 Z1.49 F3300.0
G1 F1200.0
G1 E220.125
G1 F3300.0
M73 P23 (display progress)
M101
G1 X9.12 Y8.4 Z1.49 F1800.0 E220.167
G1 X9.12 Y8.0 Z1.49 F900.0 E220.208
G1 X9.12 Y7.6 Z1.49 F1500.0 E220.232
G1 X8.73 Y7.52 Z1.49 F1800.0 E220.253
G1 X2.14 Y6.13 Z1.49 F1800.0 E220.597
G1 X-6.14 Y6.13 Z1.49 F1800.0 E221.021
G1 X-9.12 Y7.6 Z1.49 F1800.0 E221.191
G1 X-9.12 Y8.8 Z1.49 F1800.0 E221.252
G1 X7.92 Y8.8 Z1.49 F1800.0 E222.124
G1 F1200.0
G1 E221.124
G1 F1800.0
M103
G1 X8.52 Y8.8 Z1.49 F900.0
G1 X9.12 Y8.8 Z1.49 F300.0
G1 X-8.78 Y-8.56 Z1.75 F3300.0
G1 F1200.0
G1 E222.124
G1 F3300.0
M101
G1 X-9.4 Y-9.16 Z1.76 F1800.0 E222.169
G1 X-9.4 Y-9.4 Z1.76 F658.5 E222.202
G1 X-9.24 Y-9.4 Z1.76 F900.0 E222.219
G1 X-8.84 Y-9.4 Z1.76 F1500.0 E222.243
G1 X-8.44 Y-9.4 Z1.76 F1800.0 E222.264
G1 X9.4 Y-9.4 Z1.76 F1800.0 E223.177
G1 X9.4 Y9.4 Z1.76 F1800.0 E224.139
G1 X-9.4 Y9.4 Z1.76 F1800.0 E225.101
G1 X-9.4 Y-7.96 Z1.76 F1800.0 E225.989
G1 F1200.0
G1 E225.724
G1 F1800.0
M103
G1 X-9.4 Y-8.56 Z1.76 F900.0
G1 X-9.4 Y-9.16 Z1.76 F300.0
;M108 R15.0
G1 X-9.8 Y-9.16 Z1.76 F3300.0
G1 F1200.0
G1 E225.989
G1 F3300.0
M101
G1 X-9.8 Y-9.4 Z1.76 F1017.0 E226.0
G1 X-9.8 Y-9.56 Z1.76 F1500.0 E226.005
G1 X-9.8 Y-9.8 Z1.76 F1800.0 E226.011
G1 X9.8 Y-9.8 Z1.76 F900.0 E227.014
G1 X9.8 Y9.8 Z1.76 F900.0 E228.017
G1 X-9.8 Y9.8 Z1.76 F900.0 E229.02
G1 X-9.8 Y-8.56 Z1.76 F900.0 E229.96
G1 F1200.0
G1 E228.96
G1 F900.0
M103
M73 P24 (display progress)
G1 X-9.8 Y-8.86 Z1.76 F450.0
G1 X-9.8 Y-9.16 Z1.76 F150.0
;M108 R30.0
G1 X6.62 Y8.49 Z1.76 F3300.0
G1 F1200.0
G1 E229.96
G1 F3300.0
M101
G1 X7.2 Y9.12 Z1.76 F1800.0 E230.004
G1 X6.8 Y9.12 Z1.76 F900.0 E230.045
G1 X6.4 Y9.12 Z1.76 F1500.0 E230.069
G1 X6.0 Y9.12 Z1.76 F1800.0 E230.09
G1 X4.0 Y9.12 Z1.76 F1800.0 E230.192
G1 X2.13 Y6.14 Z1.76 F1800.0 E230.372
G1 X2.13 Y5.86 Z1.76 F1800.0 E230.387
G1 X5.87 Y2.14 Z1.76 F1800.0 E230.657
G1 X5.87 Y1.86 Z1.76 F1800.0 E230.671
G1 X2.13 Y-1.86 Z1.76 F1800.0 E230.941
G1 X2.13 Y-2.14 Z1.76 F1800.0 E230.956
G1 X5.87 Y-5.86 Z1.76 F1800.0 E231.226
G1 X5.87 Y-6.14 Z1.76 F1800.0 E231.24
G1 X7.2 Y-9.12 Z1.76 F1800.0 E231.407
G1 X-0.4 Y-9.12 Z1.76 F1800.0 E231.796
G1 X-1.87 Y-6.14 Z1.76 F1800.0 E231.966
G1 X-1.87 Y-5.86 Z1.76 F1800.0 E231.981
G1 X1.87 Y-2.14 Z1.76 F1800.0 E232.251
G1 X1.87 Y-1.86 Z1.76 F1800.0 E232.265
G1 X-1.87 Y1.86 Z1.76 F1800.0 E232.535
G1 X-1.87 Y2.14 Z1.76 F1800.0 E232.55
G1 X1.87 Y5.86 Z1.76 F1800.0 E232.82
G1 X1.87 Y6.14 Z1.76 F1800.0 E232.834
G1 X3.6 Y9.12 Z1.76 F1800.0 E233.01
G1 X-4.4 Y9.12 Z1.76 F1800.0 E233.42
G1 X-5.87 Y6.14 Z1.76 F1800.0 E233.59
G1 X-5.87 Y5.86 Z1.76 F1800.0 E233.604
G1 X-2.13 Y2.14 Z1.76 F1800.0 E233.875
G1 X-2.13 Y1.86 Z1.76 F1800.0 E233.889
G1 X-5.87 Y-1.86 Z1.76 F1800.0 E234.159
G1 X-5.87 Y-2.14 Z1.76 F1800.0 E234.173
G1 X-2.13 Y-5.86 Z1.76 F1800.0 E234.444
G1 X-2.13 Y-6.14 Z1.76 F1800.0 E234.458
G1 X-0.8 Y-9.12 Z1.76 F1800.0 E234.625
G1 X-3.2 Y-9.12 Z1.76 F1800.0 E234.748
G1 F1200.0
G1 E233.748
G1 F1800.0
M103
G1 X-3.8 Y-9.12 Z1.76 F900.0
G1 X-4.4 Y-9.12 Z1.76 F300.0
G1 X7.83 Y-9.12 Z1.76 F3300.0
G1 F1200.0
G1 E234.748
G1 F3300.0
M101
M73 P25 (display progress)
G1 X8.4 Y-9.12 Z1.76 F1800.0 E234.777
G1 X8.0 Y-9.12 Z1.76 F900.0 E234.818
G1 X7.6 Y-9.12 Z1.76 F1500.0 E234.842
G1 X7.42 Y-8.76 Z1.76 F1800.0 E234.863
G1 X6.13 Y-6.14 Z1.76 F1800.0 E235.012
G1 X6.13 Y2.14 Z1.76 F1800.0 E235.436
G1 X7.6 Y9.12 Z1.76 F1800.0 E235.801
G1 X8.8 Y9.12 Z1.76 F1800.0 E235.863
G1 X8.8 Y-7.92 Z1.76 F1800.0 E236.735
G1 F1200.0
G1 E235.735
G1 F1800.0
M103
G1 X8.8 Y-8.52 Z1.76 F900.0
G1 X8.8 Y-9.12 Z1.76 F300.0
G1 X-7.81 Y8.5 Z1.76 F3300.0
G1 F1200.0
G1 E236.735
G1 F3300.0
M101
G1 X-8.4 Y9.12 Z1.76 F1800.0 E236.778
G1 X-8.0 Y9.12 Z1.76 F900.0 E236.819
G1 X-7.6 Y9.12 Z1.76 F1500.0 E236.844
G1 X-7.2 Y9.12 Z1.76 F1800.0 E236.864
G1 X-4.8 Y9.12 Z1.76 F1800.0 E236.987
G1 X-6.13 Y6.14 Z1.76 F1800.0 E237.154
G1 X-6.13 Y-2.14 Z1.76 F1800.0 E237.578
G1 X-4.8 Y-9.12 Z1.76 F1800.0 E237.941
G1 X-8.8 Y-9.12 Z1.76 F1800.0 E238.146
G1 X-8.8 Y7.92 Z1.76 F1800.0 E239.018
G1 F1200.0
G1 E238.018
G1 F1800.0
M103
G1 X-8.8 Y8.52 Z1.76 F900.0
G1 X-8.8 Y9.12 Z1.76 F300.0
G1 X-9.13 Y-8.68 Z2.01 F3300.0
G1 F1200.0
G1 E239.018
G1 F3300.0
M101
G1 X-9.15 Y-9.4 Z2.03 F1800.0 E239.055
G1 X-8.74 Y-9.4 Z2.03 F900.0 E239.096
G1 X-8.35 Y-9.4 Z2.03 F1500.0 E239.121
G1 X-7.95 Y-9.4 Z2.03 F1800.0 E239.141
G1 X9.4 Y-9.4 Z2.03 F1800.0 E240.029
G1 X9.4 Y9.4 Z2.03 F1800.0 E240.991
G1 X-9.4 Y9.4 Z2.03 F1800.0 E241.953
G1 X-9.4 Y-8.46 Z2.03 F1800.0 E242.867
G1 F1200.0
G1 E242.602
G1 F1800.0
M103
M73 P26 (display progress)
G1 X-9.4 Y-9.06 Z2.03 F900.0
G1 X-9.4 Y-9.4 Z2.03 F555.0
G1 X-9.15 Y-9.4 Z2.03 F300.0
;M108 R15.0
G1 X-9.8 Y-9.65 Z2.03 F3300.0
G1 F1200.0
G1 E242.867
G1 F3300.0
M101
G1 X-9.8 Y-9.8 Z2.03 F735.0 E242.876
G1 X-9.74 Y-9.8 Z2.03 F900.0 E242.879
G1 X-9.55 Y-9.8 Z2.03 F1500.0 E242.885
G1 X-9.35 Y-9.8 Z2.03 F1800.0 E242.89
G1 X9.8 Y-9.8 Z2.03 F1800.0 E243.38
G1 X9.8 Y9.8 Z2.03 F900.0 E244.383
G1 X-9.8 Y9.8 Z2.03 F900.0 E245.386
G1 X-9.8 Y-9.06 Z2.03 F900.0 E246.351
G1 F1200.0
G1 E246.351
G1 F900.0
M103
G1 X-9.8 Y-9.36 Z2.03 F450.0
G1 X-9.8 Y-9.4 Z2.03 F405.0
G1 X-9.8 Y-9.65 Z2.03 F150.0
;M108 R30.0
G1 X-9.16 Y-8.47 Z2.03 F3300.0
G1 F1200.0
G1 E246.351
G1 F3300.0
M101
G1 X-9.12 Y-8.4 Z2.03 F1800.0 E246.355
G1 X-9.12 Y-8.0 Z2.03 F900.0 E246.396
G1 X-9.12 Y-7.6 Z2.03 F1500.0 E246.42
G1 X-9.12 Y-7.2 Z2.03 F1800.0 E246.441
G1 X-9.12 Y-4.8 Z2.03 F1800.0 E246.564
G1 X-2.14 Y-6.13 Z2.03 F1800.0 E246.927
G1 X6.14 Y-6.13 Z2.03 F1800.0 E247.351
G1 X9.12 Y-4.8 Z2.03 F1800.0 E247.518
G1 X9.12 Y-8.8 Z2.03 F1800.0 E247.723
G1 X-7.92 Y-8.8 Z2.03 F1800.0 E248.595
G1 F1200.0
G1 E247.595
G1 F1800.0
M103
G1 X-8.52 Y-8.8 Z2.03 F900.0
G1 X-9.12 Y-8.8 Z2.03 F300.0
G1 X8.49 Y6.64 Z2.03 F3300.0
G1 F1200.0
G1 E248.595
G1 F3300.0
M101
G1 X9.12 Y7.2 Z2.03 F1800.0 E248.638
G1 X9.12 Y6.8 Z2.03 F900.0 E248.679
M73 P27 (display progress)
G1 X9.12 Y6.4 Z2.03 F1500.0 E248.703
G1 X9.12 Y6.0 Z2.03 F1800.0 E248.724
G1 X9.12 Y4.0 Z2.03 F1800.0 E248.826
G1 X6.14 Y2.13 Z2.03 F1800.0 E249.006
G1 X5.86 Y2.13 Z2.03 F1800.0 E249.021
G1 X2.14 Y5.87 Z2.03 F1800.0 E249.291
G1 X1.86 Y5.87 Z2.03 F1800.0 E249.305
G1 X-1.86 Y2.13 Z2.03 F1800.0 E249.575
G1 X-2.14 Y2.13 Z2.03 F1800.0 E249.59
G1 X-5.86 Y5.87 Z2.03 F1800.0 E249.86
G1 X-6.14 Y5.87 Z2.03 F1800.0 E249.874
G1 X-9.12 Y7.2 Z2.03 F1800.0 E250.041
G1 X-9.12 Y-0.4 Z2.03 F1800.0 E250.43
G1 X-6.14 Y-1.87 Z2.03 F1800.0 E250.6
G1 X-5.86 Y-1.87 Z2.03 F1800.0 E250.615
G1 X-2.14 Y1.87 Z2.03 F1800.0 E250.885
G1 X-1.86 Y1.87 Z2.03 F1800.0 E250.899
G1 X1.86 Y-1.87 Z2.03 F1800.0 E251.169
G1 X2.14 Y-1.87 Z2.03 F1800.0 E251.184
G1 X5.86 Y1.87 Z2.03 F1800.0 E251.454
G1 X6.14 Y1.87 Z2.03 F1800.0 E251.468
G1 X9.12 Y3.6 Z2.03 F1800.0 E251.645
G1 X9.12 Y-4.4 Z2.03 F1800.0 E252.054
G1 X6.14 Y-5.87 Z2.03 F1800.0 E252.224
G1 X5.86 Y-5.87 Z2.03 F1800.0 E252.238
G1 X2.14 Y-2.13 Z2.03 F1800.0 E252.509
G1 X1.86 Y-2.13 Z2.03 F1800.0 E252.523
G1 X-1.86 Y-5.87 Z2.03 F1800.0 E252.793
G1 X-2.14 Y-5.87 Z2.03 F1800.0 E252.808
G1 X-5.86 Y-2.13 Z2.03 F1800.0 E253.078
G1 X-6.14 Y-2.13 Z2.03 F1800.0 E253.092
G1 X-9.12 Y-0.8 Z2.03 F1800.0 E253.259
G1 X-9.12 Y-3.2 Z2.03 F1800.0 E253.382
G1 F1200.0
G1 E252.382
G1 F1800.0
M103
G1 X-9.12 Y-3.8 Z2.03 F900.0
G1 X-9.12 Y-4.4 Z2.03 F300.0
G1 X8.46 Y7.94 Z2.03 F3300.0
G1 F1200.0
G1 E253.382
G1 F3300.0
M101
G1 X9.12 Y8.4 Z2.03 F1800.0 E253.423
G1 X9.12 Y8.0 Z2.03 F900.0 E253.464
G1 X9.12 Y7.6 Z2.03 F1500.0 E253.489
G1 X8.73 Y7.52 Z2.03 F1800.0 E253.509
G1 X2.14 Y6.13 Z2.03 F1800.0 E253.854
G1 X-6.14 Y6.13 Z2.03 F1800.0 E254.277
G1 X-9.12 Y7.6 Z2.03 F1800.0 E254.448
G1 X-9.12 Y8.8 Z2.03 F1800.0 E254.509
G1 X7.92 Y8.8 Z2.03 F1800.0 E255.381
M73 P28 (display progress)
G1 F1200.0
G1 E254.381
G1 F1800.0
M103
G1 X8.52 Y8.8 Z2.03 F900.0
G1 X9.12 Y8.8 Z2.03 F300.0
G1 X-8.78 Y-8.74 Z2.29 F3300.0
G1 F1200.0
G1 E255.381
G1 F3300.0
M101
G1 X-9.4 Y-9.35 Z2.3 F1800.0 E255.426
G1 X-9.4 Y-9.4 Z2.3 F375.0 E255.438
G1 X-9.05 Y-9.4 Z2.3 F900.0 E255.474
G1 X-8.65 Y-9.4 Z2.3 F1500.0 E255.498
G1 X-8.25 Y-9.4 Z2.3 F1800.0 E255.519
G1 X9.4 Y-9.4 Z2.3 F1800.0 E256.422
G1 X9.4 Y9.4 Z2.3 F1800.0 E257.384
G1 X-9.4 Y9.4 Z2.3 F1800.0 E258.346
G1 X-9.4 Y-8.15 Z2.3 F1800.0 E259.244
G1 F1200.0
G1 E258.979
G1 F1800.0
M103
G1 X-9.4 Y-8.75 Z2.3 F900.0
G1 X-9.4 Y-9.35 Z2.3 F300.0
;M108 R15.0
G1 X-9.8 Y-9.35 Z2.3 F3300.0
G1 F1200.0
G1 E259.244
G1 F3300.0
M101
G1 X-9.8 Y-9.4 Z2.3 F450.0 E259.249
G1 X-9.8 Y-9.55 Z2.3 F900.0 E259.257
G1 X-9.8 Y-9.75 Z2.3 F1500.0 E259.263
G1 X-9.8 Y-9.8 Z2.3 F1650.0 E259.264
G1 X-9.65 Y-9.8 Z2.3 F1800.0 E259.268
G1 X9.8 Y-9.8 Z2.3 F1800.0 E259.766
G1 X9.8 Y9.8 Z2.3 F900.0 E260.769
G1 X-9.8 Y9.8 Z2.3 F900.0 E261.772
G1 X-9.8 Y-8.75 Z2.3 F900.0 E262.721
G1 F1200.0
G1 E261.721
G1 F900.0
M103
G1 X-9.8 Y-9.05 Z2.3 F450.0
G1 X-9.8 Y-9.35 Z2.3 F150.0
;M108 R30.0
G1 X6.62 Y8.49 Z2.3 F3300.0
G1 F1200.0
G1 E262.721
G1 F3300.0
M101
G1 X7.2 Y9.12 Z2.3 F1800.0 E262.765
M73 P29 (display progress)
G1 X6.8 Y9.12 Z2.3 F900.0 E262.806
G1 X6.4 Y9.12 Z2.3 F1500.0 E262.831
G1 X6.0 Y9.12 Z2.3 F1800.0 E262.851
G1 X4.0 Y9.12 Z2.3 F1800.0 E262.954
G1 X2.13 Y6.14 Z2.3 F1800.0 E263.134
G1 X2.13 Y5.86 Z2.3 F1800.0 E263.148
G1 X5.87 Y2.14 Z2.3 F1800.0 E263.418
G1 X5.87 Y1.86 Z2.3 F1800.0 E263.433
G1 X2.13 Y-1.86 Z2.3 F1800.0 E263.703
G1 X2.13 Y-2.14 Z2.3 F1800.0 E263.717
G1 X5.87 Y-5.86 Z2.3 F1800.0 E263.987
G1 X5.87 Y-6.14 Z2.3 F1800.0 E264.002
G1 X7.2 Y-9.12 Z2.3 F1800.0 E264.169
G1 X-0.4 Y-9.12 Z2.3 F1800.0 E264.558
G1 X-1.87 Y-6.14 Z2.3 F1800.0 E264.728
G1 X-1.87 Y-5.86 Z2.3 F1800.0 E264.742
G1 X1.87 Y-2.14 Z2.3 F1800.0 E265.012
G1 X1.87 Y-1.86 Z2.3 F1800.0 E265.027
G1 X-1.87 Y1.86 Z2.3 F1800.0 E265.297
G1 X-1.87 Y2.14 Z2.3 F1800.0 E265.311
G1 X1.87 Y5.86 Z2.3 F1800.0 E265.581
G1 X1.87 Y6.14 Z2.3 F1800.0 E265.596
G1 X3.6 Y9.12 Z2.3 F1800.0 E265.772
G1 X-4.4 Y9.12 Z2.3 F1800.0 E266.181
G1 X-5.87 Y6.14 Z2.3 F1800.0 E266.351
G1 X-5.87 Y5.86 Z2.3 F1800.0 E266.366
G1 X-2.13 Y2.14 Z2.3 F1800.0 E266.636
G1 X-2.13 Y1.86 Z2.3 F1800.0 E266.65
G1 X-5.87 Y-1.86 Z2.3 F1800.0 E266.921
G1 X-5.87 Y-2.14 Z2.3 F1800.0 E266.935
G1 X-2.13 Y-5.86 Z2.3 F1800.0 E267.205
G1 X-2.13 Y-6.14 Z2.3 F1800.0 E267.219
G1 X-0.8 Y-9.12 Z2.3 F1800.0 E267.386
G1 X-3.2 Y-9.12 Z2.3 F1800.0 E267.509
G1 F1200.0
G1 E266.509
G1 F1800.0
M103
G1 X-3.8 Y-9.12 Z2.3 F900.0
G1 X-4.4 Y-9.12 Z2.3 F300.0
G1 X7.83 Y-9.12 Z2.3 F3300.0
G1 F1200.0
G1 E267.509
G1 F3300.0
M101
G1 X8.4 Y-9.12 Z2.3 F1800.0 E267.538
G1 X8.0 Y-9.12 Z2.3 F900.0 E267.579
G1 X7.6 Y-9.12 Z2.3 F1500.0 E267.604
G1 X7.42 Y-8.76 Z2.3 F1800.0 E267.624
G1 X6.13 Y-6.14 Z2.3 F1800.0 E267.774
G1 X6.13 Y2.14 Z2.3 F1800.0 E268.198
G1 X7.6 Y9.12 Z2.3 F1800.0 E268.563
G1 X8.8 Y9.12 Z2.3 F1800.0 E268.624
M73 P30 (display progress)
G1 X8.8 Y-7.92 Z2.3 F1800.0 E269.496
G1 F1200.0
G1 E268.496
G1 F1800.0
M103
G1 X8.8 Y-8.52 Z2.3 F900.0
G1 X8.8 Y-9.12 Z2.3 F300.0
G1 X-7.81 Y8.5 Z2.3 F3300.0
G1 F1200.0
G1 E269.496
G1 F3300.0
M101
G1 X-8.4 Y9.12 Z2.3 F1800.0 E269.54
G1 X-8.0 Y9.12 Z2.3 F900.0 E269.581
G1 X-7.6 Y9.12 Z2.3 F1500.0 E269.605
G1 X-7.2 Y9.12 Z2.3 F1800.0 E269.626
G1 X-4.8 Y9.12 Z2.3 F1800.0 E269.749
G1 X-6.13 Y6.14 Z2.3 F1800.0 E269.916
G1 X-6.13 Y-2.14 Z2.3 F1800.0 E270.339
G1 X-4.8 Y-9.12 Z2.3 F1800.0 E270.703
G1 X-8.8 Y-9.12 Z2.3 F1800.0 E270.908
G1 X-8.8 Y7.92 Z2.3 F1800.0 E271.78
G1 F1200.0
G1 E270.78
G1 F1800.0
M103
G1 X-8.8 Y8.52 Z2.3 F900.0
G1 X-8.8 Y9.12 Z2.3 F300.0
G1 X-9.38 Y-8.33 Z2.55 F3300.0
G1 F1200.0
G1 E271.78
G1 F3300.0
M101
G1 X-9.4 Y-9.04 Z2.57 F1800.0 E271.816
G1 X-9.4 Y-9.4 Z2.57 F834.0 E271.856
G1 X-9.36 Y-9.4 Z2.57 F900.0 E271.86
G1 X-8.96 Y-9.4 Z2.57 F1500.0 E271.885
G1 X-8.56 Y-9.4 Z2.57 F1800.0 E271.905
G1 X9.4 Y-9.4 Z2.57 F1800.0 E272.824
G1 X9.4 Y9.4 Z2.57 F1800.0 E273.786
G1 X-9.4 Y9.4 Z2.57 F1800.0 E274.748
G1 X-9.4 Y-7.84 Z2.57 F1800.0 E275.631
G1 F1200.0
G1 E275.366
G1 F1800.0
M103
G1 X-9.4 Y-8.44 Z2.57 F900.0
G1 X-9.4 Y-9.04 Z2.57 F300.0
;M108 R15.0
G1 X-9.8 Y-9.04 Z2.57 F3300.0
G1 F1200.0
G1 E275.631
G1 F3300.0
M73 P31 (display progress)
M101
G1 X-9.8 Y-9.24 Z2.57 F900.0 E275.641
G1 X-9.8 Y-9.4 Z2.57 F1368.0 E275.646
G1 X-9.8 Y-9.44 Z2.57 F1500.0 E275.648
G1 X-9.8 Y-9.64 Z2.57 F1800.0 E275.653
G1 X-9.8 Y-9.8 Z2.57 F1800.0 E275.657
G1 X9.8 Y-9.8 Z2.57 F900.0 E276.66
G1 X9.8 Y9.8 Z2.57 F900.0 E277.663
G1 X-9.8 Y9.8 Z2.57 F900.0 E278.666
G1 X-9.8 Y-8.44 Z2.57 F900.0 E279.599
G1 F1200.0
G1 E279.599
G1 F900.0
M103
G1 X-9.8 Y-8.74 Z2.57 F450.0
G1 X-9.8 Y-9.04 Z2.57 F150.0
;M108 R30.0
G1 X-9.16 Y-8.44 Z2.57 F3300.0
G1 F1200.0
G1 E279.599
G1 F3300.0
M101
G1 X-9.12 Y-8.4 Z2.57 F1800.0 E279.602
G1 X-9.12 Y-8.0 Z2.57 F900.0 E279.643
G1 X-9.12 Y-7.6 Z2.57 F1500.0 E279.668
G1 X-9.12 Y-7.2 Z2.57 F1800.0 E279.688
G1 X-9.12 Y-4.8 Z2.57 F1800.0 E279.811
G1 X-2.14 Y-6.13 Z2.57 F1800.0 E280.175
G1 X6.14 Y-6.13 Z2.57 F1800.0 E280.598
G1 X9.12 Y-4.8 Z2.57 F1800.0 E280.765
G1 X9.12 Y-8.8 Z2.57 F1800.0 E280.97
G1 X-7.92 Y-8.8 Z2.57 F1800.0 E281.842
G1 F1200.0
G1 E280.842
G1 F1800.0
M103
G1 X-8.52 Y-8.8 Z2.57 F900.0
G1 X-9.12 Y-8.8 Z2.57 F300.0
G1 X8.49 Y6.64 Z2.57 F3300.0
G1 F1200.0
G1 E281.842
G1 F3300.0
M101
G1 X9.12 Y7.2 Z2.57 F1800.0 E281.885
G1 X9.12 Y6.8 Z2.57 F900.0 E281.926
G1 X9.12 Y6.4 Z2.57 F1500.0 E281.951
G1 X9.12 Y6.0 Z2.57 F1800.0 E281.971
G1 X9.12 Y4.0 Z2.57 F1800.0 E282.073
G1 X6.14 Y2.13 Z2.57 F1800.0 E282.253
G1 X5.86 Y2.13 Z2.57 F1800.0 E282.268
G1 X2.14 Y5.87 Z2.57 F1800.0 E282.538
G1 X1.86 Y5.87 Z2.57 F1800.0 E282.552
G1 X-1.86 Y2.13 Z2.57 F1800.0 E282.823
M73 P32 (display progress)
G1 X-2.14 Y2.13 Z2.57 F1800.0 E282.837
G1 X-5.86 Y5.87 Z2.57 F1800.0 E283.107
G1 X-6.14 Y5.87 Z2.57 F1800.0 E283.121
G1 X-9.12 Y7.2 Z2.57 F1800.0 E283.288
G1 X-9.12 Y-0.4 Z2.57 F1800.0 E283.677
G1 X-6.14 Y-1.87 Z2.57 F1800.0 E283.847
G1 X-5.86 Y-1.87 Z2.57 F1800.0 E283.862
G1 X-2.14 Y1.87 Z2.57 F1800.0 E284.132
G1 X-1.86 Y1.87 Z2.57 F1800.0 E284.146
G1 X1.86 Y-1.87 Z2.57 F1800.0 E284.417
G1 X2.14 Y-1.87 Z2.57 F1800.0 E284.431
G1 X5.86 Y1.87 Z2.57 F1800.0 E284.701
G1 X6.14 Y1.87 Z2.57 F1800.0 E284.715
G1 X9.12 Y3.6 Z2.57 F1800.0 E284.892
G1 X9.12 Y-4.4 Z2.57 F1800.0 E285.301
G1 X6.14 Y-5.87 Z2.57 F1800.0 E285.471
G1 X5.86 Y-5.87 Z2.57 F1800.0 E285.486
G1 X2.14 Y-2.13 Z2.57 F1800.0 E285.756
G1 X1.86 Y-2.13 Z2.57 F1800.0 E285.77
G1 X-1.86 Y-5.87 Z2.57 F1800.0 E286.04
G1 X-2.14 Y-5.87 Z2.57 F1800.0 E286.055
G1 X-5.86 Y-2.13 Z2.57 F1800.0 E286.325
G1 X-6.14 Y-2.13 Z2.57 F1800.0 E286.339
G1 X-9.12 Y-0.8 Z2.57 F1800.0 E286.506
G1 X-9.12 Y-3.2 Z2.57 F1800.0 E286.629
G1 F1200.0
G1 E285.629
G1 F1800.0
M103
G1 X-9.12 Y-3.8 Z2.57 F900.0
G1 X-9.12 Y-4.4 Z2.57 F300.0
G1 X8.46 Y7.94 Z2.57 F3300.0
G1 F1200.0
G1 E286.629
G1 F3300.0
M101
G1 X9.12 Y8.4 Z2.57 F1800.0 E286.67
G1 X9.12 Y8.0 Z2.57 F900.0 E286.711
G1 X9.12 Y7.6 Z2.57 F1500.0 E286.736
G1 X8.73 Y7.52 Z2.57 F1800.0 E286.756
G1 X2.14 Y6.13 Z2.57 F1800.0 E287.101
G1 X-6.14 Y6.13 Z2.57 F1800.0 E287.525
G1 X-9.12 Y7.6 Z2.57 F1800.0 E287.695
G1 X-9.12 Y8.8 Z2.57 F1800.0 E287.756
G1 X7.92 Y8.8 Z2.57 F1800.0 E288.628
G1 F1200.0
G1 E287.628
G1 F1800.0
M103
G1 X8.52 Y8.8 Z2.57 F900.0
G1 X9.12 Y8.8 Z2.57 F300.0
G1 X-8.64 Y-8.79 Z2.83 F3300.0
G1 F1200.0
G1 E288.628
M73 P33 (display progress)
G1 F3300.0
M101
G1 X-9.26 Y-9.4 Z2.84 F1800.0 E288.673
G1 X-8.86 Y-9.4 Z2.84 F900.0 E288.714
G1 X-8.46 Y-9.4 Z2.84 F1500.0 E288.738
G1 X-8.06 Y-9.4 Z2.84 F1800.0 E288.759
G1 X9.4 Y-9.4 Z2.84 F1800.0 E289.652
G1 X9.4 Y9.4 Z2.84 F1800.0 E290.614
G1 X-9.4 Y9.4 Z2.84 F1800.0 E291.576
G1 X-9.4 Y-8.34 Z2.84 F1800.0 E292.484
G1 F1200.0
G1 E292.219
G1 F1800.0
M103
G1 X-9.4 Y-8.94 Z2.84 F900.0
G1 X-9.4 Y-9.4 Z2.84 F439.0
G1 X-9.26 Y-9.4 Z2.84 F300.0
;M108 R15.0
G1 X-9.8 Y-9.54 Z2.84 F3300.0
G1 F1200.0
G1 E292.484
G1 F3300.0
M101
G1 X-9.8 Y-9.74 Z2.84 F900.0 E292.494
G1 X-9.8 Y-9.8 Z2.84 F1083.0 E292.497
G1 X-9.66 Y-9.8 Z2.84 F1500.0 E292.501
G1 X-9.46 Y-9.8 Z2.84 F1800.0 E292.506
G1 X9.8 Y-9.8 Z2.84 F1800.0 E292.999
G1 X9.8 Y9.8 Z2.84 F900.0 E294.002
G1 X-9.8 Y9.8 Z2.84 F900.0 E295.005
G1 X-9.8 Y-8.94 Z2.84 F900.0 E295.964
G1 F1200.0
G1 E294.964
G1 F900.0
M103
G1 X-9.8 Y-9.24 Z2.84 F450.0
G1 X-9.8 Y-9.4 Z2.84 F289.0
G1 X-9.8 Y-9.54 Z2.84 F150.0
;M108 R30.0
G1 X6.62 Y8.48 Z2.84 F3300.0
G1 F1200.0
G1 E295.964
G1 F3300.0
M101
G1 X7.2 Y9.12 Z2.84 F1800.0 E296.008
G1 X6.8 Y9.12 Z2.84 F900.0 E296.049
G1 X6.4 Y9.12 Z2.84 F1500.0 E296.074
G1 X6.0 Y9.12 Z2.84 F1800.0 E296.094
G1 X4.0 Y9.12 Z2.84 F1800.0 E296.197
G1 X2.13 Y6.14 Z2.84 F1800.0 E296.377
G1 X2.13 Y5.86 Z2.84 F1800.0 E296.391
G1 X5.87 Y2.14 Z2.84 F1800.0 E296.661
G1 X5.87 Y1.86 Z2.84 F1800.0 E296.676
M73 P34 (display progress)
G1 X2.13 Y-1.86 Z2.84 F1800.0 E296.946
G1 X2.13 Y-2.14 Z2.84 F1800.0 E296.96
G1 X5.87 Y-5.86 Z2.84 F1800.0 E297.23
G1 X5.87 Y-6.14 Z2.84 F1800.0 E297.245
G1 X7.2 Y-9.12 Z2.84 F1800.0 E297.412
G1 X-0.4 Y-9.12 Z2.84 F1800.0 E297.801
G1 X-1.87 Y-6.14 Z2.84 F1800.0 E297.971
G1 X-1.87 Y-5.86 Z2.84 F1800.0 E297.985
G1 X1.87 Y-2.14 Z2.84 F1800.0 E298.255
G1 X1.87 Y-1.86 Z2.84 F1800.0 E298.27
G1 X-1.87 Y1.86 Z2.84 F1800.0 E298.54
G1 X-1.87 Y2.14 Z2.84 F1800.0 E298.554
G1 X1.87 Y5.86 Z2.84 F1800.0 E298.824
G1 X1.87 Y6.14 Z2.84 F1800.0 E298.839
G1 X3.6 Y9.12 Z2.84 F1800.0 E299.015
G1 X-4.4 Y9.12 Z2.84 F1800.0 E299.424
G1 X-5.87 Y6.14 Z2.84 F1800.0 E299.594
G1 X-5.87 Y5.86 Z2.84 F1800.0 E299.609
G1 X-2.13 Y2.14 Z2.84 F1800.0 E299.879
G1 X-2.13 Y1.86 Z2.84 F1800.0 E299.893
G1 X-5.87 Y-1.86 Z2.84 F1800.0 E300.164
G1 X-5.87 Y-2.14 Z2.84 F1800.0 E300.178
G1 X-2.13 Y-5.86 Z2.84 F1800.0 E300.448
G1 X-2.13 Y-6.14 Z2.84 F1800.0 E300.462
G1 X-0.8 Y-9.12 Z2.84 F1800.0 E300.629
G1 X-3.2 Y-9.12 Z2.84 F1800.0 E300.752
G1 F1200.0
G1 E299.752
G1 F1800.0
M103
G1 X-3.8 Y-9.12 Z2.84 F900.0
G1 X-4.4 Y-9.12 Z2.84 F300.0
G1 X7.83 Y-9.12 Z2.84 F3300.0
G1 F1200.0
G1 E300.752
G1 F3300.0
M101
G1 X8.4 Y-9.12 Z2.84 F1800.0 E300.781
G1 X8.0 Y-9.12 Z2.84 F900.0 E300.822
G1 X7.6 Y-9.12 Z2.84 F1500.0 E300.847
G1 X7.42 Y-8.76 Z2.84 F1800.0 E300.867
G1 X6.13 Y-6.14 Z2.84 F1800.0 E301.017
G1 X6.13 Y2.14 Z2.84 F1800.0 E301.441
G1 X7.6 Y9.12 Z2.84 F1800.0 E301.806
G1 X8.8 Y9.12 Z2.84 F1800.0 E301.867
G1 X8.8 Y-7.92 Z2.84 F1800.0 E302.739
G1 F1200.0
G1 E301.739
G1 F1800.0
M103
G1 X8.8 Y-8.52 Z2.84 F900.0
G1 X8.8 Y-9.12 Z2.84 F300.0
G1 X-7.81 Y8.5 Z2.84 F3300.0
M73 P35 (display progress)
G1 F1200.0
G1 E302.739
G1 F3300.0
M101
G1 X-8.4 Y9.12 Z2.84 F1800.0 E302.783
G1 X-8.0 Y9.12 Z2.84 F900.0 E302.824
G1 X-7.6 Y9.12 Z2.84 F1500.0 E302.848
G1 X-7.2 Y9.12 Z2.84 F1800.0 E302.869
G1 X-4.8 Y9.12 Z2.84 F1800.0 E302.992
G1 X-6.13 Y6.14 Z2.84 F1800.0 E303.159
G1 X-6.13 Y-2.14 Z2.84 F1800.0 E303.582
G1 X-4.8 Y-9.12 Z2.84 F1800.0 E303.946
G1 X-8.8 Y-9.12 Z2.84 F1800.0 E304.151
G1 X-8.8 Y7.92 Z2.84 F1800.0 E305.023
G1 F1200.0
G1 E304.023
G1 F1800.0
M103
G1 X-8.8 Y8.52 Z2.84 F900.0
G1 X-8.8 Y9.12 Z2.84 F300.0
G1 X-9.38 Y-8.51 Z3.09 F3300.0
G1 F1200.0
G1 E305.023
G1 F3300.0
M101
G1 X-9.4 Y-9.23 Z3.11 F1800.0 E305.06
G1 X-9.4 Y-9.4 Z3.11 F550.5 E305.087
G1 X-9.17 Y-9.4 Z3.11 F900.0 E305.111
G1 X-8.77 Y-9.4 Z3.11 F1500.0 E305.136
G1 X-8.37 Y-9.4 Z3.11 F1800.0 E305.156
G1 X9.4 Y-9.4 Z3.11 F1800.0 E306.066
G1 X9.4 Y9.4 Z3.11 F1800.0 E307.028
G1 X-9.4 Y9.4 Z3.11 F1800.0 E307.99
G1 X-9.4 Y-8.03 Z3.11 F1800.0 E308.882
G1 F1200.0
G1 E308.617
G1 F1800.0
M103
G1 X-9.4 Y-8.63 Z3.11 F900.0
G1 X-9.4 Y-9.23 Z3.11 F300.0
;M108 R15.0
G1 X-9.8 Y-9.23 Z3.11 F3300.0
G1 F1200.0
G1 E308.882
G1 F3300.0
M101
G1 X-9.8 Y-9.4 Z3.11 F801.0 E308.891
G1 X-9.8 Y-9.63 Z3.11 F1500.0 E308.899
G1 X-9.8 Y-9.8 Z3.11 F1800.0 E308.903
G1 X9.8 Y-9.8 Z3.11 F1800.0 E309.404
G1 X9.8 Y9.8 Z3.11 F900.0 E310.407
G1 X-9.8 Y9.8 Z3.11 F900.0 E311.41
G1 X-9.8 Y-8.63 Z3.11 F900.0 E312.354
M73 P36 (display progress)
G1 F1200.0
G1 E312.354
G1 F900.0
M103
G1 X-9.8 Y-8.93 Z3.11 F450.0
G1 X-9.8 Y-9.23 Z3.11 F150.0
;M108 R30.0
G1 X-9.16 Y-8.45 Z3.11 F3300.0
G1 F1200.0
G1 E312.354
G1 F3300.0
M101
G1 X-9.12 Y-8.4 Z3.11 F1800.0 E312.357
G1 X-9.12 Y-8.0 Z3.11 F900.0 E312.398
G1 X-9.12 Y-7.6 Z3.11 F1500.0 E312.422
G1 X-9.12 Y-7.2 Z3.11 F1800.0 E312.443
G1 X-9.12 Y-4.8 Z3.11 F1800.0 E312.566
G1 X-2.14 Y-6.13 Z3.11 F1800.0 E312.929
G1 X6.14 Y-6.13 Z3.11 F1800.0 E313.353
G1 X9.12 Y-4.8 Z3.11 F1800.0 E313.52
G1 X9.12 Y-8.8 Z3.11 F1800.0 E313.725
G1 X-7.92 Y-8.8 Z3.11 F1800.0 E314.597
G1 F1200.0
G1 E313.597
G1 F1800.0
M103
G1 X-8.52 Y-8.8 Z3.11 F900.0
G1 X-9.12 Y-8.8 Z3.11 F300.0
G1 X8.49 Y6.64 Z3.11 F3300.0
G1 F1200.0
G1 E314.597
G1 F3300.0
M101
G1 X9.12 Y7.2 Z3.11 F1800.0 E314.64
G1 X9.12 Y6.8 Z3.11 F900.0 E314.681
G1 X9.12 Y6.4 Z3.11 F1500.0 E314.705
G1 X9.12 Y6.0 Z3.11 F1800.0 E314.726
G1 X9.12 Y4.0 Z3.11 F1800.0 E314.828
G1 X6.14 Y2.13 Z3.11 F1800.0 E315.008
G1 X5.86 Y2.13 Z3.11 F1800.0 E315.023
G1 X2.14 Y5.87 Z3.11 F1800.0 E315.293
G1 X1.86 Y5.87 Z3.11 F1800.0 E315.307
G1 X-1.86 Y2.13 Z3.11 F1800.0 E315.577
G1 X-2.14 Y2.13 Z3.11 F1800.0 E315.592
G1 X-5.86 Y5.87 Z3.11 F1800.0 E315.862
G1 X-6.14 Y5.87 Z3.11 F1800.0 E315.876
G1 X-9.12 Y7.2 Z3.11 F1800.0 E316.043
G1 X-9.12 Y-0.4 Z3.11 F1800.0 E316.432
G1 X-6.14 Y-1.87 Z3.11 F1800.0 E316.602
G1 X-5.86 Y-1.87 Z3.11 F1800.0 E316.617
G1 X-2.14 Y1.87 Z3.11 F1800.0 E316.887
G1 X-1.86 Y1.87 Z3.11 F1800.0 E316.901
G1 X1.86 Y-1.87 Z3.11 F1800.0 E317.171
G1 X2.14 Y-1.87 Z3.11 F1800.0 E317.186
M73 P37 (display progress)
G1 X5.86 Y1.87 Z3.11 F1800.0 E317.456
G1 X6.14 Y1.87 Z3.11 F1800.0 E317.47
G1 X9.12 Y3.6 Z3.11 F1800.0 E317.647
G1 X9.12 Y-4.4 Z3.11 F1800.0 E318.056
G1 X6.14 Y-5.87 Z3.11 F1800.0 E318.226
G1 X5.86 Y-5.87 Z3.11 F1800.0 E318.24
G1 X2.14 Y-2.13 Z3.11 F1800.0 E318.511
G1 X1.86 Y-2.13 Z3.11 F1800.0 E318.525
G1 X-1.86 Y-5.87 Z3.11 F1800.0 E318.795
G1 X-2.14 Y-5.87 Z3.11 F1800.0 E318.81
G1 X-5.86 Y-2.13 Z3.11 F1800.0 E319.08
G1 X-6.14 Y-2.13 Z3.11 F1800.0 E319.094
G1 X-9.12 Y-0.8 Z3.11 F1800.0 E319.261
G1 X-9.12 Y-3.2 Z3.11 F1800.0 E319.384
G1 F1200.0
G1 E318.384
G1 F1800.0
M103
G1 X-9.12 Y-3.8 Z3.11 F900.0
G1 X-9.12 Y-4.4 Z3.11 F300.0
G1 X8.46 Y7.94 Z3.11 F3300.0
G1 F1200.0
G1 E319.384
G1 F3300.0
M101
G1 X9.12 Y8.4 Z3.11 F1800.0 E319.425
G1 X9.12 Y8.0 Z3.11 F900.0 E319.466
G1 X9.12 Y7.6 Z3.11 F1500.0 E319.491
G1 X8.73 Y7.52 Z3.11 F1800.0 E319.511
G1 X2.14 Y6.13 Z3.11 F1800.0 E319.856
G1 X-6.14 Y6.13 Z3.11 F1800.0 E320.279
G1 X-9.12 Y7.6 Z3.11 F1800.0 E320.45
G1 X-9.12 Y8.8 Z3.11 F1800.0 E320.511
G1 X7.92 Y8.8 Z3.11 F1800.0 E321.383
G1 F1200.0
G1 E320.383
G1 F1800.0
M103
G1 X8.52 Y8.8 Z3.11 F900.0
G1 X9.12 Y8.8 Z3.11 F300.0
G1 X-8.77 Y-8.33 Z3.37 F3300.0
G1 F1200.0
G1 E321.383
G1 F3300.0
M101
G1 X-9.4 Y-8.93 Z3.38 F1800.0 E321.427
G1 X-9.4 Y-9.33 Z3.38 F900.0 E321.468
G1 X-9.4 Y-9.4 Z3.38 F1008.0 E321.475
G1 X-9.07 Y-9.4 Z3.38 F1500.0 E321.495
G1 X-8.67 Y-9.4 Z3.38 F1800.0 E321.515
G1 X9.4 Y-9.4 Z3.38 F1800.0 E322.44
G1 X9.4 Y9.4 Z3.38 F1800.0 E323.402
G1 X-9.4 Y9.4 Z3.38 F1800.0 E324.364
M73 P38 (display progress)
G1 X-9.4 Y-7.73 Z3.38 F1800.0 E325.241
G1 F1200.0
G1 E324.976
G1 F1800.0
M103
G1 X-9.4 Y-8.33 Z3.38 F900.0
G1 X-9.4 Y-8.93 Z3.38 F300.0
;M108 R15.0
G1 X-9.8 Y-8.93 Z3.38 F3300.0
G1 F1200.0
G1 E325.241
G1 F3300.0
M101
G1 X-9.8 Y-9.13 Z3.38 F900.0 E325.251
G1 X-9.8 Y-9.33 Z3.38 F1500.0 E325.257
G1 X-9.8 Y-9.4 Z3.38 F1716.0 E325.259
G1 X-9.8 Y-9.53 Z3.38 F1800.0 E325.262
G1 X-9.8 Y-9.8 Z3.38 F1800.0 E325.269
G1 X9.8 Y-9.8 Z3.38 F900.0 E326.272
G1 X9.8 Y9.8 Z3.38 F900.0 E327.275
G1 X-9.8 Y9.8 Z3.38 F900.0 E328.278
G1 X-9.8 Y-8.33 Z3.38 F900.0 E329.206
G1 F1200.0
G1 E328.206
G1 F900.0
M103
G1 X-9.8 Y-8.63 Z3.38 F450.0
G1 X-9.8 Y-8.93 Z3.38 F150.0
;M108 R30.0
G1 X6.62 Y8.5 Z3.38 F3300.0
G1 F1200.0
G1 E329.206
G1 F3300.0
M101
G1 X7.2 Y9.12 Z3.38 F1800.0 E329.25
G1 X6.8 Y9.12 Z3.38 F900.0 E329.291
G1 X6.4 Y9.12 Z3.38 F1500.0 E329.315
G1 X6.0 Y9.12 Z3.38 F1800.0 E329.336
G1 X4.0 Y9.12 Z3.38 F1800.0 E329.438
G1 X2.13 Y6.14 Z3.38 F1800.0 E329.618
G1 X2.13 Y5.86 Z3.38 F1800.0 E329.633
G1 X5.87 Y2.14 Z3.38 F1800.0 E329.903
G1 X5.87 Y1.86 Z3.38 F1800.0 E329.917
G1 X2.13 Y-1.86 Z3.38 F1800.0 E330.187
G1 X2.13 Y-2.14 Z3.38 F1800.0 E330.202
G1 X5.87 Y-5.86 Z3.38 F1800.0 E330.472
G1 X5.87 Y-6.14 Z3.38 F1800.0 E330.486
G1 X7.2 Y-9.12 Z3.38 F1800.0 E330.653
G1 X-0.4 Y-9.12 Z3.38 F1800.0 E331.042
G1 X-1.87 Y-6.14 Z3.38 F1800.0 E331.212
G1 X-1.87 Y-5.86 Z3.38 F1800.0 E331.227
G1 X1.87 Y-2.14 Z3.38 F1800.0 E331.497
G1 X1.87 Y-1.86 Z3.38 F1800.0 E331.511
M73 P39 (display progress)
G1 X-1.87 Y1.86 Z3.38 F1800.0 E331.781
G1 X-1.87 Y2.14 Z3.38 F1800.0 E331.796
G1 X1.87 Y5.86 Z3.38 F1800.0 E332.066
G1 X1.87 Y6.14 Z3.38 F1800.0 E332.08
G1 X3.6 Y9.12 Z3.38 F1800.0 E332.257
G1 X-4.4 Y9.12 Z3.38 F1800.0 E332.666
G1 X-5.87 Y6.14 Z3.38 F1800.0 E332.836
G1 X-5.87 Y5.86 Z3.38 F1800.0 E332.85
G1 X-2.13 Y2.14 Z3.38 F1800.0 E333.121
G1 X-2.13 Y1.86 Z3.38 F1800.0 E333.135
G1 X-5.87 Y-1.86 Z3.38 F1800.0 E333.405
G1 X-5.87 Y-2.14 Z3.38 F1800.0 E333.42
G1 X-2.13 Y-5.86 Z3.38 F1800.0 E333.69
G1 X-2.13 Y-6.14 Z3.38 F1800.0 E333.704
G1 X-0.8 Y-9.12 Z3.38 F1800.0 E333.871
G1 X-3.2 Y-9.12 Z3.38 F1800.0 E333.994
G1 F1200.0
G1 E332.994
G1 F1800.0
M103
G1 X-3.8 Y-9.12 Z3.38 F900.0
G1 X-4.4 Y-9.12 Z3.38 F300.0
G1 X7.83 Y-9.12 Z3.38 F3300.0
G1 F1200.0
G1 E333.994
G1 F3300.0
M101
G1 X8.4 Y-9.12 Z3.38 F1800.0 E334.023
G1 X8.0 Y-9.12 Z3.38 F900.0 E334.064
G1 X7.6 Y-9.12 Z3.38 F1500.0 E334.088
G1 X7.42 Y-8.76 Z3.38 F1800.0 E334.109
G1 X6.13 Y-6.14 Z3.38 F1800.0 E334.258
G1 X6.13 Y2.14 Z3.38 F1800.0 E334.682
G1 X7.6 Y9.12 Z3.38 F1800.0 E335.047
G1 X8.8 Y9.12 Z3.38 F1800.0 E335.109
G1 X8.8 Y-7.92 Z3.38 F1800.0 E335.981
G1 F1200.0
G1 E334.981
G1 F1800.0
M103
G1 X8.8 Y-8.52 Z3.38 F900.0
G1 X8.8 Y-9.12 Z3.38 F300.0
G1 X-7.81 Y8.5 Z3.38 F3300.0
G1 F1200.0
G1 E335.981
G1 F3300.0
M101
G1 X-8.4 Y9.12 Z3.38 F1800.0 E336.025
G1 X-8.0 Y9.12 Z3.38 F900.0 E336.066
G1 X-7.6 Y9.12 Z3.38 F1500.0 E336.09
G1 X-7.2 Y9.12 Z3.38 F1800.0 E336.111
G1 X-4.8 Y9.12 Z3.38 F1800.0 E336.233
G1 X-6.13 Y6.14 Z3.38 F1800.0 E336.4
M73 P40 (display progress)
G1 X-6.13 Y-2.14 Z3.38 F1800.0 E336.824
G1 X-4.8 Y-9.12 Z3.38 F1800.0 E337.188
G1 X-8.8 Y-9.12 Z3.38 F1800.0 E337.392
G1 X-8.8 Y7.92 Z3.38 F1800.0 E338.264
G1 F1200.0
G1 E337.264
G1 F1800.0
M103
G1 X-8.8 Y8.52 Z3.38 F900.0
G1 X-8.8 Y9.12 Z3.38 F300.0
G1 X-9.36 Y-8.68 Z3.63 F3300.0
G1 F1200.0
G1 E338.264
G1 F3300.0
M101
G1 X-9.38 Y-9.4 Z3.65 F1800.0 E338.301
G1 X-8.98 Y-9.4 Z3.65 F900.0 E338.342
G1 X-8.58 Y-9.4 Z3.65 F1500.0 E338.367
G1 X-8.18 Y-9.4 Z3.65 F1800.0 E338.387
G1 X9.4 Y-9.4 Z3.65 F1800.0 E339.287
G1 X9.4 Y9.4 Z3.65 F1800.0 E340.249
G1 X-9.4 Y9.4 Z3.65 F1800.0 E341.211
G1 X-9.4 Y-8.22 Z3.65 F1800.0 E342.113
G1 F1200.0
G1 E341.848
G1 F1800.0
M103
G1 X-9.4 Y-8.82 Z3.65 F900.0
G1 X-9.4 Y-9.4 Z3.65 F322.0
;M108 R15.0
G1 X-9.8 Y-9.42 Z3.65 F3300.0
G1 F1200.0
G1 E342.113
G1 F3300.0
M101
G1 X-9.8 Y-9.62 Z3.65 F900.0 E342.123
G1 X-9.8 Y-9.8 Z3.65 F1434.0 E342.129
G1 X-9.58 Y-9.8 Z3.65 F1800.0 E342.134
G1 X9.8 Y-9.8 Z3.65 F1800.0 E342.63
G1 X9.8 Y9.8 Z3.65 F900.0 E343.633
G1 X-9.8 Y9.8 Z3.65 F900.0 E344.636
G1 X-9.8 Y-8.82 Z3.65 F900.0 E345.589
G1 F1200.0
G1 E345.589
G1 F900.0
M103
G1 X-9.8 Y-9.12 Z3.65 F450.0
G1 X-9.8 Y-9.4 Z3.65 F172.0
;M108 R30.0
G1 X-9.16 Y-8.46 Z3.65 F3300.0
G1 F1200.0
G1 E345.589
G1 F3300.0
M101
M73 P41 (display progress)
G1 X-9.12 Y-8.4 Z3.65 F1800.0 E345.593
G1 X-9.12 Y-8.0 Z3.65 F900.0 E345.634
G1 X-9.12 Y-7.6 Z3.65 F1500.0 E345.658
G1 X-9.12 Y-7.2 Z3.65 F1800.0 E345.679
G1 X-9.12 Y-4.8 Z3.65 F1800.0 E345.802
G1 X-2.14 Y-6.13 Z3.65 F1800.0 E346.165
G1 X6.14 Y-6.13 Z3.65 F1800.0 E346.589
G1 X9.12 Y-4.8 Z3.65 F1800.0 E346.756
G1 X9.12 Y-8.8 Z3.65 F1800.0 E346.961
G1 X-7.92 Y-8.8 Z3.65 F1800.0 E347.833
G1 F1200.0
G1 E346.833
G1 F1800.0
M103
G1 X-8.52 Y-8.8 Z3.65 F900.0
G1 X-9.12 Y-8.8 Z3.65 F300.0
G1 X8.49 Y6.64 Z3.65 F3300.0
G1 F1200.0
G1 E347.833
G1 F3300.0
M101
G1 X9.12 Y7.2 Z3.65 F1800.0 E347.876
G1 X9.12 Y6.8 Z3.65 F900.0 E347.917
G1 X9.12 Y6.4 Z3.65 F1500.0 E347.941
G1 X9.12 Y6.0 Z3.65 F1800.0 E347.962
G1 X9.12 Y4.0 Z3.65 F1800.0 E348.064
G1 X6.14 Y2.13 Z3.65 F1800.0 E348.244
G1 X5.86 Y2.13 Z3.65 F1800.0 E348.259
G1 X2.14 Y5.87 Z3.65 F1800.0 E348.529
G1 X1.86 Y5.87 Z3.65 F1800.0 E348.543
G1 X-1.86 Y2.13 Z3.65 F1800.0 E348.813
G1 X-2.14 Y2.13 Z3.65 F1800.0 E348.828
G1 X-5.86 Y5.87 Z3.65 F1800.0 E349.098
G1 X-6.14 Y5.87 Z3.65 F1800.0 E349.112
G1 X-9.12 Y7.2 Z3.65 F1800.0 E349.279
G1 X-9.12 Y-0.4 Z3.65 F1800.0 E349.668
G1 X-6.14 Y-1.87 Z3.65 F1800.0 E349.838
G1 X-5.86 Y-1.87 Z3.65 F1800.0 E349.853
G1 X-2.14 Y1.87 Z3.65 F1800.0 E350.123
G1 X-1.86 Y1.87 Z3.65 F1800.0 E350.137
G1 X1.86 Y-1.87 Z3.65 F1800.0 E350.407
G1 X2.14 Y-1.87 Z3.65 F1800.0 E350.422
G1 X5.86 Y1.87 Z3.65 F1800.0 E350.692
G1 X6.14 Y1.87 Z3.65 F1800.0 E350.706
G1 X9.12 Y3.6 Z3.65 F1800.0 E350.883
G1 X9.12 Y-4.4 Z3.65 F1800.0 E351.292
G1 X6.14 Y-5.87 Z3.65 F1800.0 E351.462
G1 X5.86 Y-5.87 Z3.65 F1800.0 E351.476
G1 X2.14 Y-2.13 Z3.65 F1800.0 E351.747
G1 X1.86 Y-2.13 Z3.65 F1800.0 E351.761
G1 X-1.86 Y-5.87 Z3.65 F1800.0 E352.031
G1 X-2.14 Y-5.87 Z3.65 F1800.0 E352.046
G1 X-5.86 Y-2.13 Z3.65 F1800.0 E352.316
M73 P42 (display progress)
G1 X-6.14 Y-2.13 Z3.65 F1800.0 E352.33
G1 X-9.12 Y-0.8 Z3.65 F1800.0 E352.497
G1 X-9.12 Y-3.2 Z3.65 F1800.0 E352.62
G1 F1200.0
G1 E351.62
G1 F1800.0
M103
G1 X-9.12 Y-3.8 Z3.65 F900.0
G1 X-9.12 Y-4.4 Z3.65 F300.0
G1 X8.46 Y7.94 Z3.65 F3300.0
G1 F1200.0
G1 E352.62
G1 F3300.0
M101
G1 X9.12 Y8.4 Z3.65 F1800.0 E352.661
G1 X9.12 Y8.0 Z3.65 F900.0 E352.702
G1 X9.12 Y7.6 Z3.65 F1500.0 E352.727
G1 X8.73 Y7.52 Z3.65 F1800.0 E352.747
G1 X2.14 Y6.13 Z3.65 F1800.0 E353.092
G1 X-6.14 Y6.13 Z3.65 F1800.0 E353.515
G1 X-9.12 Y7.6 Z3.65 F1800.0 E353.686
G1 X-9.12 Y8.8 Z3.65 F1800.0 E353.747
G1 X7.92 Y8.8 Z3.65 F1800.0 E354.619
G1 F1200.0
G1 E353.619
G1 F1800.0
M103
G1 X8.52 Y8.8 Z3.65 F900.0
G1 X9.12 Y8.8 Z3.65 F300.0
G1 X-8.78 Y-8.51 Z3.91 F3300.0
G1 F1200.0
G1 E354.619
G1 F3300.0
M101
G1 X-9.4 Y-9.12 Z3.92 F1800.0 E354.663
G1 X-9.4 Y-9.4 Z3.92 F726.0 E354.699
G1 X-9.28 Y-9.4 Z3.92 F900.0 E354.711
G1 X-8.88 Y-9.4 Z3.92 F1500.0 E354.736
G1 X-8.48 Y-9.4 Z3.92 F1800.0 E354.756
G1 X9.4 Y-9.4 Z3.92 F1800.0 E355.672
G1 X9.4 Y9.4 Z3.92 F1800.0 E356.634
G1 X-9.4 Y9.4 Z3.92 F1800.0 E357.596
G1 X-9.4 Y-7.92 Z3.92 F1800.0 E358.482
G1 F1200.0
G1 E358.217
G1 F1800.0
M103
G1 X-9.4 Y-8.52 Z3.92 F900.0
G1 X-9.4 Y-9.12 Z3.92 F300.0
;M108 R15.0
G1 X-9.8 Y-9.12 Z3.92 F3300.0
G1 F1200.0
G1 E358.482
M73 P43 (display progress)
G1 F3300.0
M101
G1 X-9.8 Y-9.32 Z3.92 F900.0 E358.492
G1 X-9.8 Y-9.4 Z3.92 F1152.0 E358.495
G1 X-9.8 Y-9.52 Z3.92 F1500.0 E358.499
G1 X-9.8 Y-9.72 Z3.92 F1800.0 E358.504
G1 X-9.8 Y-9.8 Z3.92 F1800.0 E358.506
G1 X9.8 Y-9.8 Z3.92 F900.0 E359.509
G1 X9.8 Y9.8 Z3.92 F900.0 E360.512
G1 X-9.8 Y9.8 Z3.92 F900.0 E361.515
G1 X-9.8 Y-8.52 Z3.92 F900.0 E362.453
G1 F1200.0
G1 E361.453
G1 F900.0
M103
G1 X-9.8 Y-8.82 Z3.92 F450.0
G1 X-9.8 Y-9.12 Z3.92 F150.0
;M108 R30.0
G1 X6.62 Y8.49 Z3.92 F3300.0
G1 F1200.0
G1 E362.453
G1 F3300.0
M101
G1 X7.2 Y9.12 Z3.92 F1800.0 E362.496
G1 X6.8 Y9.12 Z3.92 F900.0 E362.537
G1 X6.4 Y9.12 Z3.92 F1500.0 E362.562
G1 X6.0 Y9.12 Z3.92 F1800.0 E362.582
G1 X4.0 Y9.12 Z3.92 F1800.0 E362.685
G1 X2.13 Y6.14 Z3.92 F1800.0 E362.865
G1 X2.13 Y5.86 Z3.92 F1800.0 E362.879
G1 X5.87 Y2.14 Z3.92 F1800.0 E363.149
G1 X5.87 Y1.86 Z3.92 F1800.0 E363.164
G1 X2.13 Y-1.86 Z3.92 F1800.0 E363.434
G1 X2.13 Y-2.14 Z3.92 F1800.0 E363.448
G1 X5.87 Y-5.86 Z3.92 F1800.0 E363.719
G1 X5.87 Y-6.14 Z3.92 F1800.0 E363.733
G1 X7.2 Y-9.12 Z3.92 F1800.0 E363.9
G1 X-0.4 Y-9.12 Z3.92 F1800.0 E364.289
G1 X-1.87 Y-6.14 Z3.92 F1800.0 E364.459
G1 X-1.87 Y-5.86 Z3.92 F1800.0 E364.473
G1 X1.87 Y-2.14 Z3.92 F1800.0 E364.743
G1 X1.87 Y-1.86 Z3.92 F1800.0 E364.758
G1 X-1.87 Y1.86 Z3.92 F1800.0 E365.028
G1 X-1.87 Y2.14 Z3.92 F1800.0 E365.042
G1 X1.87 Y5.86 Z3.92 F1800.0 E365.313
G1 X1.87 Y6.14 Z3.92 F1800.0 E365.327
G1 X3.6 Y9.12 Z3.92 F1800.0 E365.503
G1 X-4.4 Y9.12 Z3.92 F1800.0 E365.912
G1 X-5.87 Y6.14 Z3.92 F1800.0 E366.083
G1 X-5.87 Y5.86 Z3.92 F1800.0 E366.097
G1 X-2.13 Y2.14 Z3.92 F1800.0 E366.367
G1 X-2.13 Y1.86 Z3.92 F1800.0 E366.381
G1 X-5.87 Y-1.86 Z3.92 F1800.0 E366.652
M73 P44 (display progress)
G1 X-5.87 Y-2.14 Z3.92 F1800.0 E366.666
G1 X-2.13 Y-5.86 Z3.92 F1800.0 E366.936
G1 X-2.13 Y-6.14 Z3.92 F1800.0 E366.951
G1 X-0.8 Y-9.12 Z3.92 F1800.0 E367.118
G1 X-3.2 Y-9.12 Z3.92 F1800.0 E367.24
G1 F1200.0
G1 E366.24
G1 F1800.0
M103
G1 X-3.8 Y-9.12 Z3.92 F900.0
G1 X-4.4 Y-9.12 Z3.92 F300.0
G1 X7.83 Y-9.12 Z3.92 F3300.0
G1 F1200.0
G1 E367.24
G1 F3300.0
M101
G1 X8.4 Y-9.12 Z3.92 F1800.0 E367.269
G1 X8.0 Y-9.12 Z3.92 F900.0 E367.31
G1 X7.6 Y-9.12 Z3.92 F1500.0 E367.335
G1 X7.42 Y-8.76 Z3.92 F1800.0 E367.355
G1 X6.13 Y-6.14 Z3.92 F1800.0 E367.505
G1 X6.13 Y2.14 Z3.92 F1800.0 E367.929
G1 X7.6 Y9.12 Z3.92 F1800.0 E368.294
G1 X8.8 Y9.12 Z3.92 F1800.0 E368.355
G1 X8.8 Y-7.92 Z3.92 F1800.0 E369.227
G1 F1200.0
G1 E368.227
G1 F1800.0
M103
G1 X8.8 Y-8.52 Z3.92 F900.0
G1 X8.8 Y-9.12 Z3.92 F300.0
G1 X-7.81 Y8.5 Z3.92 F3300.0
G1 F1200.0
G1 E369.227
G1 F3300.0
M101
G1 X-8.4 Y9.12 Z3.92 F1800.0 E369.271
G1 X-8.0 Y9.12 Z3.92 F900.0 E369.312
G1 X-7.6 Y9.12 Z3.92 F1500.0 E369.337
G1 X-7.2 Y9.12 Z3.92 F1800.0 E369.357
G1 X-4.8 Y9.12 Z3.92 F1800.0 E369.48
G1 X-6.13 Y6.14 Z3.92 F1800.0 E369.647
G1 X-6.13 Y-2.14 Z3.92 F1800.0 E370.071
G1 X-4.8 Y-9.12 Z3.92 F1800.0 E370.434
G1 X-8.8 Y-9.12 Z3.92 F1800.0 E370.639
G1 X-8.8 Y7.92 Z3.92 F1800.0 E371.511
G1 F1200.0
G1 E370.511
G1 F1800.0
M103
G1 X-8.8 Y8.52 Z3.92 F900.0
G1 X-8.8 Y9.12 Z3.92 F300.0
G1 X-9.17 Y-8.68 Z4.17 F3300.0
G1 F1200.0
M73 P45 (display progress)
G1 E371.511
G1 F3300.0
M101
G1 X-9.19 Y-9.4 Z4.18 F1800.0 E371.548
G1 X-8.79 Y-9.4 Z4.18 F900.0 E371.589
G1 X-8.39 Y-9.4 Z4.18 F1500.0 E371.613
G1 X-7.99 Y-9.4 Z4.18 F1800.0 E371.634
G1 X9.4 Y-9.4 Z4.18 F1800.0 E372.524
G1 X9.4 Y9.4 Z4.18 F1800.0 E373.486
G1 X-9.4 Y9.4 Z4.18 F1800.0 E374.448
G1 X-9.4 Y-8.41 Z4.18 F1800.0 E375.359
G1 F1200.0
G1 E375.094
G1 F1800.0
M103
G1 X-9.4 Y-9.01 Z4.18 F900.0
G1 X-9.4 Y-9.4 Z4.18 F511.0
G1 X-9.19 Y-9.4 Z4.18 F300.0
;M108 R15.0
G1 X-9.8 Y-9.61 Z4.18 F3300.0
G1 F1200.0
G1 E375.359
G1 F3300.0
M101
G1 X-9.8 Y-9.8 Z4.18 F867.0 E375.369
G1 X-9.59 Y-9.8 Z4.18 F1500.0 E375.376
G1 X-9.39 Y-9.8 Z4.18 F1800.0 E375.381
G1 X9.8 Y-9.8 Z4.18 F1800.0 E375.872
G1 X9.8 Y9.8 Z4.18 F900.0 E376.875
G1 X-9.8 Y9.8 Z4.18 F900.0 E377.878
G1 X-9.8 Y-9.01 Z4.18 F900.0 E378.841
G1 F1200.0
G1 E378.841
G1 F900.0
M103
G1 X-9.8 Y-9.31 Z4.18 F450.0
G1 X-9.8 Y-9.4 Z4.18 F361.0
G1 X-9.8 Y-9.61 Z4.18 F150.0
;M108 R30.0
G1 X-9.16 Y-8.47 Z4.18 F3300.0
G1 F1200.0
G1 E378.841
G1 F3300.0
M101
G1 X-9.12 Y-8.4 Z4.18 F1800.0 E378.845
G1 X-9.12 Y-8.0 Z4.18 F900.0 E378.886
G1 X-9.12 Y-7.6 Z4.18 F1500.0 E378.91
G1 X-9.12 Y-7.2 Z4.18 F1800.0 E378.931
G1 X-9.12 Y-4.8 Z4.18 F1800.0 E379.054
G1 X-2.14 Y-6.13 Z4.18 F1800.0 E379.417
G1 X6.14 Y-6.13 Z4.18 F1800.0 E379.841
G1 X9.12 Y-4.8 Z4.18 F1800.0 E380.008
G1 X9.12 Y-8.8 Z4.18 F1800.0 E380.213
M73 P46 (display progress)
G1 X-7.92 Y-8.8 Z4.18 F1800.0 E381.085
G1 F1200.0
G1 E380.085
G1 F1800.0
M103
G1 X-8.52 Y-8.8 Z4.18 F900.0
G1 X-9.12 Y-8.8 Z4.18 F300.0
G1 X8.49 Y6.64 Z4.18 F3300.0
G1 F1200.0
G1 E381.085
G1 F3300.0
M101
G1 X9.12 Y7.2 Z4.18 F1800.0 E381.128
G1 X9.12 Y6.8 Z4.18 F900.0 E381.169
G1 X9.12 Y6.4 Z4.18 F1500.0 E381.193
G1 X9.12 Y6.0 Z4.18 F1800.0 E381.214
G1 X9.12 Y4.0 Z4.18 F1800.0 E381.316
G1 X6.14 Y2.13 Z4.18 F1800.0 E381.496
G1 X5.86 Y2.13 Z4.18 F1800.0 E381.51
G1 X2.14 Y5.87 Z4.18 F1800.0 E381.781
G1 X1.86 Y5.87 Z4.18 F1800.0 E381.795
G1 X-1.86 Y2.13 Z4.18 F1800.0 E382.065
G1 X-2.14 Y2.13 Z4.18 F1800.0 E382.08
G1 X-5.86 Y5.87 Z4.18 F1800.0 E382.35
G1 X-6.14 Y5.87 Z4.18 F1800.0 E382.364
G1 X-9.12 Y7.2 Z4.18 F1800.0 E382.531
G1 X-9.12 Y-0.4 Z4.18 F1800.0 E382.92
G1 X-6.14 Y-1.87 Z4.18 F1800.0 E383.09
G1 X-5.86 Y-1.87 Z4.18 F1800.0 E383.104
G1 X-2.14 Y1.87 Z4.18 F1800.0 E383.375
G1 X-1.86 Y1.87 Z4.18 F1800.0 E383.389
G1 X1.86 Y-1.87 Z4.18 F1800.0 E383.659
G1 X2.14 Y-1.87 Z4.18 F1800.0 E383.674
G1 X5.86 Y1.87 Z4.18 F1800.0 E383.944
G1 X6.14 Y1.87 Z4.18 F1800.0 E383.958
G1 X9.12 Y3.6 Z4.18 F1800.0 E384.134
G1 X9.12 Y-4.4 Z4.18 F1800.0 E384.544
G1 X6.14 Y-5.87 Z4.18 F1800.0 E384.714
G1 X5.86 Y-5.87 Z4.18 F1800.0 E384.728
G1 X2.14 Y-2.13 Z4.18 F1800.0 E384.998
G1 X1.86 Y-2.13 Z4.18 F1800.0 E385.013
G1 X-1.86 Y-5.87 Z4.18 F1800.0 E385.283
G1 X-2.14 Y-5.87 Z4.18 F1800.0 E385.297
G1 X-5.86 Y-2.13 Z4.18 F1800.0 E385.568
G1 X-6.14 Y-2.13 Z4.18 F1800.0 E385.582
G1 X-9.12 Y-0.8 Z4.18 F1800.0 E385.749
G1 X-9.12 Y-3.2 Z4.18 F1800.0 E385.872
G1 F1200.0
G1 E384.872
G1 F1800.0
M103
G1 X-9.12 Y-3.8 Z4.18 F900.0
G1 X-9.12 Y-4.4 Z4.18 F300.0
M73 P47 (display progress)
G1 X8.46 Y7.94 Z4.18 F3300.0
G1 F1200.0
G1 E385.872
G1 F3300.0
M101
G1 X9.12 Y8.4 Z4.18 F1800.0 E385.913
G1 X9.12 Y8.0 Z4.18 F900.0 E385.954
G1 X9.12 Y7.6 Z4.18 F1500.0 E385.978
G1 X8.73 Y7.52 Z4.18 F1800.0 E385.999
G1 X2.14 Y6.13 Z4.18 F1800.0 E386.344
G1 X-6.14 Y6.13 Z4.18 F1800.0 E386.767
G1 X-9.12 Y7.6 Z4.18 F1800.0 E386.937
G1 X-9.12 Y8.8 Z4.18 F1800.0 E386.999
G1 X7.92 Y8.8 Z4.18 F1800.0 E387.871
G1 F1200.0
G1 E386.871
G1 F1800.0
M103
G1 X8.52 Y8.8 Z4.18 F900.0
G1 X9.12 Y8.8 Z4.18 F300.0
G1 X-8.78 Y-8.7 Z4.45 F3300.0
G1 F1200.0
G1 E387.871
G1 F3300.0
M101
G1 X-9.4 Y-9.31 Z4.46 F1800.0 E387.915
G1 X-9.4 Y-9.4 Z4.46 F442.5 E387.935
G1 X-9.1 Y-9.4 Z4.46 F900.0 E387.966
G1 X-8.7 Y-9.4 Z4.46 F1500.0 E387.991
G1 X-8.3 Y-9.4 Z4.46 F1800.0 E388.011
G1 X9.4 Y-9.4 Z4.46 F1800.0 E388.917
G1 X9.4 Y9.4 Z4.46 F1800.0 E389.879
G1 X-9.4 Y9.4 Z4.46 F1800.0 E390.841
G1 X-9.4 Y-8.11 Z4.46 F1800.0 E391.737
G1 F1200.0
G1 E391.472
G1 F1800.0
M103
G1 X-9.4 Y-8.71 Z4.46 F900.0
G1 X-9.4 Y-9.31 Z4.46 F300.0
;M108 R15.0
G1 X-9.8 Y-9.31 Z4.46 F3300.0
G1 F1200.0
G1 E391.737
G1 F3300.0
M101
G1 X-9.8 Y-9.4 Z4.46 F585.0 E391.744
G1 X-9.8 Y-9.51 Z4.46 F900.0 E391.75
G1 X-9.8 Y-9.71 Z4.46 F1500.0 E391.756
G1 X-9.8 Y-9.8 Z4.46 F1785.0 E391.758
G1 X-9.7 Y-9.8 Z4.46 F1800.0 E391.761
G1 X9.8 Y-9.8 Z4.46 F1800.0 E392.26
G1 X9.8 Y9.8 Z4.46 F900.0 E393.263
M73 P48 (display progress)
G1 X-9.8 Y9.8 Z4.46 F900.0 E394.266
G1 X-9.8 Y-8.71 Z4.46 F900.0 E395.213
G1 F1200.0
G1 E394.213
G1 F900.0
M103
G1 X-9.8 Y-9.01 Z4.46 F450.0
G1 X-9.8 Y-9.31 Z4.46 F150.0
;M108 R30.0
G1 X6.62 Y8.49 Z4.46 F3300.0
G1 F1200.0
G1 E395.213
G1 F3300.0
M101
G1 X7.2 Y9.12 Z4.46 F1800.0 E395.257
G1 X6.8 Y9.12 Z4.46 F900.0 E395.298
G1 X6.4 Y9.12 Z4.46 F1500.0 E395.322
G1 X6.0 Y9.12 Z4.46 F1800.0 E395.343
G1 X4.0 Y9.12 Z4.46 F1800.0 E395.445
G1 X2.13 Y6.14 Z4.46 F1800.0 E395.625
G1 X2.13 Y5.86 Z4.46 F1800.0 E395.639
G1 X5.87 Y2.14 Z4.46 F1800.0 E395.91
G1 X5.87 Y1.86 Z4.46 F1800.0 E395.924
G1 X2.13 Y-1.86 Z4.46 F1800.0 E396.194
G1 X2.13 Y-2.14 Z4.46 F1800.0 E396.209
G1 X5.87 Y-5.86 Z4.46 F1800.0 E396.479
G1 X5.87 Y-6.14 Z4.46 F1800.0 E396.493
G1 X7.2 Y-9.12 Z4.46 F1800.0 E396.66
G1 X-0.4 Y-9.12 Z4.46 F1800.0 E397.049
G1 X-1.87 Y-6.14 Z4.46 F1800.0 E397.219
G1 X-1.87 Y-5.86 Z4.46 F1800.0 E397.233
G1 X1.87 Y-2.14 Z4.46 F1800.0 E397.504
G1 X1.87 Y-1.86 Z4.46 F1800.0 E397.518
G1 X-1.87 Y1.86 Z4.46 F1800.0 E397.788
G1 X-1.87 Y2.14 Z4.46 F1800.0 E397.803
G1 X1.87 Y5.86 Z4.46 F1800.0 E398.073
G1 X1.87 Y6.14 Z4.46 F1800.0 E398.087
G1 X3.6 Y9.12 Z4.46 F1800.0 E398.263
G1 X-4.4 Y9.12 Z4.46 F1800.0 E398.673
G1 X-5.87 Y6.14 Z4.46 F1800.0 E398.843
G1 X-5.87 Y5.86 Z4.46 F1800.0 E398.857
G1 X-2.13 Y2.14 Z4.46 F1800.0 E399.128
G1 X-2.13 Y1.86 Z4.46 F1800.0 E399.142
G1 X-5.87 Y-1.86 Z4.46 F1800.0 E399.412
G1 X-5.87 Y-2.14 Z4.46 F1800.0 E399.426
G1 X-2.13 Y-5.86 Z4.46 F1800.0 E399.697
G1 X-2.13 Y-6.14 Z4.46 F1800.0 E399.711
G1 X-0.8 Y-9.12 Z4.46 F1800.0 E399.878
G1 X-3.2 Y-9.12 Z4.46 F1800.0 E400.001
G1 F1200.0
G1 E399.001
G1 F1800.0
M103
G1 X-3.8 Y-9.12 Z4.46 F900.0
M73 P49 (display progress)
G1 X-4.4 Y-9.12 Z4.46 F300.0
G1 X7.83 Y-9.12 Z4.46 F3300.0
G1 F1200.0
G1 E400.001
G1 F3300.0
M101
G1 X8.4 Y-9.12 Z4.46 F1800.0 E400.03
G1 X8.0 Y-9.12 Z4.46 F900.0 E400.071
G1 X7.6 Y-9.12 Z4.46 F1500.0 E400.095
G1 X7.42 Y-8.76 Z4.46 F1800.0 E400.116
G1 X6.13 Y-6.14 Z4.46 F1800.0 E400.265
G1 X6.13 Y2.14 Z4.46 F1800.0 E400.689
G1 X7.6 Y9.12 Z4.46 F1800.0 E401.054
G1 X8.8 Y9.12 Z4.46 F1800.0 E401.116
G1 X8.8 Y-7.92 Z4.46 F1800.0 E401.988
G1 F1200.0
G1 E400.988
G1 F1800.0
M103
G1 X8.8 Y-8.52 Z4.46 F900.0
G1 X8.8 Y-9.12 Z4.46 F300.0
G1 X-7.81 Y8.5 Z4.46 F3300.0
G1 F1200.0
G1 E401.988
G1 F3300.0
M101
G1 X-8.4 Y9.12 Z4.46 F1800.0 E402.031
G1 X-8.0 Y9.12 Z4.46 F900.0 E402.072
G1 X-7.6 Y9.12 Z4.46 F1500.0 E402.097
G1 X-7.2 Y9.12 Z4.46 F1800.0 E402.117
G1 X-4.8 Y9.12 Z4.46 F1800.0 E402.24
G1 X-6.13 Y6.14 Z4.46 F1800.0 E402.407
G1 X-6.13 Y-2.14 Z4.46 F1800.0 E402.831
G1 X-4.8 Y-9.12 Z4.46 F1800.0 E403.194
G1 X-8.8 Y-9.12 Z4.46 F1800.0 E403.399
G1 X-8.8 Y7.92 Z4.46 F1800.0 E404.271
G1 F1200.0
G1 E403.271
G1 F1800.0
M103
G1 X-8.8 Y8.52 Z4.46 F900.0
G1 X-8.8 Y9.12 Z4.46 F300.0
G1 X-9.38 Y-8.29 Z4.71 F3300.0
G1 F1200.0
G1 E404.271
G1 F3300.0
M101
G1 X-9.4 Y-9.0 Z4.72 F1800.0 E404.308
G1 X-9.4 Y-9.4 Z4.72 F900.0 E404.349
G1 X-9.0 Y-9.4 Z4.72 F1500.0 E404.373
G1 X-8.6 Y-9.4 Z4.72 F1800.0 E404.394
G1 X9.4 Y-9.4 Z4.72 F1800.0 E405.315
G1 X9.4 Y9.4 Z4.72 F1800.0 E406.277
M73 P50 (display progress)
G1 X-9.4 Y9.4 Z4.72 F1800.0 E407.239
G1 X-9.4 Y-7.8 Z4.72 F1800.0 E408.119
G1 F1200.0
G1 E407.854
G1 F1800.0
M103
G1 X-9.4 Y-8.4 Z4.72 F900.0
G1 X-9.4 Y-9.0 Z4.72 F300.0
;M108 R15.0
G1 X-9.8 Y-9.0 Z4.72 F3300.0
G1 F1200.0
G1 E408.119
G1 F3300.0
M101
G1 X-9.8 Y-9.2 Z4.72 F900.0 E408.129
G1 X-9.8 Y-9.4 Z4.72 F1500.0 E408.136
G1 X-9.8 Y-9.6 Z4.72 F1800.0 E408.141
G1 X-9.8 Y-9.8 Z4.72 F1800.0 E408.146
G1 X9.8 Y-9.8 Z4.72 F900.0 E409.149
G1 X9.8 Y9.8 Z4.72 F900.0 E410.152
G1 X-9.8 Y9.8 Z4.72 F900.0 E411.155
G1 X-9.8 Y-8.4 Z4.72 F900.0 E412.086
G1 F1200.0
G1 E412.086
G1 F900.0
M103
G1 X-9.8 Y-8.7 Z4.72 F450.0
G1 X-9.8 Y-9.0 Z4.72 F150.0
;M108 R30.0
G1 X-9.16 Y-8.44 Z4.72 F3300.0
G1 F1200.0
G1 E412.086
G1 F3300.0
M101
G1 X-9.12 Y-8.4 Z4.72 F1800.0 E412.089
G1 X-9.12 Y-8.0 Z4.72 F900.0 E412.13
G1 X-9.12 Y-7.6 Z4.72 F1500.0 E412.154
G1 X-9.12 Y-7.2 Z4.72 F1800.0 E412.175
G1 X-9.12 Y-4.8 Z4.72 F1800.0 E412.298
G1 X-2.14 Y-6.13 Z4.72 F1800.0 E412.661
G1 X6.14 Y-6.13 Z4.72 F1800.0 E413.085
G1 X9.12 Y-4.8 Z4.72 F1800.0 E413.252
G1 X9.12 Y-8.8 Z4.72 F1800.0 E413.457
G1 X-7.92 Y-8.8 Z4.72 F1800.0 E414.329
G1 F1200.0
G1 E413.329
G1 F1800.0
M103
G1 X-8.52 Y-8.8 Z4.72 F900.0
G1 X-9.12 Y-8.8 Z4.72 F300.0
G1 X8.49 Y6.64 Z4.72 F3300.0
G1 F1200.0
G1 E414.329
M73 P51 (display progress)
G1 F3300.0
M101
G1 X9.12 Y7.2 Z4.72 F1800.0 E414.372
G1 X9.12 Y6.8 Z4.72 F900.0 E414.413
G1 X9.12 Y6.4 Z4.72 F1500.0 E414.437
G1 X9.12 Y6.0 Z4.72 F1800.0 E414.458
G1 X9.12 Y4.0 Z4.72 F1800.0 E414.56
G1 X6.14 Y2.13 Z4.72 F1800.0 E414.74
G1 X5.86 Y2.13 Z4.72 F1800.0 E414.755
G1 X2.14 Y5.87 Z4.72 F1800.0 E415.025
G1 X1.86 Y5.87 Z4.72 F1800.0 E415.039
G1 X-1.86 Y2.13 Z4.72 F1800.0 E415.309
G1 X-2.14 Y2.13 Z4.72 F1800.0 E415.324
G1 X-5.86 Y5.87 Z4.72 F1800.0 E415.594
G1 X-6.14 Y5.87 Z4.72 F1800.0 E415.608
G1 X-9.12 Y7.2 Z4.72 F1800.0 E415.775
G1 X-9.12 Y-0.4 Z4.72 F1800.0 E416.164
G1 X-6.14 Y-1.87 Z4.72 F1800.0 E416.334
G1 X-5.86 Y-1.87 Z4.72 F1800.0 E416.349
G1 X-2.14 Y1.87 Z4.72 F1800.0 E416.619
G1 X-1.86 Y1.87 Z4.72 F1800.0 E416.633
G1 X1.86 Y-1.87 Z4.72 F1800.0 E416.903
G1 X2.14 Y-1.87 Z4.72 F1800.0 E416.918
G1 X5.86 Y1.87 Z4.72 F1800.0 E417.188
G1 X6.14 Y1.87 Z4.72 F1800.0 E417.202
G1 X9.12 Y3.6 Z4.72 F1800.0 E417.379
G1 X9.12 Y-4.4 Z4.72 F1800.0 E417.788
G1 X6.14 Y-5.87 Z4.72 F1800.0 E417.958
G1 X5.86 Y-5.87 Z4.72 F1800.0 E417.972
G1 X2.14 Y-2.13 Z4.72 F1800.0 E418.243
G1 X1.86 Y-2.13 Z4.72 F1800.0 E418.257
G1 X-1.86 Y-5.87 Z4.72 F1800.0 E418.527
G1 X-2.14 Y-5.87 Z4.72 F1800.0 E418.542
G1 X-5.86 Y-2.13 Z4.72 F1800.0 E418.812
G1 X-6.14 Y-2.13 Z4.72 F1800.0 E418.826
G1 X-9.12 Y-0.8 Z4.72 F1800.0 E418.993
G1 X-9.12 Y-3.2 Z4.72 F1800.0 E419.116
G1 F1200.0
G1 E418.116
G1 F1800.0
M103
G1 X-9.12 Y-3.8 Z4.72 F900.0
G1 X-9.12 Y-4.4 Z4.72 F300.0
G1 X8.46 Y7.94 Z4.72 F3300.0
G1 F1200.0
G1 E419.116
G1 F3300.0
M101
G1 X9.12 Y8.4 Z4.72 F1800.0 E419.157
G1 X9.12 Y8.0 Z4.72 F900.0 E419.198
G1 X9.12 Y7.6 Z4.72 F1500.0 E419.223
G1 X8.73 Y7.52 Z4.72 F1800.0 E419.243
G1 X2.14 Y6.13 Z4.72 F1800.0 E419.588
M73 P52 (display progress)
G1 X-6.14 Y6.13 Z4.72 F1800.0 E420.011
G1 X-9.12 Y7.6 Z4.72 F1800.0 E420.182
G1 X-9.12 Y8.8 Z4.72 F1800.0 E420.243
G1 X7.92 Y8.8 Z4.72 F1800.0 E421.115
G1 F1200.0
G1 E420.115
G1 F1800.0
M103
G1 X8.52 Y8.8 Z4.72 F900.0
G1 X9.12 Y8.8 Z4.72 F300.0
G1 X-8.69 Y-8.79 Z4.99 F3300.0
G1 F1200.0
G1 E421.115
G1 F3300.0
M101
G1 X-9.31 Y-9.4 Z5.0 F1800.0 E421.16
G1 X-8.91 Y-9.4 Z5.0 F900.0 E421.201
G1 X-8.51 Y-9.4 Z5.0 F1500.0 E421.225
G1 X-8.11 Y-9.4 Z5.0 F1800.0 E421.246
G1 X9.4 Y-9.4 Z5.0 F1800.0 E422.141
G1 X9.4 Y9.4 Z5.0 F1800.0 E423.103
G1 X-9.4 Y9.4 Z5.0 F1800.0 E424.066
G1 X-9.4 Y-8.29 Z5.0 F1800.0 E424.971
G1 F1200.0
G1 E424.706
G1 F1800.0
M103
G1 X-9.4 Y-8.89 Z5.0 F900.0
G1 X-9.4 Y-9.4 Z5.0 F394.0
G1 X-9.31 Y-9.4 Z5.0 F300.0
;M108 R15.0
G1 X-9.8 Y-9.49 Z5.0 F3300.0
G1 F1200.0
G1 E424.971
G1 F3300.0
M101
G1 X-9.8 Y-9.69 Z5.0 F900.0 E424.981
G1 X-9.8 Y-9.8 Z5.0 F1218.0 E424.985
G1 X-9.71 Y-9.8 Z5.0 F1500.0 E424.988
G1 X-9.51 Y-9.8 Z5.0 F1800.0 E424.993
G1 X9.8 Y-9.8 Z5.0 F1800.0 E425.487
G1 X9.8 Y9.8 Z5.0 F900.0 E426.49
G1 X-9.8 Y9.8 Z5.0 F900.0 E427.493
G1 X-9.8 Y-8.89 Z5.0 F900.0 E428.45
G1 F1200.0
G1 E427.45
G1 F900.0
M103
G1 X-9.8 Y-9.19 Z5.0 F450.0
G1 X-9.8 Y-9.4 Z5.0 F244.0
G1 X-9.8 Y-9.49 Z5.0 F150.0
;M108 R30.0
G1 X6.62 Y8.49 Z5.0 F3300.0
G1 F1200.0
M73 P53 (display progress)
G1 E428.45
G1 F3300.0
M101
G1 X7.2 Y9.12 Z5.0 F1800.0 E428.494
G1 X6.8 Y9.12 Z5.0 F900.0 E428.535
G1 X6.4 Y9.12 Z5.0 F1500.0 E428.559
G1 X6.0 Y9.12 Z5.0 F1800.0 E428.58
G1 X4.0 Y9.12 Z5.0 F1800.0 E428.682
G1 X2.13 Y6.14 Z5.0 F1800.0 E428.862
G1 X2.13 Y5.86 Z5.0 F1800.0 E428.877
G1 X5.87 Y2.14 Z5.0 F1800.0 E429.147
G1 X5.87 Y1.86 Z5.0 F1800.0 E429.161
G1 X2.13 Y-1.86 Z5.0 F1800.0 E429.432
G1 X2.13 Y-2.14 Z5.0 F1800.0 E429.446
G1 X5.87 Y-5.86 Z5.0 F1800.0 E429.716
G1 X5.87 Y-6.14 Z5.0 F1800.0 E429.73
G1 X7.2 Y-9.12 Z5.0 F1800.0 E429.897
G1 X-0.4 Y-9.12 Z5.0 F1800.0 E430.286
G1 X-1.87 Y-6.14 Z5.0 F1800.0 E430.456
G1 X-1.87 Y-5.86 Z5.0 F1800.0 E430.471
G1 X1.87 Y-2.14 Z5.0 F1800.0 E430.741
G1 X1.87 Y-1.86 Z5.0 F1800.0 E430.755
G1 X-1.87 Y1.86 Z5.0 F1800.0 E431.026
G1 X-1.87 Y2.14 Z5.0 F1800.0 E431.04
G1 X1.87 Y5.86 Z5.0 F1800.0 E431.31
G1 X1.87 Y6.14 Z5.0 F1800.0 E431.324
G1 X3.6 Y9.12 Z5.0 F1800.0 E431.501
G1 X-4.4 Y9.12 Z5.0 F1800.0 E431.91
G1 X-5.87 Y6.14 Z5.0 F1800.0 E432.08
G1 X-5.87 Y5.86 Z5.0 F1800.0 E432.095
G1 X-2.13 Y2.14 Z5.0 F1800.0 E432.365
G1 X-2.13 Y1.86 Z5.0 F1800.0 E432.379
G1 X-5.87 Y-1.86 Z5.0 F1800.0 E432.649
G1 X-5.87 Y-2.14 Z5.0 F1800.0 E432.664
G1 X-2.13 Y-5.86 Z5.0 F1800.0 E432.934
G1 X-2.13 Y-6.14 Z5.0 F1800.0 E432.948
G1 X-0.8 Y-9.12 Z5.0 F1800.0 E433.115
G1 X-3.2 Y-9.12 Z5.0 F1800.0 E433.238
G1 F1200.0
G1 E432.238
G1 F1800.0
M103
G1 X-3.8 Y-9.12 Z5.0 F900.0
G1 X-4.4 Y-9.12 Z5.0 F300.0
G1 X7.83 Y-9.12 Z5.0 F3300.0
G1 F1200.0
G1 E433.238
G1 F3300.0
M101
G1 X8.4 Y-9.12 Z5.0 F1800.0 E433.267
G1 X8.0 Y-9.12 Z5.0 F900.0 E433.308
G1 X7.6 Y-9.12 Z5.0 F1500.0 E433.332
G1 X7.42 Y-8.76 Z5.0 F1800.0 E433.353
M73 P54 (display progress)
G1 X6.13 Y-6.14 Z5.0 F1800.0 E433.503
G1 X6.13 Y2.14 Z5.0 F1800.0 E433.926
G1 X7.6 Y9.12 Z5.0 F1800.0 E434.291
G1 X8.8 Y9.12 Z5.0 F1800.0 E434.353
G1 X8.8 Y-7.92 Z5.0 F1800.0 E435.225
G1 F1200.0
G1 E434.225
G1 F1800.0
M103
G1 X8.8 Y-8.52 Z5.0 F900.0
G1 X8.8 Y-9.12 Z5.0 F300.0
G1 X-7.81 Y8.5 Z5.0 F3300.0
G1 F1200.0
G1 E435.225
G1 F3300.0
M101
G1 X-8.4 Y9.12 Z5.0 F1800.0 E435.269
G1 X-8.0 Y9.12 Z5.0 F900.0 E435.31
G1 X-7.6 Y9.12 Z5.0 F1500.0 E435.334
G1 X-7.2 Y9.12 Z5.0 F1800.0 E435.355
G1 X-4.8 Y9.12 Z5.0 F1800.0 E435.477
G1 X-6.13 Y6.14 Z5.0 F1800.0 E435.644
G1 X-6.13 Y-2.14 Z5.0 F1800.0 E436.068
G1 X-4.8 Y-9.12 Z5.0 F1800.0 E436.432
G1 X-8.8 Y-9.12 Z5.0 F1800.0 E436.636
G1 X-8.8 Y7.92 Z5.0 F1800.0 E437.508
G1 F1200.0
G1 E436.508
G1 F1800.0
M103
G1 X-8.8 Y8.52 Z5.0 F900.0
G1 X-8.8 Y9.12 Z5.0 F300.0
G1 X-9.38 Y-8.47 Z5.25 F3300.0
G1 F1200.0
G1 E437.508
G1 F3300.0
M101
G1 X-9.4 Y-9.19 Z5.27 F1800.0 E437.545
G1 X-9.4 Y-9.4 Z5.27 F616.5 E437.577
G1 X-9.21 Y-9.4 Z5.27 F900.0 E437.596
G1 X-8.81 Y-9.4 Z5.27 F1500.0 E437.621
G1 X-8.41 Y-9.4 Z5.27 F1800.0 E437.641
G1 X9.4 Y-9.4 Z5.27 F1800.0 E438.553
G1 X9.4 Y9.4 Z5.27 F1800.0 E439.515
G1 X-9.4 Y9.4 Z5.27 F1800.0 E440.477
G1 X-9.4 Y-7.99 Z5.27 F1800.0 E441.367
G1 F1200.0
G1 E441.102
G1 F1800.0
M103
G1 X-9.4 Y-8.59 Z5.27 F900.0
G1 X-9.4 Y-9.19 Z5.27 F300.0
;M108 R15.0
M73 P55 (display progress)
G1 X-9.8 Y-9.19 Z5.27 F3300.0
G1 F1200.0
G1 E441.367
G1 F3300.0
M101
G1 X-9.8 Y-9.4 Z5.27 F933.0 E441.377
G1 X-9.8 Y-9.59 Z5.27 F1500.0 E441.383
G1 X-9.8 Y-9.8 Z5.27 F1800.0 E441.388
G1 X9.8 Y-9.8 Z5.27 F900.0 E442.391
G1 X9.8 Y9.8 Z5.27 F900.0 E443.394
G1 X-9.8 Y9.8 Z5.27 F900.0 E444.397
G1 X-9.8 Y-8.59 Z5.27 F900.0 E445.338
G1 F1200.0
G1 E445.338
G1 F900.0
M103
G1 X-9.8 Y-8.89 Z5.27 F450.0
G1 X-9.8 Y-9.19 Z5.27 F150.0
;M108 R30.0
G1 X-9.16 Y-8.45 Z5.27 F3300.0
G1 F1200.0
G1 E445.338
G1 F3300.0
M101
G1 X-9.12 Y-8.4 Z5.27 F1800.0 E445.341
G1 X-9.12 Y-8.0 Z5.27 F900.0 E445.382
G1 X-9.12 Y-7.6 Z5.27 F1500.0 E445.407
G1 X-9.12 Y-7.2 Z5.27 F1800.0 E445.427
G1 X-9.12 Y-4.8 Z5.27 F1800.0 E445.55
G1 X-2.14 Y-6.13 Z5.27 F1800.0 E445.914
G1 X6.14 Y-6.13 Z5.27 F1800.0 E446.338
G1 X9.12 Y-4.8 Z5.27 F1800.0 E446.504
G1 X9.12 Y-8.8 Z5.27 F1800.0 E446.709
G1 X-7.92 Y-8.8 Z5.27 F1800.0 E447.581
G1 F1200.0
G1 E446.581
G1 F1800.0
M103
G1 X-8.52 Y-8.8 Z5.27 F900.0
G1 X-9.12 Y-8.8 Z5.27 F300.0
G1 X8.49 Y6.64 Z5.27 F3300.0
G1 F1200.0
G1 E447.581
G1 F3300.0
M101
G1 X9.12 Y7.2 Z5.27 F1800.0 E447.624
G1 X9.12 Y6.8 Z5.27 F900.0 E447.665
G1 X9.12 Y6.4 Z5.27 F1500.0 E447.69
G1 X9.12 Y6.0 Z5.27 F1800.0 E447.71
G1 X9.12 Y4.0 Z5.27 F1800.0 E447.813
G1 X6.14 Y2.13 Z5.27 F1800.0 E447.993
G1 X5.86 Y2.13 Z5.27 F1800.0 E448.007
G1 X2.14 Y5.87 Z5.27 F1800.0 E448.277
M73 P56 (display progress)
G1 X1.86 Y5.87 Z5.27 F1800.0 E448.292
G1 X-1.86 Y2.13 Z5.27 F1800.0 E448.562
G1 X-2.14 Y2.13 Z5.27 F1800.0 E448.576
G1 X-5.86 Y5.87 Z5.27 F1800.0 E448.846
G1 X-6.14 Y5.87 Z5.27 F1800.0 E448.861
G1 X-9.12 Y7.2 Z5.27 F1800.0 E449.028
G1 X-9.12 Y-0.4 Z5.27 F1800.0 E449.417
G1 X-6.14 Y-1.87 Z5.27 F1800.0 E449.587
G1 X-5.86 Y-1.87 Z5.27 F1800.0 E449.601
G1 X-2.14 Y1.87 Z5.27 F1800.0 E449.871
G1 X-1.86 Y1.87 Z5.27 F1800.0 E449.886
G1 X1.86 Y-1.87 Z5.27 F1800.0 E450.156
G1 X2.14 Y-1.87 Z5.27 F1800.0 E450.17
G1 X5.86 Y1.87 Z5.27 F1800.0 E450.44
G1 X6.14 Y1.87 Z5.27 F1800.0 E450.455
G1 X9.12 Y3.6 Z5.27 F1800.0 E450.631
G1 X9.12 Y-4.4 Z5.27 F1800.0 E451.04
G1 X6.14 Y-5.87 Z5.27 F1800.0 E451.211
G1 X5.86 Y-5.87 Z5.27 F1800.0 E451.225
G1 X2.14 Y-2.13 Z5.27 F1800.0 E451.495
G1 X1.86 Y-2.13 Z5.27 F1800.0 E451.509
G1 X-1.86 Y-5.87 Z5.27 F1800.0 E451.78
G1 X-2.14 Y-5.87 Z5.27 F1800.0 E451.794
G1 X-5.86 Y-2.13 Z5.27 F1800.0 E452.064
G1 X-6.14 Y-2.13 Z5.27 F1800.0 E452.079
G1 X-9.12 Y-0.8 Z5.27 F1800.0 E452.246
G1 X-9.12 Y-3.2 Z5.27 F1800.0 E452.368
G1 F1200.0
G1 E451.368
G1 F1800.0
M103
G1 X-9.12 Y-3.8 Z5.27 F900.0
G1 X-9.12 Y-4.4 Z5.27 F300.0
G1 X8.46 Y7.94 Z5.27 F3300.0
G1 F1200.0
G1 E452.368
G1 F3300.0
M101
G1 X9.12 Y8.4 Z5.27 F1800.0 E452.41
G1 X9.12 Y8.0 Z5.27 F900.0 E452.451
G1 X9.12 Y7.6 Z5.27 F1500.0 E452.475
G1 X8.73 Y7.52 Z5.27 F1800.0 E452.496
G1 X2.14 Y6.13 Z5.27 F1800.0 E452.84
G1 X-6.14 Y6.13 Z5.27 F1800.0 E453.264
G1 X-9.12 Y7.6 Z5.27 F1800.0 E453.434
G1 X-9.12 Y8.8 Z5.27 F1800.0 E453.495
G1 X7.92 Y8.8 Z5.27 F1800.0 E454.367
G1 F1200.0
G1 E453.367
G1 F1800.0
M103
G1 X8.52 Y8.8 Z5.27 F900.0
G1 X9.12 Y8.8 Z5.27 F300.0
G1 X-8.5 Y-8.79 Z5.53 F3300.0
M73 P57 (display progress)
G1 F1200.0
G1 E454.367
G1 F3300.0
M101
G1 X-9.12 Y-9.4 Z5.54 F1800.0 E454.412
G1 X-8.72 Y-9.4 Z5.54 F900.0 E454.453
G1 X-8.32 Y-9.4 Z5.54 F1500.0 E454.477
G1 X-7.92 Y-9.4 Z5.54 F1800.0 E454.498
G1 X9.4 Y-9.4 Z5.54 F1800.0 E455.384
G1 X9.4 Y9.4 Z5.54 F1800.0 E456.346
G1 X-9.4 Y9.4 Z5.54 F1800.0 E457.308
G1 X-9.4 Y-8.48 Z5.54 F1800.0 E458.223
G1 F1200.0
G1 E457.958
G1 F1800.0
M103
G1 X-9.4 Y-9.08 Z5.54 F900.0
G1 X-9.4 Y-9.4 Z5.54 F583.0
G1 X-9.12 Y-9.4 Z5.54 F300.0
;M108 R15.0
G1 X-9.8 Y-9.68 Z5.54 F3300.0
G1 F1200.0
G1 E458.223
G1 F3300.0
M101
G1 X-9.8 Y-9.8 Z5.54 F651.0 E458.232
G1 X-9.72 Y-9.8 Z5.54 F900.0 E458.236
G1 X-9.52 Y-9.8 Z5.54 F1500.0 E458.242
G1 X-9.32 Y-9.8 Z5.54 F1800.0 E458.247
G1 X9.8 Y-9.8 Z5.54 F1800.0 E458.736
G1 X9.8 Y9.8 Z5.54 F900.0 E459.739
G1 X-9.8 Y9.8 Z5.54 F900.0 E460.742
G1 X-9.8 Y-9.08 Z5.54 F900.0 E461.709
G1 F1200.0
G1 E460.709
G1 F900.0
M103
G1 X-9.8 Y-9.4 Z5.54 F450.0
G1 X-9.8 Y-9.4 Z5.54 F433.0
G1 X-9.8 Y-9.68 Z5.54 F150.0
;M108 R30.0
G1 X6.62 Y8.48 Z5.54 F3300.0
G1 F1200.0
G1 E461.709
G1 F3300.0
M101
G1 X7.2 Y9.12 Z5.54 F1800.0 E461.753
G1 X6.8 Y9.12 Z5.54 F900.0 E461.794
G1 X6.4 Y9.12 Z5.54 F1500.0 E461.818
G1 X6.0 Y9.12 Z5.54 F1800.0 E461.839
G1 X4.0 Y9.12 Z5.54 F1800.0 E461.941
G1 X2.13 Y6.14 Z5.54 F1800.0 E462.121
G1 X2.13 Y5.86 Z5.54 F1800.0 E462.136
M73 P58 (display progress)
G1 X5.87 Y2.14 Z5.54 F1800.0 E462.406
G1 X5.87 Y1.86 Z5.54 F1800.0 E462.42
G1 X2.13 Y-1.86 Z5.54 F1800.0 E462.69
G1 X2.13 Y-2.14 Z5.54 F1800.0 E462.705
G1 X5.87 Y-5.86 Z5.54 F1800.0 E462.975
G1 X5.87 Y-6.14 Z5.54 F1800.0 E462.989
G1 X7.2 Y-9.12 Z5.54 F1800.0 E463.156
G1 X-0.4 Y-9.12 Z5.54 F1800.0 E463.545
G1 X-1.87 Y-6.14 Z5.54 F1800.0 E463.715
G1 X-1.87 Y-5.86 Z5.54 F1800.0 E463.73
G1 X1.87 Y-2.14 Z5.54 F1800.0 E464.0
G1 X1.87 Y-1.86 Z5.54 F1800.0 E464.014
G1 X-1.87 Y1.86 Z5.54 F1800.0 E464.284
G1 X-1.87 Y2.14 Z5.54 F1800.0 E464.299
G1 X1.87 Y5.86 Z5.54 F1800.0 E464.569
G1 X1.87 Y6.14 Z5.54 F1800.0 E464.583
G1 X3.6 Y9.12 Z5.54 F1800.0 E464.76
G1 X-4.4 Y9.12 Z5.54 F1800.0 E465.169
G1 X-5.87 Y6.14 Z5.54 F1800.0 E465.339
G1 X-5.87 Y5.86 Z5.54 F1800.0 E465.353
G1 X-2.13 Y2.14 Z5.54 F1800.0 E465.624
G1 X-2.13 Y1.86 Z5.54 F1800.0 E465.638
G1 X-5.87 Y-1.86 Z5.54 F1800.0 E465.908
G1 X-5.87 Y-2.14 Z5.54 F1800.0 E465.923
G1 X-2.13 Y-5.86 Z5.54 F1800.0 E466.193
G1 X-2.13 Y-6.14 Z5.54 F1800.0 E466.207
G1 X-0.8 Y-9.12 Z5.54 F1800.0 E466.374
G1 X-3.2 Y-9.12 Z5.54 F1800.0 E466.497
G1 F1200.0
G1 E465.497
G1 F1800.0
M103
G1 X-3.8 Y-9.12 Z5.54 F900.0
G1 X-4.4 Y-9.12 Z5.54 F300.0
G1 X7.83 Y-9.12 Z5.54 F3300.0
G1 F1200.0
G1 E466.497
G1 F3300.0
M101
G1 X8.4 Y-9.12 Z5.54 F1800.0 E466.526
G1 X8.0 Y-9.12 Z5.54 F900.0 E466.567
G1 X7.6 Y-9.12 Z5.54 F1500.0 E466.591
G1 X7.42 Y-8.76 Z5.54 F1800.0 E466.612
G1 X6.13 Y-6.14 Z5.54 F1800.0 E466.761
G1 X6.13 Y2.14 Z5.54 F1800.0 E467.185
G1 X7.6 Y9.12 Z5.54 F1800.0 E467.55
G1 X8.8 Y9.12 Z5.54 F1800.0 E467.612
G1 X8.8 Y-7.92 Z5.54 F1800.0 E468.484
G1 F1200.0
G1 E467.484
G1 F1800.0
M103
G1 X8.8 Y-8.52 Z5.54 F900.0
M73 P59 (display progress)
G1 X8.8 Y-9.12 Z5.54 F300.0
G1 X-7.81 Y8.5 Z5.54 F3300.0
G1 F1200.0
G1 E468.484
G1 F3300.0
M101
G1 X-8.4 Y9.12 Z5.54 F1800.0 E468.528
G1 X-8.0 Y9.12 Z5.54 F900.0 E468.568
G1 X-7.6 Y9.12 Z5.54 F1500.0 E468.593
G1 X-7.2 Y9.12 Z5.54 F1800.0 E468.614
G1 X-4.8 Y9.12 Z5.54 F1800.0 E468.736
G1 X-6.13 Y6.14 Z5.54 F1800.0 E468.903
G1 X-6.13 Y-2.14 Z5.54 F1800.0 E469.327
G1 X-4.8 Y-9.12 Z5.54 F1800.0 E469.691
G1 X-8.8 Y-9.12 Z5.54 F1800.0 E469.895
G1 X-8.8 Y7.92 Z5.54 F1800.0 E470.767
G1 F1200.0
G1 E469.767
G1 F1800.0
M103
G1 X-8.8 Y8.52 Z5.54 F900.0
G1 X-8.8 Y9.12 Z5.54 F300.0
G1 X-9.38 Y-8.65 Z5.79 F3300.0
G1 F1200.0
G1 E470.767
G1 F3300.0
M101
G1 X-9.4 Y-9.38 Z5.81 F1800.0 E470.804
G1 X-9.4 Y-9.4 Z5.81 F334.5 E470.811
G1 X-9.02 Y-9.4 Z5.81 F900.0 E470.849
G1 X-8.62 Y-9.4 Z5.81 F1500.0 E470.874
G1 X-8.22 Y-9.4 Z5.81 F1800.0 E470.894
G1 X9.4 Y-9.4 Z5.81 F1800.0 E471.796
G1 X9.4 Y9.4 Z5.81 F1800.0 E472.758
G1 X-9.4 Y9.4 Z5.81 F1800.0 E473.72
G1 X-9.4 Y-8.18 Z5.81 F1800.0 E474.62
G1 F1200.0
G1 E474.355
G1 F1800.0
M103
G1 X-9.4 Y-8.78 Z5.81 F900.0
G1 X-9.4 Y-9.38 Z5.81 F300.0
;M108 R15.0
G1 X-9.8 Y-9.38 Z5.81 F3300.0
G1 F1200.0
G1 E474.62
G1 F3300.0
M101
G1 X-9.8 Y-9.4 Z5.81 F369.0 E474.623
G1 X-9.8 Y-9.58 Z5.81 F900.0 E474.632
G1 X-9.8 Y-9.8 Z5.81 F1569.0 E474.638
G1 X-9.62 Y-9.8 Z5.81 F1800.0 E474.643
G1 X9.8 Y-9.8 Z5.81 F1800.0 E475.14
M73 P60 (display progress)
G1 X9.8 Y9.8 Z5.81 F900.0 E476.143
G1 X-9.8 Y9.8 Z5.81 F900.0 E477.146
G1 X-9.8 Y-8.78 Z5.81 F900.0 E478.096
G1 F1200.0
G1 E478.096
G1 F900.0
M103
G1 X-9.8 Y-9.08 Z5.81 F450.0
G1 X-9.8 Y-9.38 Z5.81 F150.0
;M108 R30.0
G1 X-9.16 Y-8.46 Z5.81 F3300.0
G1 F1200.0
G1 E478.096
G1 F3300.0
M101
G1 X-9.12 Y-8.4 Z5.81 F1800.0 E478.1
G1 X-9.12 Y-8.0 Z5.81 F900.0 E478.141
G1 X-9.12 Y-7.6 Z5.81 F1500.0 E478.166
G1 X-9.12 Y-7.2 Z5.81 F1800.0 E478.186
G1 X-9.12 Y-4.8 Z5.81 F1800.0 E478.309
G1 X-2.14 Y-6.13 Z5.81 F1800.0 E478.672
G1 X6.14 Y-6.13 Z5.81 F1800.0 E479.096
G1 X9.12 Y-4.8 Z5.81 F1800.0 E479.263
G1 X9.12 Y-8.8 Z5.81 F1800.0 E479.468
G1 X-7.92 Y-8.8 Z5.81 F1800.0 E480.34
G1 F1200.0
G1 E479.34
G1 F1800.0
M103
G1 X-8.52 Y-8.8 Z5.81 F900.0
G1 X-9.12 Y-8.8 Z5.81 F300.0
G1 X8.49 Y6.64 Z5.81 F3300.0
G1 F1200.0
G1 E480.34
G1 F3300.0
M101
G1 X9.12 Y7.2 Z5.81 F1800.0 E480.383
G1 X9.12 Y6.8 Z5.81 F900.0 E480.424
G1 X9.12 Y6.4 Z5.81 F1500.0 E480.448
G1 X9.12 Y6.0 Z5.81 F1800.0 E480.469
G1 X9.12 Y4.0 Z5.81 F1800.0 E480.571
G1 X6.14 Y2.13 Z5.81 F1800.0 E480.751
G1 X5.86 Y2.13 Z5.81 F1800.0 E480.766
G1 X2.14 Y5.87 Z5.81 F1800.0 E481.036
G1 X1.86 Y5.87 Z5.81 F1800.0 E481.05
G1 X-1.86 Y2.13 Z5.81 F1800.0 E481.32
G1 X-2.14 Y2.13 Z5.81 F1800.0 E481.335
G1 X-5.86 Y5.87 Z5.81 F1800.0 E481.605
G1 X-6.14 Y5.87 Z5.81 F1800.0 E481.619
G1 X-9.12 Y7.2 Z5.81 F1800.0 E481.786
G1 X-9.12 Y-0.4 Z5.81 F1800.0 E482.175
G1 X-6.14 Y-1.87 Z5.81 F1800.0 E482.345
G1 X-5.86 Y-1.87 Z5.81 F1800.0 E482.36
G1 X-2.14 Y1.87 Z5.81 F1800.0 E482.63
M73 P61 (display progress)
G1 X-1.86 Y1.87 Z5.81 F1800.0 E482.644
G1 X1.86 Y-1.87 Z5.81 F1800.0 E482.914
G1 X2.14 Y-1.87 Z5.81 F1800.0 E482.929
G1 X5.86 Y1.87 Z5.81 F1800.0 E483.199
G1 X6.14 Y1.87 Z5.81 F1800.0 E483.213
G1 X9.12 Y3.6 Z5.81 F1800.0 E483.39
G1 X9.12 Y-4.4 Z5.81 F1800.0 E483.799
G1 X6.14 Y-5.87 Z5.81 F1800.0 E483.969
G1 X5.86 Y-5.87 Z5.81 F1800.0 E483.983
G1 X2.14 Y-2.13 Z5.81 F1800.0 E484.254
G1 X1.86 Y-2.13 Z5.81 F1800.0 E484.268
G1 X-1.86 Y-5.87 Z5.81 F1800.0 E484.538
G1 X-2.14 Y-5.87 Z5.81 F1800.0 E484.553
G1 X-5.86 Y-2.13 Z5.81 F1800.0 E484.823
G1 X-6.14 Y-2.13 Z5.81 F1800.0 E484.837
G1 X-9.12 Y-0.8 Z5.81 F1800.0 E485.004
G1 X-9.12 Y-3.2 Z5.81 F1800.0 E485.127
G1 F1200.0
G1 E484.127
G1 F1800.0
M103
G1 X-9.12 Y-3.8 Z5.81 F900.0
G1 X-9.12 Y-4.4 Z5.81 F300.0
G1 X8.46 Y7.94 Z5.81 F3300.0
G1 F1200.0
G1 E485.127
G1 F3300.0
M101
G1 X9.12 Y8.4 Z5.81 F1800.0 E485.168
G1 X9.12 Y8.0 Z5.81 F900.0 E485.209
G1 X9.12 Y7.6 Z5.81 F1500.0 E485.234
G1 X8.73 Y7.52 Z5.81 F1800.0 E485.254
G1 X2.14 Y6.13 Z5.81 F1800.0 E485.599
G1 X-6.14 Y6.13 Z5.81 F1800.0 E486.022
G1 X-9.12 Y7.6 Z5.81 F1800.0 E486.193
G1 X-9.12 Y8.8 Z5.81 F1800.0 E486.254
G1 X7.92 Y8.8 Z5.81 F1800.0 E487.126
G1 F1200.0
G1 E486.126
G1 F1800.0
M103
G1 X8.52 Y8.8 Z5.81 F900.0
G1 X9.12 Y8.8 Z5.81 F300.0
G1 X-8.78 Y-8.47 Z6.07 F3300.0
G1 F1200.0
G1 E487.126
G1 F3300.0
M101
G1 X-9.4 Y-9.07 Z6.08 F1800.0 E487.17
G1 X-9.4 Y-9.4 Z6.08 F792.0 E487.209
G1 X-9.33 Y-9.4 Z6.08 F900.0 E487.216
G1 X-8.93 Y-9.4 Z6.08 F1500.0 E487.241
G1 X-8.53 Y-9.4 Z6.08 F1800.0 E487.261
M73 P62 (display progress)
G1 X9.4 Y-9.4 Z6.08 F1800.0 E488.178
G1 X9.4 Y9.4 Z6.08 F1800.0 E489.141
G1 X-9.4 Y9.4 Z6.08 F1800.0 E490.103
G1 X-9.4 Y-7.87 Z6.08 F1800.0 E490.986
G1 F1200.0
G1 E490.722
G1 F1800.0
M103
G1 X-9.4 Y-8.47 Z6.08 F900.0
G1 X-9.4 Y-9.07 Z6.08 F300.0
;M108 R15.0
G1 X-9.8 Y-9.07 Z6.08 F3300.0
G1 F1200.0
G1 E490.986
G1 F3300.0
M101
G1 X-9.8 Y-9.27 Z6.08 F900.0 E490.997
G1 X-9.8 Y-9.4 Z6.08 F1284.0 E491.001
G1 X-9.8 Y-9.47 Z6.08 F1500.0 E491.004
G1 X-9.8 Y-9.67 Z6.08 F1800.0 E491.009
G1 X-9.8 Y-9.8 Z6.08 F1800.0 E491.012
G1 X9.8 Y-9.8 Z6.08 F900.0 E492.015
G1 X9.8 Y9.8 Z6.08 F900.0 E493.018
G1 X-9.8 Y9.8 Z6.08 F900.0 E494.021
G1 X-9.8 Y-8.47 Z6.08 F900.0 E494.956
G1 F1200.0
G1 E493.956
G1 F900.0
M103
G1 X-9.8 Y-8.77 Z6.08 F450.0
G1 X-9.8 Y-9.07 Z6.08 F150.0
;M108 R30.0
G1 X6.62 Y8.5 Z6.08 F3300.0
G1 F1200.0
G1 E494.956
G1 F3300.0
M101
G1 X7.2 Y9.12 Z6.08 F1800.0 E495.0
G1 X6.8 Y9.12 Z6.08 F900.0 E495.041
G1 X6.4 Y9.12 Z6.08 F1500.0 E495.065
G1 X6.0 Y9.12 Z6.08 F1800.0 E495.086
G1 X4.0 Y9.12 Z6.08 F1800.0 E495.188
G1 X2.13 Y6.14 Z6.08 F1800.0 E495.368
G1 X2.13 Y5.86 Z6.08 F1800.0 E495.383
G1 X5.87 Y2.14 Z6.08 F1800.0 E495.653
G1 X5.87 Y1.86 Z6.08 F1800.0 E495.667
G1 X2.13 Y-1.86 Z6.08 F1800.0 E495.937
G1 X2.13 Y-2.14 Z6.08 F1800.0 E495.952
G1 X5.87 Y-5.86 Z6.08 F1800.0 E496.222
G1 X5.87 Y-6.14 Z6.08 F1800.0 E496.236
G1 X7.2 Y-9.12 Z6.08 F1800.0 E496.403
G1 X-0.4 Y-9.12 Z6.08 F1800.0 E496.792
G1 X-1.87 Y-6.14 Z6.08 F1800.0 E496.962
M73 P63 (display progress)
G1 X-1.87 Y-5.86 Z6.08 F1800.0 E496.977
G1 X1.87 Y-2.14 Z6.08 F1800.0 E497.247
G1 X1.87 Y-1.86 Z6.08 F1800.0 E497.261
G1 X-1.87 Y1.86 Z6.08 F1800.0 E497.531
G1 X-1.87 Y2.14 Z6.08 F1800.0 E497.546
G1 X1.87 Y5.86 Z6.08 F1800.0 E497.816
G1 X1.87 Y6.14 Z6.08 F1800.0 E497.83
G1 X3.6 Y9.12 Z6.08 F1800.0 E498.006
G1 X-4.4 Y9.12 Z6.08 F1800.0 E498.416
G1 X-5.87 Y6.14 Z6.08 F1800.0 E498.586
G1 X-5.87 Y5.86 Z6.08 F1800.0 E498.6
G1 X-2.13 Y2.14 Z6.08 F1800.0 E498.871
G1 X-2.13 Y1.86 Z6.08 F1800.0 E498.885
G1 X-5.87 Y-1.86 Z6.08 F1800.0 E499.155
G1 X-5.87 Y-2.14 Z6.08 F1800.0 E499.169
G1 X-2.13 Y-5.86 Z6.08 F1800.0 E499.44
G1 X-2.13 Y-6.14 Z6.08 F1800.0 E499.454
G1 X-0.8 Y-9.12 Z6.08 F1800.0 E499.621
G1 X-3.2 Y-9.12 Z6.08 F1800.0 E499.744
G1 F1200.0
G1 E498.744
G1 F1800.0
M103
G1 X-3.8 Y-9.12 Z6.08 F900.0
G1 X-4.4 Y-9.12 Z6.08 F300.0
G1 X7.83 Y-9.12 Z6.08 F3300.0
G1 F1200.0
G1 E499.744
G1 F3300.0
M101
G1 X8.4 Y-9.12 Z6.08 F1800.0 E499.773
G1 X8.0 Y-9.12 Z6.08 F900.0 E499.814
G1 X7.6 Y-9.12 Z6.08 F1500.0 E499.838
G1 X7.42 Y-8.76 Z6.08 F1800.0 E499.859
G1 X6.13 Y-6.14 Z6.08 F1800.0 E500.008
G1 X6.13 Y2.14 Z6.08 F1800.0 E500.432
G1 X7.6 Y9.12 Z6.08 F1800.0 E500.797
G1 X8.8 Y9.12 Z6.08 F1800.0 E500.859
G1 X8.8 Y-7.92 Z6.08 F1800.0 E501.731
G1 F1200.0
G1 E500.731
G1 F1800.0
